;FLAVOR:Marlin
;TIME:42331
;Filament used: 45.1121m
;Layer height: 0.2
;MINX:55.552
;MINY:37.152
;MINZ:0.2
;MAXX:244.448
;MAXY:262.848
;MAXZ:20.4
;Generated with Cura_SteamEngine 4.9.1
M140 S60
M105
M190 S60
M104 S200
M105
M109 S200
M82 ;absolute extrusion mode
; Ender 3 Custom Start G-code
G92 E0 ; Reset Extruder
G28 ; Home all axes
G1 Z2.0 F3000 ; Move Z Axis up little to prevent scratching of Heat Bed
G1 X0.1 Y20 Z0.3 F5000.0 ; Move to start position
G1 X0.1 Y200.0 Z0.3 F1500.0 E15 ; Draw the first line
G1 X0.4 Y200.0 Z0.3 F5000.0 ; Move to side a little
G1 X0.4 Y20 Z0.3 F1500.0 E30 ; Draw the second line
G92 E0 ; Reset Extruder
G1 Z2.0 F3000 ; Move Z Axis up little to prevent scratching of Heat Bed
G1 X5 Y20 Z0.3 F5000.0 ; Move over to prevent blob squish
G92 E0
G92 E0
G1 F1500 E-6.5
;LAYER_COUNT:102
;LAYER:0
M107
G0 F1200 X75.144 Y42.647 Z0.2
;TYPE:SKIRT
G1 F1500 E0
G1 F900 X75.648 Y41.856 E0.0312
G1 X76.218 Y41.111 E0.06239
G1 X76.849 Y40.418 E0.09357
G1 X77.537 Y39.78 E0.12478
G1 X78.277 Y39.204 E0.15596
G1 X79.063 Y38.693 E0.18715
G1 X79.89 Y38.25 E0.21835
G1 X80.752 Y37.88 E0.24955
G1 X81.642 Y37.584 E0.28075
G1 X82.554 Y37.366 E0.31193
G1 X83.481 Y37.225 E0.34312
G1 X84.318 Y37.167 E0.37103
G1 X84.639 Y37.157 E0.38171
G1 X84.982 Y37.152 E0.39312
G1 X214.641 Y37.152 E4.70559
G1 X215.499 Y37.163 E4.73413
G1 X216.435 Y37.216 E4.76531
G1 X217.364 Y37.349 E4.79653
G1 X218.277 Y37.561 E4.8277
G1 X219.17 Y37.849 E4.85891
G1 X220.034 Y38.213 E4.89009
G1 X220.865 Y38.649 E4.9213
G1 X221.655 Y39.154 E4.95249
G1 X222.399 Y39.724 E4.98366
G1 X223.092 Y40.356 E5.01486
G1 X223.729 Y41.045 E5.04607
G1 X224.305 Y41.785 E5.07726
G1 X224.816 Y42.572 E5.10847
G1 X225.257 Y43.399 E5.13964
G1 X225.627 Y44.261 E5.17084
G1 X225.945 Y45.235 E5.20492
G1 X226.66 Y47.825 E5.29428
G1 X227.397 Y50.221 E5.37766
G1 X228.203 Y52.607 E5.46142
G1 X229.079 Y54.97 E5.54524
G1 X230.02 Y57.307 E5.62904
G1 X231.033 Y59.631 E5.71336
G1 X232.097 Y61.891 E5.79644
G1 X233.223 Y64.122 E5.87956
G1 X234.439 Y66.37 E5.96457
G1 X235.682 Y68.516 E6.04705
G1 X237.01 Y70.671 E6.13124
G1 X238.404 Y72.793 E6.21569
G1 X239.853 Y74.869 E6.29989
G1 X240.913 Y76.313 E6.35947
G1 X242.189 Y77.993 E6.42964
G1 X242.725 Y78.762 E6.46081
G1 X243.194 Y79.575 E6.49203
G1 X243.591 Y80.424 E6.5232
G1 X243.915 Y81.305 E6.55442
G1 X244.162 Y82.209 E6.58559
G1 X244.332 Y83.132 E6.61681
G1 X244.433 Y84.319 E6.65643
G1 X244.443 Y84.644 E6.66725
G1 X244.448 Y84.982 E6.67849
G1 X244.447 Y214.774 E10.99539
G1 X244.437 Y215.497 E11.01944
G1 X244.384 Y216.434 E11.05065
G1 X244.252 Y217.362 E11.08183
G1 X244.04 Y218.276 E11.11304
G1 X243.752 Y219.168 E11.14421
G1 X243.389 Y220.033 E11.17541
G1 X242.954 Y220.864 E11.20661
G1 X242.187 Y222.013 E11.25256
G1 X240.528 Y224.19 E11.34359
G1 X239.064 Y226.232 E11.42716
G1 X237.66 Y228.311 E11.5106
G1 X236.324 Y230.414 E11.59347
G1 X235.015 Y232.612 E11.67856
G1 X233.799 Y234.791 E11.76155
G1 X232.63 Y237.03 E11.84556
G1 X231.536 Y239.282 E11.92883
G1 X230.491 Y241.596 E12.01328
G1 X229.533 Y243.888 E12.0959
G1 X228.602 Y246.299 E12.18186
G1 X227.782 Y248.627 E12.26396
G1 X227.006 Y251.041 E12.34829
G1 X226.3 Y253.471 E12.43246
G1 X225.946 Y254.757 E12.47682
G1 X225.658 Y255.65 E12.50803
G1 X225.296 Y256.515 E12.53922
G1 X224.861 Y257.346 E12.57041
G1 X224.358 Y258.137 E12.60159
G1 X223.788 Y258.883 E12.63282
G1 X223.157 Y259.577 E12.66401
G1 X222.47 Y260.215 E12.6952
G1 X221.73 Y260.791 E12.72639
G1 X220.944 Y261.303 E12.75759
G1 X220.118 Y261.746 E12.78876
G1 X219.256 Y262.117 E12.81997
G1 X218.367 Y262.413 E12.85114
G1 X217.455 Y262.633 E12.88234
G1 X216.527 Y262.774 E12.91356
G1 X215.681 Y262.833 E12.94177
G1 X215.359 Y262.843 E12.95248
G1 X215.018 Y262.848 E12.96383
G1 X85.202 Y262.847 E17.28152
G1 X84.503 Y262.837 E17.30477
G1 X83.566 Y262.783 E17.33599
G1 X82.638 Y262.651 E17.36717
G1 X81.724 Y262.439 E17.39837
G1 X80.832 Y262.15 E17.42956
G1 X79.967 Y261.787 E17.46076
G1 X79.137 Y261.351 E17.49194
G1 X78.347 Y260.846 E17.52313
G1 X77.602 Y260.275 E17.55435
G1 X76.909 Y259.643 E17.58554
G1 X76.272 Y258.955 E17.61673
G1 X75.697 Y258.214 E17.64792
G1 X75.186 Y257.428 E17.67911
G1 X74.744 Y256.6 E17.71032
G1 X74.375 Y255.739 E17.74148
G1 X74.058 Y254.772 E17.77533
G1 X73.338 Y252.169 E17.86515
G1 X72.599 Y249.766 E17.94877
G1 X71.793 Y247.382 E18.03247
G1 X70.919 Y245.024 E18.11611
G1 X69.976 Y242.684 E18.20003
G1 X68.974 Y240.386 E18.28341
G1 X67.903 Y238.108 E18.36713
G1 X66.771 Y235.867 E18.45063
G1 X65.57 Y233.648 E18.53456
G1 X64.313 Y231.476 E18.61802
G1 X62.984 Y229.32 E18.70226
G1 X61.601 Y227.213 E18.78609
G1 X60.152 Y225.137 E18.87029
G1 X59.081 Y223.679 E18.93046
G1 X58.675 Y223.143 E18.95283
G1 X57.816 Y222.017 E18.99993
G1 X57.28 Y221.248 E19.03111
G1 X56.811 Y220.435 E19.06232
G1 X56.413 Y219.586 E19.09351
G1 X56.088 Y218.706 E19.12471
G1 X55.84 Y217.802 E19.15589
G1 X55.67 Y216.88 E19.18707
G1 X55.567 Y215.681 E19.2271
G1 X55.557 Y215.354 E19.23798
G1 X55.552 Y215.018 E19.24916
G1 X55.553 Y85.203 E23.56682
G1 X55.563 Y84.5 E23.59021
G1 X55.616 Y83.563 E23.62142
G1 X55.749 Y82.635 E23.6526
G1 X55.961 Y81.721 E23.68381
G1 X56.249 Y80.829 E23.71498
G1 X56.613 Y79.964 E23.7462
G1 X57.049 Y79.134 E23.77738
G1 X57.812 Y77.99 E23.82312
G1 X59.463 Y75.823 E23.91373
G1 X60.93 Y73.776 E23.99749
G1 X62.334 Y71.698 E24.0809
G1 X63.683 Y69.573 E24.16462
G1 X64.989 Y67.381 E24.24948
G1 X66.199 Y65.213 E24.33206
G1 X67.37 Y62.97 E24.41622
G1 X68.466 Y60.714 E24.49964
G1 X69.514 Y58.395 E24.58428
G1 X70.485 Y56.075 E24.66793
G1 X71.379 Y53.749 E24.75081
G1 X72.21 Y51.394 E24.83387
G1 X72.993 Y48.962 E24.91885
G1 X73.742 Y46.381 E25.00823
G1 X74.058 Y45.235 E25.04777
G1 X74.345 Y44.342 E25.07897
G1 X74.708 Y43.478 E25.11014
G1 X75.144 Y42.647 E25.14135
G0 F1200 X75.515 Y42.803
G1 F900 X76.015 Y42.03 E25.17197
G1 X76.579 Y41.303 E25.20258
G1 X77.205 Y40.628 E25.23319
G1 X77.887 Y40.009 E25.26383
G1 X78.62 Y39.452 E25.29445
G1 X79.398 Y38.961 E25.32505
G1 X80.217 Y38.539 E25.35569
G1 X81.069 Y38.189 E25.38633
G1 X81.947 Y37.915 E25.41692
G1 X82.847 Y37.718 E25.44756
G1 X83.76 Y37.6 E25.47818
G1 X84.331 Y37.567 E25.4972
G1 X84.652 Y37.557 E25.50788
G1 X84.982 Y37.552 E25.51886
G1 X214.641 Y37.552 E29.83134
G1 X215.493 Y37.563 E29.85968
G1 X216.412 Y37.616 E29.89029
G1 X217.323 Y37.749 E29.92092
G1 X218.219 Y37.96 E29.95153
G1 X219.094 Y38.248 E29.98217
G1 X219.94 Y38.611 E30.01279
G1 X220.751 Y39.046 E30.0434
G1 X221.522 Y39.55 E30.07403
G1 X222.246 Y40.119 E30.10466
G1 X222.918 Y40.748 E30.13528
G1 X223.533 Y41.433 E30.16589
G1 X224.086 Y42.169 E30.19651
G1 X224.573 Y42.951 E30.22715
G1 X224.99 Y43.771 E30.25775
G1 X225.335 Y44.625 E30.28839
G1 X225.56 Y45.341 E30.31335
G1 X226.278 Y47.943 E30.40313
G1 X227.022 Y50.361 E30.48727
G1 X227.825 Y52.737 E30.57069
G1 X228.704 Y55.11 E30.65485
G1 X229.659 Y57.48 E30.73984
G1 X230.663 Y59.783 E30.8234
G1 X231.735 Y62.062 E30.90717
G1 X232.88 Y64.329 E30.99164
G1 X234.084 Y66.556 E31.07584
G1 X235.344 Y68.731 E31.15944
G1 X236.678 Y70.895 E31.244
G1 X238.057 Y72.995 E31.32756
G1 X239.523 Y75.095 E31.41274
G1 X240.592 Y76.552 E31.47284
G1 X241.871 Y78.235 E31.54315
G1 X242.397 Y78.991 E31.57378
G1 X242.854 Y79.79 E31.6044
G1 X243.241 Y80.625 E31.63501
G1 X243.554 Y81.491 E31.66563
G1 X243.791 Y82.381 E31.69627
G1 X243.949 Y83.288 E31.72689
G1 X244.033 Y84.331 E31.76169
G1 X244.043 Y84.656 E31.7725
G1 X244.048 Y84.982 E31.78335
G1 X244.047 Y214.769 E36.10008
G1 X244.037 Y215.492 E36.12413
G1 X243.984 Y216.411 E36.15475
G1 X243.852 Y217.322 E36.18536
G1 X243.641 Y218.218 E36.21598
G1 X243.353 Y219.093 E36.24662
G1 X242.991 Y219.939 E36.27722
G1 X242.556 Y220.75 E36.30783
G1 X241.869 Y221.77 E36.34874
G1 X240.213 Y223.943 E36.43961
G1 X238.74 Y225.998 E36.5237
G1 X237.335 Y228.078 E36.60719
G1 X235.961 Y230.242 E36.69244
G1 X234.68 Y232.392 E36.77568
G1 X233.438 Y234.618 E36.86046
G1 X232.273 Y236.849 E36.94418
G1 X231.175 Y239.108 E37.02772
G1 X230.128 Y241.426 E37.11231
G1 X229.149 Y243.77 E37.1968
G1 X228.238 Y246.129 E37.28091
G1 X227.4 Y248.509 E37.36483
G1 X226.627 Y250.913 E37.44882
G1 X225.899 Y253.419 E37.53562
G1 X225.56 Y254.651 E37.57812
G1 X225.277 Y255.527 E37.60873
G1 X224.92 Y256.376 E37.63937
G1 X224.49 Y257.19 E37.66999
G1 X223.991 Y257.964 E37.70062
G1 X223.427 Y258.691 E37.73122
G1 X222.801 Y259.367 E37.76186
G1 X222.12 Y259.986 E37.79247
G1 X221.387 Y260.544 E37.82311
G1 X220.609 Y261.036 E37.85373
G1 X219.791 Y261.458 E37.88434
G1 X218.94 Y261.808 E37.91495
G1 X218.061 Y262.083 E37.94558
G1 X217.162 Y262.28 E37.97619
G1 X216.249 Y262.399 E38.00681
G1 X215.669 Y262.433 E38.02614
G1 X215.347 Y262.443 E38.03685
G1 X215.018 Y262.448 E38.0478
G1 X85.207 Y262.447 E42.36533
G1 X84.508 Y262.437 E42.38858
G1 X83.589 Y262.384 E42.4192
G1 X82.678 Y262.251 E42.44982
G1 X81.782 Y262.04 E42.48043
G1 X80.908 Y261.752 E42.51104
G1 X80.062 Y261.389 E42.54166
G1 X79.25 Y260.954 E42.5723
G1 X78.48 Y260.45 E42.60291
G1 X77.756 Y259.881 E42.63353
G1 X77.084 Y259.252 E42.66415
G1 X76.469 Y258.566 E42.69479
G1 X75.916 Y257.83 E42.72541
G1 X75.429 Y257.049 E42.75602
G1 X75.012 Y256.228 E42.78665
G1 X74.667 Y255.374 E42.81728
G1 X74.444 Y254.665 E42.842
G1 X73.723 Y252.059 E42.93194
G1 X72.985 Y249.658 E43.01548
G1 X72.171 Y247.252 E43.09996
G1 X71.289 Y244.872 E43.18438
G1 X70.355 Y242.553 E43.26753
G1 X69.331 Y240.205 E43.35273
G1 X68.257 Y237.922 E43.43665
G1 X67.13 Y235.69 E43.51981
G1 X65.917 Y233.448 E43.60459
G1 X64.65 Y231.26 E43.68869
G1 X63.317 Y229.096 E43.77322
G1 X61.947 Y227.01 E43.85623
G1 X60.482 Y224.911 E43.94136
G1 X59.402 Y223.441 E44.00203
G1 X58.968 Y222.867 E44.02597
G1 X58.134 Y221.774 E44.07169
G1 X57.608 Y221.019 E44.1023
G1 X57.15 Y220.22 E44.13293
G1 X56.762 Y219.385 E44.16355
G1 X56.449 Y218.52 E44.19415
G1 X56.211 Y217.63 E44.22479
G1 X56.052 Y216.723 E44.25542
G1 X55.967 Y215.669 E44.29059
G1 X55.957 Y215.342 E44.30147
G1 X55.952 Y215.018 E44.31225
G1 X55.953 Y85.208 E48.62974
G1 X55.963 Y84.505 E48.65313
G1 X56.016 Y83.586 E48.68375
G1 X56.149 Y82.675 E48.71437
G1 X56.36 Y81.779 E48.74498
G1 X56.648 Y80.905 E48.77559
G1 X57.011 Y80.058 E48.80624
G1 X57.446 Y79.247 E48.83685
G1 X58.13 Y78.233 E48.87753
G1 X59.778 Y76.069 E48.968
G1 X61.271 Y73.987 E49.05321
G1 X62.66 Y71.931 E49.13574
G1 X64.031 Y69.771 E49.22083
G1 X65.324 Y67.601 E49.30484
G1 X66.564 Y65.379 E49.38948
G1 X67.727 Y63.151 E49.47307
G1 X68.833 Y60.875 E49.55723
G1 X69.871 Y58.578 E49.64107
G1 X70.851 Y56.236 E49.72551
G1 X71.757 Y53.877 E49.80956
G1 X72.596 Y51.502 E49.89334
G1 X73.369 Y49.1 E49.97726
G1 X74.111 Y46.543 E50.06582
G1 X74.443 Y45.341 E50.10729
G1 X74.726 Y44.465 E50.13791
G1 X75.085 Y43.617 E50.16854
G1 X75.515 Y42.803 E50.19916
G0 F1200 X75.887 Y42.961
G1 F900 X76.381 Y42.205 E50.2292
G1 X76.94 Y41.496 E50.25922
G1 X77.56 Y40.84 E50.28925
G1 X78.236 Y40.24 E50.31931
G1 X78.962 Y39.703 E50.34934
G1 X79.732 Y39.232 E50.37936
G1 X80.541 Y38.831 E50.4094
G1 X81.383 Y38.503 E50.43945
G1 X82.25 Y38.251 E50.46948
G1 X83.136 Y38.077 E50.49951
G1 X84.343 Y37.967 E50.53982
G1 X84.664 Y37.957 E50.55051
G1 X84.982 Y37.952 E50.56108
G1 X214.641 Y37.952 E54.87356
G1 X215.487 Y37.963 E54.9017
G1 X216.389 Y38.016 E54.93175
G1 X217.282 Y38.148 E54.96178
G1 X218.161 Y38.359 E54.99184
G1 X219.017 Y38.647 E55.02188
G1 X219.844 Y39.009 E55.05191
G1 X220.636 Y39.443 E55.08195
G1 X221.386 Y39.946 E55.11198
G1 X222.089 Y40.513 E55.14202
G1 X222.739 Y41.139 E55.17203
G1 X223.332 Y41.821 E55.20209
G1 X223.861 Y42.553 E55.23213
G1 X224.324 Y43.328 E55.26216
G1 X224.716 Y44.142 E55.29221
G1 X225.035 Y44.987 E55.32225
G1 X225.174 Y45.448 E55.33826
G1 X225.887 Y48.03 E55.42736
G1 X226.644 Y50.491 E55.51299
G1 X227.447 Y52.867 E55.59641
G1 X228.334 Y55.262 E55.68136
G1 X229.28 Y57.61 E55.76555
G1 X230.312 Y59.977 E55.85144
G1 X231.367 Y62.22 E55.93388
G1 X232.529 Y64.52 E56.01959
G1 X233.715 Y66.715 E56.10257
G1 X235.017 Y68.963 E56.18897
G1 X236.33 Y71.095 E56.27225
G1 X237.728 Y73.222 E56.35691
G1 X239.197 Y75.327 E56.44228
G1 X240.262 Y76.778 E56.50215
G1 X240.694 Y77.349 E56.52596
G1 X241.553 Y78.477 E56.57312
G1 X242.068 Y79.219 E56.60316
G1 X242.515 Y80.004 E56.63321
G1 X242.891 Y80.825 E56.66324
G1 X243.193 Y81.676 E56.69327
G1 X243.418 Y82.551 E56.72332
G1 X243.565 Y83.442 E56.75336
G1 X243.633 Y84.343 E56.78341
G1 X243.643 Y84.668 E56.79423
G1 X243.648 Y84.982 E56.80467
G1 X243.647 Y214.763 E61.1212
G1 X243.637 Y215.486 E61.14525
G1 X243.585 Y216.388 E61.1753
G1 X243.453 Y217.281 E61.20533
G1 X243.242 Y218.159 E61.23536
G1 X242.955 Y219.015 E61.26539
G1 X242.593 Y219.843 E61.29545
G1 X242.159 Y220.635 E61.32548
G1 X241.551 Y221.528 E61.36142
G1 X239.886 Y223.713 E61.45278
G1 X238.399 Y225.787 E61.53766
G1 X236.998 Y227.861 E61.62091
G1 X235.632 Y230.013 E61.70569
G1 X234.337 Y232.187 E61.78985
G1 X233.092 Y234.417 E61.8748
G1 X231.903 Y236.695 E61.96026
G1 X230.823 Y238.918 E62.04246
G1 X229.753 Y241.286 E62.12889
G1 X228.783 Y243.607 E62.21256
G1 X227.864 Y245.989 E62.29748
G1 X227.018 Y248.391 E62.38218
G1 X226.245 Y250.794 E62.46614
G1 X225.508 Y253.33 E62.55397
G1 X225.174 Y254.545 E62.59588
G1 X224.896 Y255.404 E62.62591
G1 X224.543 Y256.236 E62.65597
G1 X224.118 Y257.032 E62.68598
G1 X223.624 Y257.789 E62.71605
G1 X223.066 Y258.498 E62.74606
G1 X222.446 Y259.155 E62.7761
G1 X221.771 Y259.755 E62.80614
G1 X221.046 Y260.293 E62.83617
G1 X220.275 Y260.764 E62.86622
G1 X219.466 Y261.166 E62.89627
G1 X218.625 Y261.494 E62.92629
G1 X217.758 Y261.747 E62.95633
G1 X216.872 Y261.922 E62.98637
G1 X215.657 Y262.033 E63.02695
G1 X215.335 Y262.043 E63.03766
G1 X215.018 Y262.048 E63.04821
G1 X85.213 Y262.047 E67.36554
G1 X84.514 Y262.037 E67.38879
G1 X83.613 Y261.984 E67.41881
G1 X82.719 Y261.852 E67.44887
G1 X81.841 Y261.641 E67.4789
G1 X80.985 Y261.353 E67.50894
G1 X80.158 Y260.991 E67.53896
G1 X79.366 Y260.557 E67.569
G1 X78.615 Y260.054 E67.59906
G1 X77.912 Y259.487 E67.6291
G1 X77.262 Y258.86 E67.65914
G1 X76.67 Y258.178 E67.68918
G1 X76.141 Y257.447 E67.71919
G1 X75.678 Y256.671 E67.74925
G1 X75.286 Y255.858 E67.77927
G1 X74.967 Y255.013 E67.80931
G1 X74.829 Y254.558 E67.82512
G1 X74.105 Y251.94 E67.91546
G1 X73.363 Y249.528 E67.9994
G1 X72.549 Y247.122 E68.08388
G1 X71.664 Y244.732 E68.16864
G1 X70.721 Y242.393 E68.25252
G1 X69.696 Y240.041 E68.33786
G1 X68.618 Y237.75 E68.42207
G1 X67.473 Y235.483 E68.50654
G1 X66.28 Y233.278 E68.58993
G1 X64.978 Y231.029 E68.67636
G1 X63.674 Y228.913 E68.75903
G1 X62.266 Y226.768 E68.84437
G1 X60.793 Y224.658 E68.92996
G1 X59.769 Y223.263 E68.98751
G1 X59.287 Y222.626 E69.01408
G1 X58.452 Y221.532 E69.05986
G1 X57.937 Y220.79 E69.0899
G1 X57.489 Y220.006 E69.11993
G1 X57.112 Y219.185 E69.14998
G1 X56.81 Y218.334 E69.18001
G1 X56.584 Y217.46 E69.21004
G1 X56.436 Y216.569 E69.24008
G1 X56.367 Y215.657 E69.2705
G1 X56.357 Y215.33 E69.28138
G1 X56.352 Y215.018 E69.29176
G1 X56.353 Y85.214 E73.60906
G1 X56.363 Y84.511 E73.63244
G1 X56.416 Y83.609 E73.66249
G1 X56.548 Y82.716 E73.69252
G1 X56.759 Y81.838 E73.72255
G1 X57.047 Y80.982 E73.75259
G1 X57.409 Y80.155 E73.78262
G1 X57.843 Y79.363 E73.81265
G1 X58.448 Y78.475 E73.84839
G1 X60.106 Y76.299 E73.93938
G1 X61.583 Y74.238 E74.02371
G1 X63.023 Y72.106 E74.10928
G1 X64.37 Y69.985 E74.19285
G1 X65.659 Y67.821 E74.27663
G1 X66.906 Y65.587 E74.36172
G1 X68.097 Y63.305 E74.44734
G1 X69.185 Y61.065 E74.53017
G1 X70.246 Y58.719 E74.6158
G1 X71.229 Y56.368 E74.70056
G1 X72.12 Y54.049 E74.78318
G1 X72.978 Y51.621 E74.86883
G1 X73.761 Y49.187 E74.95388
G1 X74.488 Y46.682 E75.04063
G1 X74.829 Y45.448 E75.08321
G1 X75.107 Y44.589 E75.11324
G1 X75.461 Y43.758 E75.14328
G1 X75.887 Y42.961 E75.17334
G1 F1500 E68.67334
;MESH:new_holder.stl(2)
G0 F1200 X83.987 Y48.572
G0 X85.072 Y48.572
G0 X214.566 Y48.934
G0 X214.748 Y70.048
;TYPE:WALL-INNER
G1 F1500 E75.17334
G1 F900 X85.252 Y70.048 E79.48039
G1 X85.252 Y48.752 E80.1887
G1 X214.748 Y48.752 E84.49576
G1 X214.748 Y70.048 E85.20406
G0 F1200 X215.148 Y70.448
;TYPE:WALL-OUTER
G1 F900 X84.852 Y70.448 E89.53773
G1 X84.852 Y48.352 E90.27264
G1 X215.148 Y48.352 E94.60631
