;FLAVOR:Marlin
;TIME:5680
;Filament used: 4.31659m
;Layer height: 0.2
;MINX:51.502
;MINY:87.252
;MINZ:0.2
;MAXX:168.498
;MAXY:109.348
;MAXZ:8.2
;Generated with Cura_SteamEngine 4.9.1
M140 S60
M105
M190 S60
M104 S200
M105
M109 S200
M82 ;absolute extrusion mode
; Ender 3 Custom Start G-code
G92 E0 ; Reset Extruder
G28 ; Home all axes
G1 Z2.0 F3000 ; Move Z Axis up little to prevent scratching of Heat Bed
G1 X0.1 Y20 Z0.3 F5000.0 ; Move to start position
G1 X0.1 Y200.0 Z0.3 F1500.0 E15 ; Draw the first line
G1 X0.4 Y200.0 Z0.3 F5000.0 ; Move to side a little
G1 X0.4 Y20 Z0.3 F1500.0 E30 ; Draw the second line
G92 E0 ; Reset Extruder
G1 Z2.0 F3000 ; Move Z Axis up little to prevent scratching of Heat Bed
G1 X5 Y20 Z0.3 F5000.0 ; Move over to prevent blob squish
G92 E0
G92 E0
G1 F1500 E-6.5
;LAYER_COUNT:40
;LAYER:0
M107
G1 F300 Z0.4
;MESH:mirrored_holder.stl
G0 F1200 X168.098 Y108.948 Z0.4
;TYPE:WALL-INNER
G1 F300 Z0.2
G1 F1500 E0
G1 F1200 X51.902 Y108.948 E3.86469
G1 X51.902 Y87.652 E4.573
G1 X168.098 Y87.652 E8.4377
G1 X168.098 Y108.948 E9.146
G0 X168.498 Y109.348
;TYPE:WALL-OUTER
G1 X51.502 Y109.348 E13.03731
G1 X51.502 Y87.252 E13.77222
G1 X168.498 Y87.252 E17.66353
G1 X168.498 Y109.348 E18.39844
G0 X167.708 Y108.558
;TYPE:SKIN
G1 X52.292 Y108.558 E22.23719
G1 X52.292 Y88.042 E22.91956
G1 X167.708 Y88.042 E26.75831
G1 X167.708 Y108.558 E27.44068
G1 F1500 E20.94068
G1 F300 Z0.4
G0 F1200 X167.547 Y88.351 Z0.4
G1 F300 Z0.2
G1 F1500 E27.44068
G1 F1200 X167.397 Y88.201 E27.44773
G0 X166.831 Y88.201
G1 X167.547 Y88.917 E27.48141
G0 X167.547 Y89.482
G1 X166.266 Y88.201 E27.54166
G0 X165.7 Y88.201
G1 X167.547 Y90.048 E27.62854
G0 X167.547 Y90.614
G1 X165.134 Y88.201 E27.74204
G0 X164.569 Y88.201
G1 X167.547 Y91.18 E27.88214
G0 X167.547 Y91.745
G1 X164.003 Y88.201 E28.04884
G0 X163.437 Y88.201
G1 X167.547 Y92.311 E28.24216
G0 X167.547 Y92.877
G1 X162.872 Y88.201 E28.46208
G0 X162.306 Y88.201
G1 X167.547 Y93.442 E28.7086
G0 X167.547 Y94.008
G1 X161.74 Y88.201 E28.98175
G0 X161.175 Y88.201
G1 X167.547 Y94.574 E29.28149
G0 X167.547 Y95.139
G1 X160.609 Y88.201 E29.60783
G0 X160.043 Y88.201
G1 X167.547 Y95.705 E29.9608
G0 X167.547 Y96.271
G1 X159.478 Y88.201 E30.34036
G0 X158.912 Y88.201
G1 X167.547 Y96.836 E30.74653
G0 X167.547 Y97.402
G1 X158.346 Y88.201 E31.17931
G0 X157.78 Y88.201
G1 X167.547 Y97.968 E31.63872
G0 X167.547 Y98.533
G1 X157.215 Y88.201 E32.12471
G0 X156.649 Y88.201
G1 X167.547 Y99.099 E32.63732
G0 X167.547 Y99.665
G1 X156.083 Y88.201 E33.17655
G0 X155.518 Y88.201
G1 X167.547 Y100.23 E33.74235
G0 X167.547 Y100.796
G1 X154.952 Y88.201 E34.33479
G0 X154.386 Y88.201
G1 X167.547 Y101.362 E34.95384
G0 X167.547 Y101.928
G1 X153.821 Y88.201 E35.59949
G0 X153.255 Y88.201
G1 X167.547 Y102.493 E36.27174
G0 X167.547 Y103.059
G1 X152.689 Y88.201 E36.97062
G0 X152.124 Y88.201
G1 X167.547 Y103.625 E37.69609
G0 X167.547 Y104.19
G1 X151.558 Y88.201 E38.44816
G0 X150.992 Y88.201
G1 X167.547 Y104.756 E39.22686
G0 X167.547 Y105.322
G1 X150.427 Y88.201 E40.03216
G0 X149.861 Y88.201
G1 X167.547 Y105.887 E40.86405
G0 X167.547 Y106.453
G1 X149.295 Y88.201 E41.72257
G0 X148.73 Y88.201
G1 X167.547 Y107.019 E42.60769
G0 X167.547 Y107.584
G1 X148.164 Y88.201 E43.5194
G0 X147.598 Y88.201
G1 X167.547 Y108.15 E44.45774
G0 X167.228 Y108.397
G1 X147.032 Y88.201 E45.4077
G0 X146.467 Y88.201
G1 X166.662 Y108.397 E46.35764
G0 X166.097 Y108.397
G1 X145.901 Y88.201 E47.3076
G0 X145.335 Y88.201
G1 X165.531 Y108.397 E48.25755
G0 X164.965 Y108.397
G1 X144.77 Y88.201 E49.20749
G0 X144.204 Y88.201
G1 X164.4 Y108.397 E50.15745
G0 X163.834 Y108.397
G1 X143.638 Y88.201 E51.1074
G0 X143.073 Y88.201
G1 X163.268 Y108.397 E52.05734
G0 X162.703 Y108.397
G1 X142.507 Y88.201 E53.0073
G0 X141.941 Y88.201
G1 X162.137 Y108.397 E53.95725
G0 X161.571 Y108.397
G1 X141.376 Y88.201 E54.90719
G0 X140.81 Y88.201
G1 X161.006 Y108.397 E55.85715
G0 X160.44 Y108.397
G1 X140.244 Y88.201 E56.8071
G0 X139.679 Y88.201
G1 X159.874 Y108.397 E57.75704
G0 X159.309 Y108.397
G1 X139.113 Y88.201 E58.707
G0 X138.547 Y88.201
G1 X158.743 Y108.397 E59.65695
G0 X158.177 Y108.397
G1 X137.981 Y88.201 E60.60691
G0 X137.416 Y88.201
G1 X157.611 Y108.397 E61.55685
G0 X157.046 Y108.397
G1 X136.85 Y88.201 E62.5068
G0 X136.284 Y88.201
G1 X156.48 Y108.397 E63.45676
G0 X155.914 Y108.397
G1 X135.719 Y88.201 E64.4067
G0 X135.153 Y88.201
G1 X155.349 Y108.397 E65.35665
G0 X154.783 Y108.397
G1 X134.587 Y88.201 E66.30661
G0 X134.022 Y88.201
G1 X154.217 Y108.397 E67.25655
G0 X153.652 Y108.397
G1 X133.456 Y88.201 E68.2065
G0 X132.89 Y88.201
G1 X153.086 Y108.397 E69.15646
G0 X152.52 Y108.397
G1 X132.325 Y88.201 E70.1064
G0 X131.759 Y88.201
G1 X151.955 Y108.397 E71.05635
G0 X151.389 Y108.397
G1 X131.193 Y88.201 E72.00631
G0 X130.628 Y88.201
G1 X150.823 Y108.397 E72.95625
G0 X150.258 Y108.397
G1 X130.062 Y88.201 E73.90621
G0 X129.496 Y88.201
G1 X149.692 Y108.397 E74.85616
G0 X149.126 Y108.397
G1 X128.931 Y88.201 E75.8061
G0 X128.365 Y88.201
G1 X148.561 Y108.397 E76.75606
G0 X147.995 Y108.397
G1 X127.799 Y88.201 E77.70601
G0 X127.233 Y88.201
G1 X147.429 Y108.397 E78.65597
G0 X146.863 Y108.397
G1 X126.668 Y88.201 E79.60591
G0 X126.102 Y88.201
G1 X146.298 Y108.397 E80.55586
G0 X145.732 Y108.397
G1 X125.536 Y88.201 E81.50582
G0 X124.971 Y88.201
G1 X145.166 Y108.397 E82.45576
G0 X144.601 Y108.397
G1 X124.405 Y88.201 E83.40571
G0 X123.839 Y88.201
G1 X144.035 Y108.397 E84.35567
G0 X143.469 Y108.397
G1 X123.274 Y88.201 E85.30561
G0 X122.708 Y88.201
G1 X142.904 Y108.397 E86.25556
G0 X142.338 Y108.397
G1 X122.142 Y88.201 E87.20552
G0 X121.577 Y88.201
G1 X141.772 Y108.397 E88.15546
G0 X141.207 Y108.397
G1 X121.011 Y88.201 E89.10541
G0 X120.445 Y88.201
G1 X140.641 Y108.397 E90.05537
G0 X140.075 Y108.397
G1 X119.88 Y88.201 E91.00531
G0 X119.314 Y88.201
G1 X139.51 Y108.397 E91.95526
G0 X138.944 Y108.397
G1 X118.748 Y88.201 E92.90522
G0 X118.182 Y88.201
G1 X138.378 Y108.397 E93.85518
G0 X137.812 Y108.397
G1 X117.617 Y88.201 E94.80511
G0 X117.051 Y88.201
G1 X137.247 Y108.397 E95.75507
G0 X136.681 Y108.397
G1 X116.485 Y88.201 E96.70503
G0 X115.92 Y88.201
G1 X136.115 Y108.397 E97.65497
G0 X135.55 Y108.397
G1 X115.354 Y88.201 E98.60492
G0 X114.788 Y88.201
G1 X134.984 Y108.397 E99.55488
G0 X134.418 Y108.397
G1 X114.223 Y88.201 E100.50482
G0 X113.657 Y88.201
G1 X133.853 Y108.397 E101.45477
G0 X133.287 Y108.397
G1 X113.091 Y88.201 E102.40473
G0 X112.526 Y88.201
G1 X132.721 Y108.397 E103.35467
G0 X132.156 Y108.397
G1 X111.96 Y88.201 E104.30462
G0 X111.394 Y88.201
G1 X131.59 Y108.397 E105.25458
G0 X131.024 Y108.397
G1 X110.829 Y88.201 E106.20452
G0 X110.263 Y88.201
G1 X130.459 Y108.397 E107.15447
G0 X129.893 Y108.397
G1 X109.697 Y88.201 E108.10443
G0 X109.132 Y88.201
G1 X129.327 Y108.397 E109.05437
G0 X128.762 Y108.397
G1 X108.566 Y88.201 E110.00432
G0 X108 Y88.201
G1 X128.196 Y108.397 E110.95428
G0 X127.63 Y108.397
G1 X107.434 Y88.201 E111.90424
G0 X106.869 Y88.201
G1 X127.064 Y108.397 E112.85417
G0 X126.499 Y108.397
G1 X106.303 Y88.201 E113.80413
G0 X105.737 Y88.201
G1 X125.933 Y108.397 E114.75409
G0 X125.367 Y108.397
G1 X105.172 Y88.201 E115.70402
G0 X104.606 Y88.201
G1 X124.802 Y108.397 E116.65398
G0 X124.236 Y108.397
G1 X104.04 Y88.201 E117.60394
G0 X103.475 Y88.201
G1 X123.67 Y108.397 E118.55387
G0 X123.105 Y108.397
G1 X102.909 Y88.201 E119.50383
G0 X102.343 Y88.201
G1 X122.539 Y108.397 E120.45379
G0 X121.973 Y108.397
G1 X101.778 Y88.201 E121.40372
G0 X101.212 Y88.201
G1 X121.408 Y108.397 E122.35368
G0 X120.842 Y108.397
G1 X100.646 Y88.201 E123.30364
G0 X100.081 Y88.201
G1 X120.276 Y108.397 E124.25358
G0 X119.711 Y108.397
G1 X99.515 Y88.201 E125.20353
G0 X98.949 Y88.201
G1 X119.145 Y108.397 E126.15349
G0 X118.579 Y108.397
G1 X98.384 Y88.201 E127.10343
G0 X97.818 Y88.201
G1 X118.014 Y108.397 E128.05338
G0 X117.448 Y108.397
G1 X97.252 Y88.201 E129.00334
G0 X96.686 Y88.201
G1 X116.882 Y108.397 E129.9533
G0 X116.316 Y108.397
G1 X96.121 Y88.201 E130.90323
G0 X95.555 Y88.201
G1 X115.751 Y108.397 E131.85319
G0 X115.185 Y108.397
G1 X94.989 Y88.201 E132.80315
G0 X94.424 Y88.201
G1 X114.619 Y108.397 E133.75308
G0 X114.054 Y108.397
G1 X93.858 Y88.201 E134.70304
G0 X93.292 Y88.201
G1 X113.488 Y108.397 E135.653
G0 X112.922 Y108.397
G1 X92.727 Y88.201 E136.60293
G0 X92.161 Y88.201
G1 X112.357 Y108.397 E137.55289
G0 X111.791 Y108.397
G1 X91.595 Y88.201 E138.50285
G0 X91.03 Y88.201
G1 X111.225 Y108.397 E139.45278
G0 X110.66 Y108.397
G1 X90.464 Y88.201 E140.40274
G0 X89.898 Y88.201
G1 X110.094 Y108.397 E141.3527
G0 X109.528 Y108.397
G1 X89.333 Y88.201 E142.30263
G0 X88.767 Y88.201
G1 X108.963 Y108.397 E143.25259
G0 X108.397 Y108.397
G1 X88.201 Y88.201 E144.20255
G0 X87.635 Y88.201
G1 X107.831 Y108.397 E145.15251
G0 X107.265 Y108.397
G1 X87.07 Y88.201 E146.10244
G0 X86.504 Y88.201
G1 X106.7 Y108.397 E147.0524
G0 X106.134 Y108.397
G1 X85.938 Y88.201 E148.00236
G0 X85.373 Y88.201
G1 X105.568 Y108.397 E148.95229
G0 X105.003 Y108.397
G1 X84.807 Y88.201 E149.90225
G0 X84.241 Y88.201
G1 X104.437 Y108.397 E150.85221
G0 X103.871 Y108.397
G1 X83.676 Y88.201 E151.80214
G0 X83.11 Y88.201
G1 X103.306 Y108.397 E152.7521
G0 X102.74 Y108.397
G1 X82.544 Y88.201 E153.70206
G0 X81.979 Y88.201
G1 X102.174 Y108.397 E154.65199
G0 X101.609 Y108.397
G1 X81.413 Y88.201 E155.60195
G0 X80.847 Y88.201
G1 X101.043 Y108.397 E156.55191
G0 X100.477 Y108.397
G1 X80.282 Y88.201 E157.50184
G0 X79.716 Y88.201
G1 X99.912 Y108.397 E158.4518
G0 X99.346 Y108.397
G1 X79.15 Y88.201 E159.40176
G0 X78.585 Y88.201
G1 X98.78 Y108.397 E160.35169
G0 X98.215 Y108.397
G1 X78.019 Y88.201 E161.30165
G0 X77.453 Y88.201
G1 X97.649 Y108.397 E162.25161
G0 X97.083 Y108.397
G1 X76.887 Y88.201 E163.20157
G0 X76.322 Y88.201
G1 X96.517 Y108.397 E164.1515
G0 X95.952 Y108.397
G1 X75.756 Y88.201 E165.10146
G0 X75.19 Y88.201
G1 X95.386 Y108.397 E166.05142
G0 X94.82 Y108.397
G1 X74.625 Y88.201 E167.00135
G0 X74.059 Y88.201
G1 X94.255 Y108.397 E167.95131
G0 X93.689 Y108.397
G1 X73.493 Y88.201 E168.90127
G0 X72.928 Y88.201
G1 X93.123 Y108.397 E169.8512
G0 X92.558 Y108.397
G1 X72.362 Y88.201 E170.80116
G0 X71.796 Y88.201
G1 X91.992 Y108.397 E171.75112
G0 X91.426 Y108.397
G1 X71.231 Y88.201 E172.70105
G0 X70.665 Y88.201
G1 X90.861 Y108.397 E173.65101
G0 X90.295 Y108.397
G1 X70.099 Y88.201 E174.60097
G0 X69.534 Y88.201
G1 X89.729 Y108.397 E175.5509
G0 X89.164 Y108.397
G1 X68.968 Y88.201 E176.50086
G0 X68.402 Y88.201
G1 X88.598 Y108.397 E177.45082
G0 X88.032 Y108.397
G1 X67.836 Y88.201 E178.40078
G0 X67.271 Y88.201
G1 X87.466 Y108.397 E179.35071
G0 X86.901 Y108.397
G1 X66.705 Y88.201 E180.30067
G0 X66.139 Y88.201
G1 X86.335 Y108.397 E181.25063
G0 X85.769 Y108.397
G1 X65.574 Y88.201 E182.20056
G0 X65.008 Y88.201
G1 X85.204 Y108.397 E183.15052
G0 X84.638 Y108.397
G1 X64.442 Y88.201 E184.10048
G0 X63.877 Y88.201
G1 X84.072 Y108.397 E185.05041
G0 X83.507 Y108.397
G1 X63.311 Y88.201 E186.00037
G0 X62.745 Y88.201
G1 X82.941 Y108.397 E186.95033
G0 X82.375 Y108.397
G1 X62.18 Y88.201 E187.90026
G0 X61.614 Y88.201
G1 X81.81 Y108.397 E188.85022
G0 X81.244 Y108.397
G1 X61.048 Y88.201 E189.80018
G0 X60.483 Y88.201
G1 X80.678 Y108.397 E190.75011
G0 X80.113 Y108.397
G1 X59.917 Y88.201 E191.70007
G0 X59.351 Y88.201
G1 X79.547 Y108.397 E192.65003
G0 X78.981 Y108.397
G1 X58.786 Y88.201 E193.59996
G0 X58.22 Y88.201
G1 X78.416 Y108.397 E194.54992
G0 X77.85 Y108.397
G1 X57.654 Y88.201 E195.49988
G0 X57.088 Y88.201
G1 X77.284 Y108.397 E196.44984
G0 X76.718 Y108.397
G1 X56.523 Y88.201 E197.39977
G0 X55.957 Y88.201
G1 X76.153 Y108.397 E198.34973
G0 X75.587 Y108.397
G1 X55.391 Y88.201 E199.29969
G0 X54.826 Y88.201
G1 X75.021 Y108.397 E200.24962
G0 X74.456 Y108.397
G1 X54.26 Y88.201 E201.19958
G0 X53.694 Y88.201
G1 X73.89 Y108.397 E202.14954
G0 X73.324 Y108.397
G1 X53.129 Y88.201 E203.09947
G0 X52.563 Y88.201
G1 X72.759 Y108.397 E204.04943
G0 X72.193 Y108.397
G1 X52.451 Y88.655 E204.97803
G0 X52.451 Y89.221
G1 X71.627 Y108.397 E205.88001
G0 X71.062 Y108.397
G1 X52.451 Y89.787 E206.75539
G0 X52.451 Y90.352
G1 X70.496 Y108.397 E207.60417
G0 X69.93 Y108.397
G1 X52.451 Y90.918 E208.42633
G0 X52.451 Y91.484
G1 X69.365 Y108.397 E209.22189
G0 X68.799 Y108.397
G1 X52.451 Y92.049 E209.99085
G0 X52.451 Y92.615
G1 X68.233 Y108.397 E210.73319
G0 X67.667 Y108.397
G1 X52.451 Y93.181 E211.4489
G0 X52.451 Y93.746
G1 X67.102 Y108.397 E212.13804
G0 X66.536 Y108.397
G1 X52.451 Y94.312 E212.80056
G0 X52.451 Y94.878
G1 X65.97 Y108.397 E213.43645
G0 X65.405 Y108.397
G1 X52.451 Y95.443 E214.04577
G0 X52.451 Y96.009
G1 X64.839 Y108.397 E214.62846
G0 X64.273 Y108.397
G1 X52.451 Y96.575 E215.18453
G0 X52.451 Y97.14
G1 X63.708 Y108.397 E215.71402
G0 X63.142 Y108.397
G1 X52.451 Y97.706 E216.2169
G0 X52.451 Y98.272
G1 X62.576 Y108.397 E216.69314
G0 X62.011 Y108.397
G1 X52.451 Y98.837 E217.14282
G0 X52.451 Y99.403
G1 X61.445 Y108.397 E217.56587
G0 X60.879 Y108.397
G1 X52.451 Y99.969 E217.9623
G0 X52.451 Y100.535
G1 X60.314 Y108.397 E218.33212
G0 X59.748 Y108.397
G1 X52.451 Y101.1 E218.67535
G0 X52.451 Y101.666
G1 X59.182 Y108.397 E218.99196
G0 X58.617 Y108.397
G1 X52.451 Y102.232 E219.28196
G0 X52.451 Y102.797
G1 X58.051 Y108.397 E219.54537
G0 X57.485 Y108.397
G1 X52.451 Y103.363 E219.78215
G0 X52.451 Y103.929
G1 X56.919 Y108.397 E219.99232
G0 X56.354 Y108.397
G1 X52.451 Y104.494 E220.1759
G0 X52.451 Y105.06
G1 X55.788 Y108.397 E220.33286
G0 X55.222 Y108.397
G1 X52.451 Y105.626 E220.4632
G0 X52.451 Y106.191
G1 X54.657 Y108.397 E220.56697
G0 X54.091 Y108.397
G1 X52.451 Y106.757 E220.64411
G0 X52.451 Y107.323
G1 X53.525 Y108.397 E220.69462
G0 X52.96 Y108.397
G1 X52.451 Y107.888 E220.71857
G1 F1500 E214.21857
G1 F300 Z0.4
;MESH:NONMESH
G0 F1200 X168.098 Y108.948 Z0.4
;TIME_ELAPSED:364.992450
;LAYER:1
M106 S85
;TYPE:WALL-INNER
;MESH:mirrored_holder.stl
G1 F300 Z0.4
G1 F1500 E220.71857
G1 F1320 X51.902 Y108.948 E224.58326
G1 X51.902 Y87.652 E225.29157
G1 X168.098 Y87.652 E229.15626
G1 X168.098 Y108.948 E229.86457
G0 F2280 X168.498 Y109.348
;TYPE:WALL-OUTER
G1 F1320 X51.502 Y109.348 E233.75587
G1 X51.502 Y87.252 E234.49079
G1 X168.498 Y87.252 E238.38209
G1 X168.498 Y109.348 E239.11701
G0 F2280 X167.708 Y108.558
;TYPE:SKIN
G1 F1200 X52.292 Y108.558 E242.95576
G1 X52.292 Y88.042 E243.63812
G1 X167.708 Y88.042 E247.47688
G1 X167.708 Y108.558 E248.15924
G0 F2280 X167.547 Y107.941
G1 F1200 X167.09 Y108.398 E248.18074
G0 F2280 X166.525 Y108.398
G1 F1200 X167.547 Y107.375 E248.22883
G0 F2280 X167.547 Y106.809
G1 F1200 X165.959 Y108.398 E248.30355
G0 F2280 X165.393 Y108.398
G1 F1200 X167.547 Y106.244 E248.40487
G0 F2280 X167.547 Y105.678
G1 F1200 X164.828 Y108.398 E248.53279
G0 F2280 X164.262 Y108.398
G1 F1200 X167.547 Y105.112 E248.68733
G0 F2280 X167.547 Y104.547
G1 F1200 X163.696 Y108.398 E248.86846
G0 F2280 X163.13 Y108.398
G1 F1200 X167.547 Y103.981 E249.07623
G0 F2280 X167.547 Y103.415
G1 F1200 X162.565 Y108.398 E249.31059
G0 F2280 X161.999 Y108.398
G1 F1200 X167.547 Y102.85 E249.57155
G0 F2280 X167.547 Y102.284
G1 F1200 X161.433 Y108.398 E249.85913
G0 F2280 X160.868 Y108.398
G1 F1200 X167.547 Y101.718 E250.17332
G0 F2280 X167.547 Y101.153
G1 F1200 X160.302 Y108.398 E250.5141
G0 F2280 X159.736 Y108.398
G1 F1200 X167.547 Y100.587 E250.8815
G0 F2280 X167.547 Y100.021
G1 F1200 X159.171 Y108.398 E251.27551
G0 F2280 X158.605 Y108.398
G1 F1200 X167.547 Y99.455 E251.69614
G0 F2280 X167.547 Y98.89
G1 F1200 X158.039 Y108.398 E252.14336
G0 F2280 X157.474 Y108.398
G1 F1200 X167.547 Y98.324 E252.61719
G0 F2280 X167.547 Y97.758
G1 F1200 X156.908 Y108.398 E253.11764
G0 F2280 X156.342 Y108.398
G1 F1200 X167.547 Y97.193 E253.64469
G0 F2280 X167.547 Y96.627
G1 F1200 X155.777 Y108.398 E254.19834
G0 F2280 X155.211 Y108.398
G1 F1200 X167.547 Y96.061 E254.77861
G0 F2280 X167.547 Y95.496
G1 F1200 X154.645 Y108.398 E255.38548
G0 F2280 X154.079 Y108.398
G1 F1200 X167.547 Y94.93 E256.01897
G0 F2280 X167.547 Y94.364
G1 F1200 X153.514 Y108.398 E256.67906
G0 F2280 X152.948 Y108.398
G1 F1200 X167.547 Y93.799 E257.36576
G0 F2280 X167.547 Y93.233
G1 F1200 X152.382 Y108.398 E258.07907
G0 F2280 X151.817 Y108.398
G1 F1200 X167.547 Y92.667 E258.81899
G0 F2280 X167.547 Y92.102
