;FLAVOR:Marlin
;TIME:7395
;Filament used: 5.89295m
;Layer height: 0.2
;MINX:50.2
;MINY:84.546
;MINZ:0.2
;MAXX:169.8
;MAXY:135.454
;MAXZ:4.2
;Generated with Cura_SteamEngine 4.9.1
M140 S60
M105
M190 S60
M104 S200
M105
M109 S200
M82 ;absolute extrusion mode
; Ender 3 Custom Start G-code
G92 E0 ; Reset Extruder
G28 ; Home all axes
G1 Z2.0 F3000 ; Move Z Axis up little to prevent scratching of Heat Bed
G1 X0.1 Y20 Z0.3 F5000.0 ; Move to start position
G1 X0.1 Y200.0 Z0.3 F1500.0 E15 ; Draw the first line
G1 X0.4 Y200.0 Z0.3 F5000.0 ; Move to side a little
G1 X0.4 Y20 Z0.3 F1500.0 E30 ; Draw the second line
G92 E0 ; Reset Extruder
G1 Z2.0 F3000 ; Move Z Axis up little to prevent scratching of Heat Bed
G1 X5 Y20 Z0.3 F5000.0 ; Move over to prevent blob squish
G92 E0
G92 E0
G1 F1500 E-6.5
;LAYER_COUNT:20
;LAYER:0
M107
G1 F300 Z0.4
;MESH:bottom.stl
G0 F1200 X169.4 Y135.054 Z0.4
;TYPE:WALL-INNER
G1 F300 Z0.2
G1 F1500 E0
G1 F1200 X50.6 Y135.054 E3.9513
G1 X50.6 Y121.85 E4.39047
G1 X69.257 Y121.85 E5.01101
G1 X69.257 Y98.15 E5.79927
G1 X50.6 Y98.15 E6.4198
G1 X50.6 Y84.946 E6.85897
G1 X169.4 Y84.946 E10.81028
G1 X169.4 Y98.15 E11.24944
G1 X150.743 Y98.15 E11.86998
G1 X150.743 Y121.85 E12.65824
G1 X169.4 Y121.85 E13.27878
G1 X169.4 Y135.054 E13.71794
G0 X169.8 Y135.454
;TYPE:WALL-OUTER
G1 X50.2 Y135.454 E17.69586
G1 X50.2 Y121.45 E18.16163
G1 X68.857 Y121.45 E18.78216
G1 X68.857 Y98.55 E19.54382
G1 X50.2 Y98.55 E20.16436
G1 X50.2 Y84.546 E20.63013
G1 X169.8 Y84.546 E24.60804
G1 X169.8 Y98.55 E25.07382
G1 X151.143 Y98.55 E25.69435
G1 X151.143 Y121.45 E26.45601
G1 X169.8 Y121.45 E27.07654
G1 X169.8 Y135.454 E27.54232
G0 X169.01 Y134.664
;TYPE:SKIN
G1 X50.99 Y134.664 E31.46768
G1 X50.99 Y122.24 E31.8809
G1 X69.647 Y122.24 E32.50144
G1 X69.647 Y97.76 E33.31565
G1 X50.99 Y97.76 E33.93618
G1 X50.99 Y85.336 E34.3494
G1 X169.01 Y85.336 E38.27477
G1 X169.01 Y97.76 E38.68799
G1 X150.353 Y97.76 E39.30852
G1 X150.353 Y122.24 E40.12273
G1 X169.01 Y122.24 E40.74327
G1 X169.01 Y134.664 E41.15649
G1 F1500 E34.65649
G1 F300 Z0.4
G0 F1200 X168.849 Y85.693 Z0.4
G1 F300 Z0.2
G1 F1500 E41.15649
G1 F1200 X168.651 Y85.495 E41.1658
G0 X168.085 Y85.495
G1 X168.849 Y86.259 E41.20174
G0 X168.849 Y86.824
G1 X167.519 Y85.495 E41.26428
G0 X166.954 Y85.495
G1 X168.849 Y87.39 E41.35341
G0 X168.849 Y87.956
G1 X166.388 Y85.495 E41.46917
G0 X165.822 Y85.495
G1 X168.849 Y88.521 E41.61153
G0 X168.849 Y89.087
G1 X165.257 Y85.495 E41.78048
G0 X164.691 Y85.495
G1 X168.849 Y89.653 E41.97606
G0 X168.849 Y90.219
G1 X164.125 Y85.495 E42.19826
G0 X163.56 Y85.495
G1 X168.849 Y90.784 E42.44704
G0 X168.849 Y91.35
G1 X162.994 Y85.495 E42.72244
G0 X162.428 Y85.495
G1 X168.849 Y91.916 E43.02447
G0 X168.849 Y92.481
G1 X161.863 Y85.495 E43.35307
G0 X161.297 Y85.495
G1 X168.849 Y93.047 E43.70829
G0 X168.849 Y93.613
G1 X160.731 Y85.495 E44.09014
G0 X160.166 Y85.495
G1 X168.849 Y94.178 E44.49856
G0 X168.849 Y94.744
G1 X159.6 Y85.495 E44.9336
G0 X159.034 Y85.495
G1 X168.849 Y95.31 E45.39527
G0 X168.849 Y95.875
G1 X158.468 Y85.495 E45.88354
G0 X157.903 Y85.495
G1 X168.849 Y96.441 E46.3984
G0 X168.849 Y97.007
G1 X157.337 Y85.495 E46.93989
G0 X156.771 Y85.495
G1 X168.849 Y97.572 E47.50798
G0 X168.31 Y97.599
G1 X156.206 Y85.495 E48.07732
G0 X155.64 Y85.495
G1 X167.744 Y97.599 E48.64665
G0 X167.179 Y97.599
G1 X155.074 Y85.495 E49.21601
G0 X154.509 Y85.495
G1 X166.613 Y97.599 E49.78535
G0 X166.047 Y97.599
G1 X153.943 Y85.495 E50.35468
G0 X153.377 Y85.495
G1 X165.482 Y97.599 E50.92404
G0 X164.916 Y97.599
G1 X152.812 Y85.495 E51.49337
G0 X152.246 Y85.495
G1 X164.35 Y97.599 E52.06271
G0 X163.785 Y97.599
G1 X151.68 Y85.495 E52.63207
G0 X151.115 Y85.495
G1 X163.219 Y97.599 E53.2014
G0 X162.653 Y97.599
G1 X150.549 Y85.495 E53.77074
G0 X149.983 Y85.495
G1 X162.087 Y97.599 E54.34007
G0 X161.522 Y97.599
G1 X149.418 Y85.495 E54.90941
G0 X148.852 Y85.495
G1 X160.956 Y97.599 E55.47874
G0 X160.39 Y97.599
G1 X148.286 Y85.495 E56.04808
G0 X147.72 Y85.495
G1 X159.825 Y97.599 E56.61744
G0 X159.259 Y97.599
G1 X147.155 Y85.495 E57.18677
G0 X146.589 Y85.495
G1 X158.693 Y97.599 E57.75611
G0 X158.128 Y97.599
G1 X146.023 Y85.495 E58.32547
G0 X145.458 Y85.495
G1 X157.562 Y97.599 E58.8948
G0 X156.996 Y97.599
G1 X144.892 Y85.495 E59.46414
G0 X144.326 Y85.495
G1 X156.431 Y97.599 E60.03349
G0 X155.865 Y97.599
G1 X143.761 Y85.495 E60.60283
G0 X143.195 Y85.495
G1 X155.299 Y97.599 E61.17216
G0 X154.734 Y97.599
G1 X142.629 Y85.495 E61.74152
G0 X142.064 Y85.495
G1 X154.168 Y97.599 E62.31086
G0 X153.602 Y97.599
G1 X141.498 Y85.495 E62.88019
G0 X140.932 Y85.495
G1 X153.036 Y97.599 E63.44953
G0 X152.471 Y97.599
G1 X140.367 Y85.495 E64.01886
G0 X139.801 Y85.495
G1 X151.905 Y97.599 E64.5882
G0 X151.339 Y97.599
G1 X139.235 Y85.495 E65.15753
G0 X138.67 Y85.495
G1 X150.774 Y97.599 E65.72687
G0 X150.208 Y97.599
G1 X138.104 Y85.495 E66.2962
G0 X137.538 Y85.495
G1 X150.192 Y98.149 E66.89141
G0 X150.192 Y98.714
G1 X136.972 Y85.495 E67.51321
G0 X136.407 Y85.495
G1 X150.192 Y99.28 E68.16162
G0 X150.192 Y99.846
G1 X135.841 Y85.495 E68.83664
G0 X135.275 Y85.495
G1 X150.192 Y100.411 E69.53827
G0 X150.192 Y100.977
G1 X134.71 Y85.495 E70.2665
G0 X134.144 Y85.495
G1 X150.192 Y101.543 E71.02135
G0 X150.192 Y102.109
G1 X133.578 Y85.495 E71.80282
G0 X133.013 Y85.495
G1 X150.192 Y102.674 E72.61086
G0 X150.192 Y103.24
G1 X132.447 Y85.495 E73.44553
G0 X131.881 Y85.495
G1 X150.192 Y103.806 E74.30683
G0 X150.192 Y104.371
G1 X131.316 Y85.495 E75.1947
G0 X130.75 Y85.495
G1 X150.192 Y104.937 E76.10919
G0 X150.192 Y105.503
G1 X130.184 Y85.495 E77.0503
G0 X129.619 Y85.495
G1 X150.192 Y106.068 E78.01799
G0 X150.192 Y106.634
G1 X129.053 Y85.495 E79.01231
G0 X128.487 Y85.495
G1 X150.192 Y107.2 E80.03325
G0 X150.192 Y107.765
G1 X127.921 Y85.495 E81.08078
G0 X127.356 Y85.495
G1 X150.192 Y108.331 E82.15492
G0 X150.192 Y108.897
G1 X126.79 Y85.495 E83.25568
G0 X126.224 Y85.495
G1 X150.192 Y109.462 E84.38303
G0 X150.192 Y110.028
G1 X125.659 Y85.495 E85.53699
G0 X125.093 Y85.495
G1 X150.192 Y110.594 E86.71757
G0 X150.192 Y111.16
G1 X124.527 Y85.495 E87.92477
G0 X123.962 Y85.495
G1 X150.192 Y111.725 E89.15855
G0 X150.192 Y112.291
G1 X123.396 Y85.495 E90.41895
G0 X122.83 Y85.495
G1 X150.192 Y112.857 E91.70598
G0 X150.192 Y113.422
G1 X122.265 Y85.495 E93.01958
G0 X121.699 Y85.495
G1 X150.192 Y113.988 E94.3598
G0 X150.192 Y114.554
G1 X121.133 Y85.495 E95.72665
G0 X120.568 Y85.495
G1 X150.192 Y115.119 E97.12007
G0 X150.192 Y115.685
G1 X120.002 Y85.495 E98.54012
G0 X119.436 Y85.495
G1 X150.192 Y116.251 E99.98678
G0 X150.192 Y116.816
G1 X118.871 Y85.495 E101.46003
G0 X118.305 Y85.495
G1 X150.192 Y117.382 E102.95989
G0 X150.192 Y117.948
G1 X117.739 Y85.495 E104.48638
G0 X117.173 Y85.495
G1 X150.192 Y118.513 E106.03947
G0 X150.192 Y119.079
G1 X116.608 Y85.495 E107.61916
G0 X116.042 Y85.495
G1 X150.192 Y119.645 E109.22547
G0 X150.192 Y120.21
G1 X115.476 Y85.495 E110.85838
G0 X114.911 Y85.495
G1 X150.192 Y120.776 E112.51789
G0 X150.192 Y121.342
G1 X114.345 Y85.495 E114.20403
G0 X113.779 Y85.495
G1 X150.192 Y121.908 E115.91678
G0 X150.684 Y122.4
G1 X162.788 Y134.503 E116.48609
G0 X163.353 Y134.503
G1 X151.25 Y122.4 E117.05538
G0 X151.815 Y122.4
G1 X163.919 Y134.503 E117.62469
G0 X164.485 Y134.503
G1 X152.381 Y122.4 E118.194
G0 X152.947 Y122.4
G1 X165.05 Y134.503 E118.76329
G0 X165.616 Y134.503
G1 X153.512 Y122.4 E119.3326
G0 X154.078 Y122.4
G1 X166.182 Y134.503 E119.90192
G0 X166.747 Y134.503
G1 X154.644 Y122.4 E120.4712
G0 X155.209 Y122.4
G1 X167.313 Y134.503 E121.04051
G0 X167.879 Y134.503
G1 X155.775 Y122.4 E121.60983
G0 X156.341 Y122.4
G1 X168.444 Y134.503 E122.17911
G0 X168.849 Y134.342
G1 X156.906 Y122.4 E122.74085
G0 X157.472 Y122.4
G1 X168.849 Y133.776 E123.27597
G0 X168.849 Y133.211
G1 X158.038 Y122.4 E123.78448
G0 X158.604 Y122.4
G1 X168.849 Y132.645 E124.26638
G0 X168.849 Y132.079
G1 X159.169 Y122.4 E124.72167
G0 X159.735 Y122.4
G1 X168.849 Y131.514 E125.15037
G0 X168.849 Y130.948
G1 X160.301 Y122.4 E125.55244
G0 X160.866 Y122.4
G1 X168.849 Y130.382 E125.92791
G0 X168.849 Y129.817
G1 X161.432 Y122.4 E126.27678
G0 X161.998 Y122.4
G1 X168.849 Y129.251 E126.59903
G0 X168.849 Y128.685
G1 X162.563 Y122.4 E126.89468
G0 X163.129 Y122.4
G1 X168.849 Y128.119 E127.16371
G0 X168.849 Y127.554
G1 X163.695 Y122.4 E127.40614
G0 X164.26 Y122.4
G1 X168.849 Y126.988 E127.62197
G0 X168.849 Y126.422
G1 X164.826 Y122.4 E127.81118
G0 X165.392 Y122.4
G1 X168.849 Y125.857 E127.97378
G0 X168.849 Y125.291
G1 X165.957 Y122.4 E128.10979
G0 X166.523 Y122.4
G1 X168.849 Y124.725 E128.21917
G0 X168.849 Y124.16
G1 X167.089 Y122.4 E128.30196
G0 X167.655 Y122.4
G1 X168.849 Y123.594 E128.35812
G0 X168.849 Y123.028
G1 X168.22 Y122.4 E128.38768
G0 X168.786 Y122.4
G1 X168.849 Y122.463 E128.39065
G1 F1500 E121.89065
G1 F300 Z0.4
G0 F1200 X162.222 Y134.503 Z0.4
G1 F300 Z0.2
G1 F1500 E128.39065
G1 F1200 X113.214 Y85.495 E130.69583
G0 X112.648 Y85.495
G1 X161.656 Y134.503 E133.00102
G0 X161.09 Y134.503
G1 X112.082 Y85.495 E135.30621
G0 X111.517 Y85.495
G1 X160.525 Y134.503 E137.61139
G0 X159.959 Y134.503
G1 X110.951 Y85.495 E139.91658
G0 X110.385 Y85.495
G1 X159.393 Y134.503 E142.22176
G0 X158.828 Y134.503
G1 X109.82 Y85.495 E144.52695
G0 X109.254 Y85.495
G1 X158.262 Y134.503 E146.83214
G0 X157.696 Y134.503
G1 X108.688 Y85.495 E149.13732
G0 X108.122 Y85.495
G1 X157.131 Y134.503 E151.44253
G0 X156.565 Y134.503
G1 X107.557 Y85.495 E153.74772
G0 X106.991 Y85.495
G1 X155.999 Y134.503 E156.0529
G0 X155.434 Y134.503
G1 X106.425 Y85.495 E158.35811
G0 X105.86 Y85.495
G1 X154.868 Y134.503 E160.6633
G0 X154.302 Y134.503
G1 X105.294 Y85.495 E162.96849
G0 X104.728 Y85.495
G1 X153.737 Y134.503 E165.27369
G0 X153.171 Y134.503
G1 X104.163 Y85.495 E167.57888
G0 X103.597 Y85.495
G1 X152.605 Y134.503 E169.88407
G0 X152.039 Y134.503
G1 X103.031 Y85.495 E172.18925
G0 X102.466 Y85.495
G1 X151.474 Y134.503 E174.49444
G0 X150.908 Y134.503
G1 X101.9 Y85.495 E176.79963
G0 X101.334 Y85.495
G1 X150.342 Y134.503 E179.10481
G0 X149.777 Y134.503
G1 X100.769 Y85.495 E181.41
G0 X100.203 Y85.495
G1 X149.211 Y134.503 E183.71518
G0 X148.645 Y134.503
G1 X99.637 Y85.495 E186.02037
G0 X99.072 Y85.495
G1 X148.08 Y134.503 E188.32556
G0 X147.514 Y134.503
G1 X98.506 Y85.495 E190.63074
G0 X97.94 Y85.495
G1 X146.948 Y134.503 E192.93593
G0 X146.383 Y134.503
G1 X97.374 Y85.495 E195.24114
G0 X96.809 Y85.495
G1 X145.817 Y134.503 E197.54632
G0 X145.251 Y134.503
G1 X96.243 Y85.495 E199.85151
G0 X95.677 Y85.495
G1 X144.686 Y134.503 E202.15672
G0 X144.12 Y134.503
G1 X95.112 Y85.495 E204.4619
G0 X94.546 Y85.495
G1 X143.554 Y134.503 E206.76709
G0 X142.989 Y134.503
G1 X93.98 Y85.495 E209.0723
G0 X93.415 Y85.495
G1 X142.423 Y134.503 E211.37749
G0 X141.857 Y134.503
G1 X92.849 Y85.495 E213.68267
G0 X92.283 Y85.495
G1 X141.291 Y134.503 E215.98786
G0 X140.726 Y134.503
G1 X91.718 Y85.495 E218.29304
G0 X91.152 Y85.495
G1 X140.16 Y134.503 E220.59823
G0 X139.594 Y134.503
G1 X90.586 Y85.495 E222.90342
G0 X90.021 Y85.495
G1 X139.029 Y134.503 E225.2086
G0 X138.463 Y134.503
G1 X89.455 Y85.495 E227.51379
G0 X88.889 Y85.495
G1 X137.897 Y134.503 E229.81898
G0 X137.332 Y134.503
G1 X88.324 Y85.495 E232.12416
G0 X87.758 Y85.495
G1 X136.766 Y134.503 E234.42935
G0 X136.2 Y134.503
G1 X87.192 Y85.495 E236.73453
G0 X86.626 Y85.495
G1 X135.635 Y134.503 E239.03974
G0 X135.069 Y134.503
G1 X86.061 Y85.495 E241.34493
G0 X85.495 Y85.495
G1 X134.503 Y134.503 E243.65012
G0 X133.938 Y134.503
G1 X84.929 Y85.495 E245.95532
G0 X84.364 Y85.495
G1 X133.372 Y134.503 E248.26051
G0 X132.806 Y134.503
G1 X83.798 Y85.495 E250.5657
G0 X83.232 Y85.495
G1 X132.24 Y134.503 E252.87088
G0 X131.675 Y134.503
G1 X82.667 Y85.495 E255.17607
G0 X82.101 Y85.495
G1 X131.109 Y134.503 E257.48126
G0 X130.543 Y134.503
G1 X81.535 Y85.495 E259.78644
G0 X80.97 Y85.495
G1 X129.978 Y134.503 E262.09163
G0 X129.412 Y134.503
G1 X80.404 Y85.495 E264.39681
G0 X79.838 Y85.495
G1 X128.846 Y134.503 E266.702
G0 X128.281 Y134.503
G1 X79.273 Y85.495 E269.00719
G0 X78.707 Y85.495
G1 X127.715 Y134.503 E271.31237
G0 X127.149 Y134.503
G1 X78.141 Y85.495 E273.61756
G0 X77.575 Y85.495
G1 X126.584 Y134.503 E275.92277
G0 X126.018 Y134.503
G1 X77.01 Y85.495 E278.22795
G0 X76.444 Y85.495
G1 X125.452 Y134.503 E280.53314
G0 X124.887 Y134.503
G1 X75.878 Y85.495 E282.83835
G0 X75.313 Y85.495
G1 X124.321 Y134.503 E285.14353
G0 X123.755 Y134.503
G1 X74.747 Y85.495 E287.44872
G0 X74.181 Y85.495
G1 X123.19 Y134.503 E289.75393
G0 X122.624 Y134.503
G1 X73.616 Y85.495 E292.05912
G0 X73.05 Y85.495
G1 X122.058 Y134.503 E294.3643
G0 X121.492 Y134.503
G1 X72.484 Y85.495 E296.66949
G0 X71.919 Y85.495
G1 X120.927 Y134.503 E298.97467
G0 X120.361 Y134.503
G1 X71.353 Y85.495 E301.27986
G0 X70.787 Y85.495
G1 X119.795 Y134.503 E303.58505
G0 X119.23 Y134.503
G1 X70.222 Y85.495 E305.89023
G0 X69.656 Y85.495
G1 X118.664 Y134.503 E308.19542
G0 X118.098 Y134.503
G1 X69.09 Y85.495 E310.50061
G0 X68.525 Y85.495
G1 X117.533 Y134.503 E312.80579
G0 X116.967 Y134.503
G1 X67.959 Y85.495 E315.11098
G0 X67.393 Y85.495
G1 X116.401 Y134.503 E317.41616
G0 X115.836 Y134.503
G1 X66.827 Y85.495 E319.72137
G0 X66.262 Y85.495
G1 X115.27 Y134.503 E322.02656
G0 X114.704 Y134.503
G1 X65.696 Y85.495 E324.33174
G0 X65.13 Y85.495
G1 X114.139 Y134.503 E326.63695
G0 X113.573 Y134.503
G1 X64.565 Y85.495 E328.94214
G0 X63.999 Y85.495
G1 X113.007 Y134.503 E331.24733
G0 X112.441 Y134.503
G1 X63.433 Y85.495 E333.55251
G0 X62.868 Y85.495
G1 X111.876 Y134.503 E335.8577
G0 X111.31 Y134.503
G1 X62.302 Y85.495 E338.16288
G0 X61.736 Y85.495
G1 X110.744 Y134.503 E340.46807
G0 X110.179 Y134.503
G1 X61.171 Y85.495 E342.77326
G0 X60.605 Y85.495
G1 X109.613 Y134.503 E345.07844
G0 X109.047 Y134.503
G1 X60.039 Y85.495 E347.38363
G0 X59.474 Y85.495
G1 X108.482 Y134.503 E349.68882
G0 X107.916 Y134.503
G1 X58.908 Y85.495 E351.994
G0 X58.342 Y85.495
G1 X107.35 Y134.503 E354.29919
G0 X106.785 Y134.503
G1 X57.776 Y85.495 E356.6044
G0 X57.211 Y85.495
G1 X69.314 Y97.599 E357.17371
G0 X68.749 Y97.599
G1 X56.645 Y85.495 E357.74304
G0 X56.079 Y85.495
G1 X68.183 Y97.599 E358.31238
G0 X67.617 Y97.599
G1 X55.514 Y85.495 E358.88169
G0 X54.948 Y85.495
G1 X67.052 Y97.599 E359.45103
G0 X66.486 Y97.599
G1 X54.382 Y85.495 E360.02036
G0 X53.817 Y85.495
G1 X65.92 Y97.599 E360.58967
G0 X65.355 Y97.599
G1 X53.251 Y85.495 E361.15901
G0 X52.685 Y85.495
G1 X64.789 Y97.599 E361.72834
G0 X64.223 Y97.599
G1 X52.12 Y85.495 E362.29765
G0 X51.554 Y85.495
G1 X63.657 Y97.599 E362.86696
G0 X63.092 Y97.599
G1 X51.149 Y85.656 E363.42873
G0 X51.149 Y86.222
G1 X62.526 Y97.599 E363.96387
G0 X61.96 Y97.599
G1 X51.149 Y86.788 E364.47238
G0 X51.149 Y87.353
G1 X61.395 Y97.599 E364.95432
G0 X60.829 Y97.599
G1 X51.149 Y87.919 E365.40964
G0 X51.149 Y88.485
G1 X60.263 Y97.599 E365.83834
G0 X59.698 Y97.599
G1 X51.149 Y89.05 E366.24045
G0 X51.149 Y89.616
G1 X59.132 Y97.599 E366.61595
G0 X58.566 Y97.599
G1 X51.149 Y90.182 E366.96482
G0 X51.149 Y90.747
G1 X58.001 Y97.599 E367.28712
G0 X57.435 Y97.599
G1 X51.149 Y91.313 E367.58279
G0 X51.149 Y91.879
G1 X56.869 Y97.599 E367.85185
G0 X56.304 Y97.599
G1 X51.149 Y92.445 E368.0943
G0 X51.149 Y93.01
G1 X55.738 Y97.599 E368.31015
G0 X55.172 Y97.599
G1 X51.149 Y93.576 E368.49938
G0 X51.149 Y94.142
G1 X54.607 Y97.599 E368.66201
G0 X54.041 Y97.599
G1 X51.149 Y94.707 E368.79804
G0 X51.149 Y95.273
G1 X53.475 Y97.599 E368.90745
G0 X52.909 Y97.599
G1 X51.149 Y95.839 E368.99023
G0 X51.149 Y96.404
G1 X52.344 Y97.599 E369.04644
G0 X51.778 Y97.599
G1 X51.149 Y96.97 E369.07603
G0 X51.149 Y97.536
G1 X51.212 Y97.599 E369.07899
G1 F1500 E362.57899
G1 F300 Z0.4
G0 F1200 X69.806 Y98.091 Z0.4
G1 F300 Z0.2
G1 F1500 E369.07899
G1 F1200 X106.219 Y134.503 E370.79172
G0 X105.653 Y134.503
G1 X69.806 Y98.656 E372.47786
G0 X69.806 Y99.222
G1 X105.088 Y134.503 E374.13739
G0 X104.522 Y134.503
G1 X69.806 Y99.788 E375.7703
G0 X69.806 Y100.354
G1 X103.956 Y134.503 E377.37659
G0 X103.391 Y134.503
G1 X69.806 Y100.919 E378.9563
G0 X69.806 Y101.485
G1 X102.825 Y134.503 E380.50939
G0 X102.259 Y134.503
G1 X69.806 Y102.051 E382.03586
G0 X69.806 Y102.616
G1 X101.693 Y134.503 E383.53572
G0 X101.128 Y134.503
G1 X69.806 Y103.182 E385.00899
