;FLAVOR:Marlin
;TIME:8356
;Filament used: 6.73m
;Layer height: 0.2
;MINX:50.2
;MINY:84.546
;MINZ:0.2
;MAXX:169.8
;MAXY:135.454
;MAXZ:4.2
;Generated with Cura_SteamEngine 4.9.1
M140 S60
M105
M190 S60
M104 S200
M105
M109 S200
M82 ;absolute extrusion mode
; Ender 3 Custom Start G-code
G92 E0 ; Reset Extruder
G28 ; Home all axes
G1 Z2.0 F3000 ; Move Z Axis up little to prevent scratching of Heat Bed
G1 X0.1 Y20 Z0.3 F5000.0 ; Move to start position
G1 X0.1 Y200.0 Z0.3 F1500.0 E15 ; Draw the first line
G1 X0.4 Y200.0 Z0.3 F5000.0 ; Move to side a little
G1 X0.4 Y20 Z0.3 F1500.0 E30 ; Draw the second line
G92 E0 ; Reset Extruder
G1 Z2.0 F3000 ; Move Z Axis up little to prevent scratching of Heat Bed
G1 X5 Y20 Z0.3 F5000.0 ; Move over to prevent blob squish
G92 E0
G92 E0
G1 F1500 E-6.5
;LAYER_COUNT:20
;LAYER:0
M107
G1 F300 Z0.4
;MESH:middle.stl
G0 F1200 X120.765 Y114.6 Z0.4
;TYPE:WALL-INNER
G1 F300 Z0.2
G1 F1500 E0
G1 F1200 X124.465 Y114.6 E0.12306
G1 X124.465 Y105.4 E0.42906
G1 X120.765 Y105.4 E0.55212
G1 X120.765 Y114.6 E0.85811
G0 X121.165 Y114.2
;TYPE:WALL-OUTER
G1 X124.065 Y114.2 E0.95457
G1 X124.065 Y105.8 E1.23395
G1 X121.165 Y105.8 E1.33041
G1 X121.165 Y114.2 E1.60979
G1 F1500 E-4.89021
G1 F300 Z0.4
G0 F1200 X99.235 Y114.6 Z0.4
;TYPE:WALL-INNER
G1 F300 Z0.2
G1 F1500 E1.60979
G1 F1200 X99.235 Y105.4 E1.91578
G1 X95.535 Y105.4 E2.03885
G1 X95.535 Y114.6 E2.34484
G1 X99.235 Y114.6 E2.4679
G0 X98.835 Y114.2
;TYPE:WALL-OUTER
G1 X98.835 Y105.8 E2.74729
G1 X95.935 Y105.8 E2.84374
G1 X95.935 Y114.2 E3.12313
G1 X98.835 Y114.2 E3.21958
G1 F1500 E-3.28042
G1 F300 Z0.4
G0 F1200 X169.4 Y135.054 Z0.4
;TYPE:WALL-INNER
G1 F300 Z0.2
G1 F1500 E3.21958
G1 F1200 X50.6 Y135.054 E7.17089
G1 X50.6 Y84.946 E8.83748
G1 X169.4 Y84.946 E12.78879
G1 X169.4 Y135.054 E14.45539
G0 X169.8 Y135.454
;TYPE:WALL-OUTER
G1 X50.2 Y135.454 E18.4333
G1 X50.2 Y84.546 E20.12651
G1 X169.8 Y84.546 E24.10442
G1 X169.8 Y135.454 E25.79763
G0 X169.01 Y134.664
;TYPE:SKIN
G1 X50.99 Y134.664 E29.72299
G1 X50.99 Y85.336 E31.36364
G1 X169.01 Y85.336 E35.289
G1 X169.01 Y134.664 E36.92966
G1 F1500 E30.42966
G1 F300 Z0.4
G0 F1200 X124.855 Y114.99 Z0.4
G1 F300 Z0.2
G1 F1500 E36.92966
G1 F1200 X124.855 Y105.01 E37.2616
G1 X120.375 Y105.01 E37.4106
G1 X120.375 Y114.99 E37.74254
G1 X124.855 Y114.99 E37.89154
G1 F1500 E31.39154
G1 F300 Z0.4
G0 F1200 X99.625 Y114.99 Z0.4
G1 F300 Z0.2
G1 F1500 E37.89154
G1 F1200 X99.625 Y105.01 E38.22348
G1 X95.145 Y105.01 E38.37248
G1 X95.145 Y114.99 E38.70442
G1 X99.625 Y114.99 E38.85343
G1 F1500 E32.35343
G1 F300 Z0.4
G0 F1200 X51.347 Y134.503 Z0.4
G1 F300 Z0.2
G1 F1500 E38.85343
G1 F1200 X51.149 Y134.305 E38.86274
G0 X51.149 Y133.74
G1 X51.913 Y134.503 E38.89865
G0 X52.479 Y134.503
G1 X51.149 Y133.174 E38.96119
G0 X51.149 Y132.608
G1 X53.045 Y134.503 E39.05035
G0 X53.61 Y134.503
G1 X51.149 Y132.042 E39.1661
G0 X51.149 Y131.477
G1 X54.176 Y134.503 E39.30846
G0 X54.742 Y134.503
G1 X51.149 Y130.911 E39.47744
G0 X51.149 Y130.345
G1 X55.307 Y134.503 E39.67302
G0 X55.873 Y134.503
G1 X51.149 Y129.78 E39.8952
G0 X51.149 Y129.214
G1 X56.439 Y134.503 E40.144
G0 X57.004 Y134.503
G1 X51.149 Y128.648 E40.4194
G0 X51.149 Y128.083
G1 X57.57 Y134.503 E40.7214
G0 X58.136 Y134.503
G1 X51.149 Y127.517 E41.05003
G0 X51.149 Y126.951
G1 X58.701 Y134.503 E41.40525
G0 X59.267 Y134.503
G1 X51.149 Y126.386 E41.78707
G0 X51.149 Y125.82
G1 X59.833 Y134.503 E42.19552
G0 X60.398 Y134.503
G1 X51.149 Y125.254 E42.63056
G0 X51.149 Y124.689
G1 X60.964 Y134.503 E43.09221
G0 X61.53 Y134.503
G1 X51.149 Y124.123 E43.58047
G0 X51.149 Y123.557
G1 X62.095 Y134.503 E44.09534
G0 X62.661 Y134.503
G1 X51.149 Y122.992 E44.6368
G0 X51.149 Y122.426
G1 X63.227 Y134.503 E45.20489
G0 X63.793 Y134.503
G1 X51.149 Y121.86 E45.7996
G0 X51.149 Y121.294
G1 X64.358 Y134.503 E46.42092
G0 X64.924 Y134.503
G1 X51.149 Y120.729 E47.06883
G0 X51.149 Y120.163
G1 X65.49 Y134.503 E47.74336
G0 X66.055 Y134.503
G1 X51.149 Y119.597 E48.44449
G0 X51.149 Y119.032
G1 X66.621 Y134.503 E49.17222
G0 X67.187 Y134.503
G1 X51.149 Y118.466 E49.92658
G0 X51.149 Y117.9
G1 X67.752 Y134.503 E50.70753
G0 X68.318 Y134.503
G1 X51.149 Y117.335 E51.51509
G0 X51.149 Y116.769
G1 X68.884 Y134.503 E52.34926
G0 X69.449 Y134.503
G1 X51.149 Y116.203 E53.21004
G0 X51.149 Y115.638
G1 X70.015 Y134.503 E54.09741
G0 X70.581 Y134.503
G1 X51.149 Y115.072 E55.01141
G0 X51.149 Y114.506
G1 X71.146 Y134.503 E55.95201
G0 X71.712 Y134.503
G1 X51.149 Y113.941 E56.91921
G0 X51.149 Y113.375
G1 X72.278 Y134.503 E57.91303
G0 X72.844 Y134.503
G1 X51.149 Y112.809 E58.93347
G0 X51.149 Y112.244
G1 X73.409 Y134.503 E59.98049
G0 X73.975 Y134.503
G1 X51.149 Y111.678 E61.05413
G0 X51.149 Y111.112
G1 X74.541 Y134.503 E62.15439
G0 X75.106 Y134.503
G1 X51.149 Y110.546 E63.28126
G0 X51.149 Y109.981
G1 X75.672 Y134.503 E64.43472
G0 X76.238 Y134.503
G1 X51.149 Y109.415 E65.61481
G0 X51.149 Y108.849
G1 X76.803 Y134.503 E66.82149
G0 X77.369 Y134.503
G1 X51.149 Y108.284 E68.05478
G0 X51.149 Y107.718
G1 X77.935 Y134.503 E69.31469
G0 X78.5 Y134.503
G1 X51.149 Y107.152 E70.60119
G0 X51.149 Y106.587
G1 X79.066 Y134.503 E71.9143
G0 X79.632 Y134.503
G1 X51.149 Y106.021 E73.25403
G0 X51.149 Y105.455
G1 X80.197 Y134.503 E74.62036
G0 X80.763 Y134.503
G1 X51.149 Y104.89 E76.01329
G0 X51.149 Y104.324
G1 X81.329 Y134.503 E77.43284
G0 X81.894 Y134.503
G1 X51.149 Y103.758 E78.87899
G0 X51.149 Y103.193
G1 X82.46 Y134.503 E80.35174
G0 X83.026 Y134.503
G1 X51.149 Y102.627 E81.85111
G0 X51.149 Y102.061
G1 X83.592 Y134.503 E83.37711
G0 X84.157 Y134.503
G1 X51.149 Y101.495 E84.9297
G0 X51.149 Y100.93
G1 X84.723 Y134.503 E86.5089
G0 X85.289 Y134.503
G1 X51.149 Y100.364 E88.11471
G0 X51.149 Y99.798
G1 X85.854 Y134.503 E89.74713
G0 X86.42 Y134.503
G1 X51.149 Y99.233 E91.40615
G0 X51.149 Y98.667
G1 X86.986 Y134.503 E93.09178
G0 X87.551 Y134.503
G1 X51.149 Y98.101 E94.80402
G0 X51.149 Y97.536
G1 X88.117 Y134.503 E96.54286
G0 X88.683 Y134.503
G1 X51.149 Y96.97 E98.30832
G0 X51.149 Y96.404
G1 X89.248 Y134.503 E100.10038
G0 X89.814 Y134.503
G1 X51.149 Y95.839 E101.91904
G0 X51.149 Y95.273
G1 X90.38 Y134.503 E103.76432
G0 X90.945 Y134.503
G1 X51.149 Y94.707 E105.63621
G0 X51.149 Y94.142
G1 X91.511 Y134.503 E107.53469
G0 X92.077 Y134.503
G1 X51.149 Y93.576 E109.45979
G0 X51.149 Y93.01
G1 X92.643 Y134.503 E111.41152
G0 X93.208 Y134.503
G1 X51.149 Y92.445 E113.38982
G0 X51.149 Y91.879
G1 X93.774 Y134.503 E115.39475
G0 X94.34 Y134.503
G1 X51.149 Y91.313 E117.4263
G0 X51.149 Y90.747
G1 X94.905 Y134.503 E119.48444
G0 X95.471 Y134.503
G1 X51.149 Y90.182 E121.56919
G0 X51.149 Y89.616
G1 X96.037 Y134.503 E123.68056
G0 X96.602 Y134.503
G1 X51.149 Y89.05 E125.81853
G0 X51.149 Y88.485
G1 X97.168 Y134.503 E127.9831
G0 X97.734 Y134.503
G1 X51.149 Y87.919 E130.17429
G0 X51.149 Y87.353
G1 X98.299 Y134.503 E132.39208
G0 X98.865 Y134.503
G1 X51.149 Y86.788 E134.63647
G0 X51.149 Y86.222
G1 X99.431 Y134.503 E136.90749
G0 X99.996 Y134.503
G1 X51.149 Y85.656 E139.2051
G0 X51.554 Y85.495
G1 X100.562 Y134.503 E141.51029
G0 X101.128 Y134.503
G1 X52.12 Y85.495 E143.81547
G0 X52.685 Y85.495
G1 X101.693 Y134.503 E146.12066
G0 X102.259 Y134.503
G1 X53.251 Y85.495 E148.42585
G0 X53.817 Y85.495
G1 X102.825 Y134.503 E150.73103
G0 X103.391 Y134.503
G1 X54.382 Y85.495 E153.03624
G0 X54.948 Y85.495
G1 X103.956 Y134.503 E155.34143
G0 X104.522 Y134.503
G1 X55.514 Y85.495 E157.64661
G0 X56.079 Y85.495
G1 X105.088 Y134.503 E159.95182
G0 X105.653 Y134.503
G1 X56.645 Y85.495 E162.25701
G0 X57.211 Y85.495
G1 X106.219 Y134.503 E164.5622
G0 X106.785 Y134.503
G1 X57.776 Y85.495 E166.8674
G0 X58.342 Y85.495
G1 X107.35 Y134.503 E169.17259
G0 X107.916 Y134.503
G1 X58.908 Y85.495 E171.47778
G0 X59.474 Y85.495
G1 X108.482 Y134.503 E173.78296
G0 X109.047 Y134.503
G1 X60.039 Y85.495 E176.08815
G0 X60.605 Y85.495
G1 X109.613 Y134.503 E178.39334
G0 X110.179 Y134.503
G1 X61.171 Y85.495 E180.69852
G0 X61.736 Y85.495
G1 X110.744 Y134.503 E183.00371
G0 X111.31 Y134.503
G1 X62.302 Y85.495 E185.30889
G0 X62.868 Y85.495
G1 X111.876 Y134.503 E187.61408
G0 X112.441 Y134.503
G1 X63.433 Y85.495 E189.91927
G0 X63.999 Y85.495
G1 X113.007 Y134.503 E192.22445
G0 X113.573 Y134.503
G1 X64.565 Y85.495 E194.52964
G0 X65.13 Y85.495
G1 X114.139 Y134.503 E196.83485
G0 X114.704 Y134.503
G1 X95.349 Y115.148 E197.74525
G0 X94.984 Y114.783
G1 X65.696 Y85.495 E199.12286
G0 X66.262 Y85.495
G1 X94.984 Y114.218 E200.47388
G0 X94.984 Y113.652
G1 X66.827 Y85.495 E201.7983
G0 X67.393 Y85.495
G1 X94.984 Y113.086 E203.0961
G0 X94.984 Y112.521
G1 X67.959 Y85.495 E204.36729
G0 X68.525 Y85.495
G1 X94.984 Y111.955 E205.61187
G0 X94.984 Y111.389
G1 X69.09 Y85.495 E206.82984
G0 X69.656 Y85.495
G1 X94.984 Y110.824 E208.02122
G0 X94.984 Y110.258
G1 X70.222 Y85.495 E209.18597
G0 X70.787 Y85.495
G1 X94.984 Y109.692 E210.32412
G0 X94.984 Y109.127
G1 X71.353 Y85.495 E211.43568
G0 X71.919 Y85.495
G1 X94.984 Y108.561 E212.52061
G0 X94.984 Y107.995
G1 X72.484 Y85.495 E213.57894
G0 X73.05 Y85.495
G1 X94.984 Y107.43 E214.61067
G0 X94.984 Y106.864
G1 X73.616 Y85.495 E215.61578
G0 X74.181 Y85.495
G1 X94.984 Y106.298 E216.59429
G0 X94.984 Y105.732
G1 X74.747 Y85.495 E217.54617
G0 X75.313 Y85.495
G1 X94.984 Y105.167 E218.47146
G0 X95.232 Y104.849
G1 X75.878 Y85.495 E219.38181
G0 X76.444 Y85.495
G1 X95.798 Y104.849 E220.29217
G0 X96.363 Y104.849
G1 X77.01 Y85.495 E221.2025
G0 X77.575 Y85.495
G1 X96.929 Y104.849 E222.11285
G0 X97.495 Y104.849
G1 X78.141 Y85.495 E223.0232
G0 X78.707 Y85.495
G1 X98.06 Y104.849 E223.93353
G0 X98.626 Y104.849
G1 X79.273 Y85.495 E224.84386
G0 X79.838 Y85.495
G1 X99.192 Y104.849 E225.75421
G0 X99.757 Y104.849
G1 X80.404 Y85.495 E226.66454
G0 X80.97 Y85.495
G1 X129.978 Y134.503 E228.96973
G0 X130.543 Y134.503
G1 X81.535 Y85.495 E231.27491
G0 X82.101 Y85.495
G1 X131.109 Y134.503 E233.5801
G0 X131.675 Y134.503
G1 X82.667 Y85.495 E235.88529
G0 X83.232 Y85.495
G1 X132.24 Y134.503 E238.19047
G0 X132.806 Y134.503
G1 X83.798 Y85.495 E240.49566
G0 X84.364 Y85.495
G1 X133.372 Y134.503 E242.80084
G0 X133.938 Y134.503
G1 X84.929 Y85.495 E245.10605
G0 X85.495 Y85.495
G1 X134.503 Y134.503 E247.41124
G0 X135.069 Y134.503
G1 X86.061 Y85.495 E249.71643
G0 X86.626 Y85.495
G1 X135.635 Y134.503 E252.02164
G0 X136.2 Y134.503
G1 X87.192 Y85.495 E254.32682
G0 X87.758 Y85.495
G1 X136.766 Y134.503 E256.63201
G0 X137.332 Y134.503
G1 X88.324 Y85.495 E258.93719
G0 X88.889 Y85.495
G1 X137.897 Y134.503 E261.24238
G0 X138.463 Y134.503
G1 X89.455 Y85.495 E263.54757
G0 X90.021 Y85.495
G1 X139.029 Y134.503 E265.85275
G0 X139.594 Y134.503
G1 X120.241 Y115.15 E266.76306
G0 X120.214 Y115.123
G1 X90.586 Y85.495 E268.15667
G0 X91.152 Y85.495
G1 X120.214 Y114.557 E269.52366
G0 X120.214 Y113.991
G1 X91.718 Y85.495 E270.86402
G0 X92.283 Y85.495
G1 X120.214 Y113.426 E272.17781
G0 X120.214 Y112.86
G1 X92.849 Y85.495 E273.46497
G0 X93.415 Y85.495
G1 X120.214 Y112.294 E274.72552
G0 X120.214 Y111.729
G1 X93.98 Y85.495 E275.95948
G0 X94.546 Y85.495
G1 X120.214 Y111.163 E277.16683
G0 X120.214 Y110.597
G1 X95.112 Y85.495 E278.34755
G0 X95.677 Y85.495
G1 X120.214 Y110.032 E279.50169
G0 X120.214 Y109.466
G1 X96.243 Y85.495 E280.62922
G0 X96.809 Y85.495
G1 X120.214 Y108.9 E281.73012
G0 X120.214 Y108.335
G1 X97.374 Y85.495 E282.80444
G0 X97.94 Y85.495
G1 X120.214 Y107.769 E283.85214
G0 X120.214 Y107.203
G1 X98.506 Y85.495 E284.87322
G0 X99.072 Y85.495
G1 X120.214 Y106.638 E285.8677
G0 X120.214 Y106.072
G1 X99.637 Y85.495 E286.83558
G0 X100.203 Y85.495
G1 X120.214 Y105.506 E287.77683
G0 X120.214 Y104.941
G1 X100.769 Y85.495 E288.69149
G0 X101.334 Y85.495
G1 X120.688 Y104.849 E289.60184
G0 X121.254 Y104.849
G1 X101.9 Y85.495 E290.51219
G0 X102.466 Y85.495
G1 X121.82 Y104.849 E291.42255
G0 X122.386 Y104.849
G1 X103.031 Y85.495 E292.33292
G0 X103.597 Y85.495
G1 X122.951 Y104.849 E293.24328
G0 X123.517 Y104.849
G1 X104.163 Y85.495 E294.15363
G0 X104.728 Y85.495
G1 X124.083 Y104.849 E295.06401
G0 X124.648 Y104.849
G1 X105.294 Y85.495 E295.97436
G0 X105.86 Y85.495
G1 X154.868 Y134.503 E298.27954
G0 X155.434 Y134.503
G1 X106.425 Y85.495 E300.58475
G0 X106.991 Y85.495
G1 X155.999 Y134.503 E302.88994
G0 X156.565 Y134.503
G1 X107.557 Y85.495 E305.19513
G0 X108.122 Y85.495
G1 X157.131 Y134.503 E307.50034
G0 X157.696 Y134.503
G1 X108.688 Y85.495 E309.80552
G0 X109.254 Y85.495
G1 X158.262 Y134.503 E312.11071
G0 X158.828 Y134.503
G1 X109.82 Y85.495 E314.41589
G0 X110.385 Y85.495
G1 X159.393 Y134.503 E316.72108
G0 X159.959 Y134.503
G1 X110.951 Y85.495 E319.02627
G0 X111.517 Y85.495
G1 X160.525 Y134.503 E321.33145
G0 X161.09 Y134.503
G1 X112.082 Y85.495 E323.63664
G0 X112.648 Y85.495
G1 X161.656 Y134.503 E325.94182
G0 X162.222 Y134.503
G1 X113.214 Y85.495 E328.24701
G0 X113.779 Y85.495
G1 X162.788 Y134.503 E330.55222
G0 X163.353 Y134.503
G1 X114.345 Y85.495 E332.85741
G0 X114.911 Y85.495
G1 X163.919 Y134.503 E335.16259
G0 X164.485 Y134.503
G1 X115.476 Y85.495 E337.4678
G0 X116.042 Y85.495
G1 X165.05 Y134.503 E339.77299
G0 X165.616 Y134.503
G1 X116.608 Y85.495 E342.07817
G0 X117.173 Y85.495
G1 X166.182 Y134.503 E344.38338
G0 X166.747 Y134.503
G1 X117.739 Y85.495 E346.68857
G0 X118.305 Y85.495
G1 X167.313 Y134.503 E348.99376
G0 X167.879 Y134.503
G1 X118.871 Y85.495 E351.29894
G0 X119.436 Y85.495
G1 X168.444 Y134.503 E353.60413
G0 X168.849 Y134.342
G1 X120.002 Y85.495 E355.90174
G0 X120.568 Y85.495
G1 X168.849 Y133.776 E358.17273
G0 X168.849 Y133.211
G1 X121.133 Y85.495 E360.41714
G0 X121.699 Y85.495
G1 X168.849 Y132.645 E362.63494
G0 X168.849 Y132.079
G1 X122.265 Y85.495 E364.8261
G0 X122.83 Y85.495
G1 X168.849 Y131.514 E366.9907
G0 X168.849 Y130.948
G1 X123.396 Y85.495 E369.12867
G0 X123.962 Y85.495
G1 X168.849 Y130.382 E371.24001
G0 X168.849 Y129.817
G1 X124.527 Y85.495 E373.32479
G0 X125.093 Y85.495
G1 X168.849 Y129.251 E375.38293
G0 X168.849 Y128.685
G1 X125.659 Y85.495 E377.41446
G0 X126.224 Y85.495
G1 X168.849 Y128.119 E379.41938
G0 X168.849 Y127.554
G1 X126.79 Y85.495 E381.39771
G0 X127.356 Y85.495
G1 X168.849 Y126.988 E383.34941
G0 X168.849 Y126.422
G1 X127.921 Y85.495 E385.27452
G0 X128.487 Y85.495
G1 X168.849 Y125.857 E387.17302
G0 X168.849 Y125.291
G1 X129.053 Y85.495 E389.0449
G0 X129.619 Y85.495
G1 X168.849 Y124.725 E390.89016
G0 X168.849 Y124.16
G1 X130.184 Y85.495 E392.70885
G0 X130.75 Y85.495
G1 X168.849 Y123.594 E394.50091
G0 X168.849 Y123.028
G1 X131.316 Y85.495 E396.26634
G0 X131.881 Y85.495
G1 X168.849 Y122.463 E398.00521
G0 X168.849 Y121.897
G1 X132.447 Y85.495 E399.71744
G0 X133.013 Y85.495
G1 X168.849 Y121.331 E401.40306
G0 X168.849 Y120.766
G1 X133.578 Y85.495 E403.0621
G0 X134.144 Y85.495
G1 X168.849 Y120.2 E404.69452
G0 X168.849 Y119.634
G1 X134.71 Y85.495 E406.30031
G0 X135.275 Y85.495
G1 X168.849 Y119.069 E407.87953
G0 X168.849 Y118.503
G1 X135.841 Y85.495 E409.43212
G0 X136.407 Y85.495
G1 X168.849 Y117.937 E410.9581
G0 X168.849 Y117.371
G1 X136.972 Y85.495 E412.45747
G0 X137.538 Y85.495
G1 X168.849 Y116.806 E413.93024
G0 X168.849 Y116.24
G1 X138.104 Y85.495 E415.37639
G0 X138.67 Y85.495
G1 X168.849 Y115.674 E416.79592
G0 X168.849 Y115.109
G1 X139.235 Y85.495 E418.18887
G0 X139.801 Y85.495
G1 X168.849 Y114.543 E419.5552
G0 X168.849 Y113.977
G1 X140.367 Y85.495 E420.89491
G0 X140.932 Y85.495
G1 X168.849 Y113.412 E422.20804
G0 X168.849 Y112.846
G1 X141.498 Y85.495 E423.49454
G0 X142.064 Y85.495
G1 X168.849 Y112.28 E424.75443
G0 X168.849 Y111.715
G1 X142.629 Y85.495 E425.98774
G0 X143.195 Y85.495
G1 X168.849 Y111.149 E427.19442
G0 X168.849 Y110.583
G1 X143.761 Y85.495 E428.37448
G0 X144.326 Y85.495
G1 X168.849 Y110.018 E429.52797
G0 X168.849 Y109.452
G1 X144.892 Y85.495 E430.65484
G0 X145.458 Y85.495
G1 X168.849 Y108.886 E431.75508
G0 X168.849 Y108.32
G1 X146.023 Y85.495 E432.82872
G0 X146.589 Y85.495
G1 X168.849 Y107.755 E433.87576
G0 X168.849 Y107.189
G1 X147.155 Y85.495 E434.89618
G0 X147.72 Y85.495
G1 X168.849 Y106.623 E435.89
G0 X168.849 Y106.058
G1 X148.286 Y85.495 E436.85722
G0 X148.852 Y85.495
G1 X168.849 Y105.492 E437.79782
G0 X168.849 Y104.926
G1 X149.418 Y85.495 E438.71179
G0 X149.983 Y85.495
G1 X168.849 Y104.361 E439.59919
G0 X168.849 Y103.795
G1 X150.549 Y85.495 E440.45997
