;FLAVOR:Marlin
;TIME:6204
;Filament used: 5.01824m
;Layer height: 0.2
;MINX:98.952
;MINY:50.2
;MINZ:0.2
;MAXX:121.048
;MAXY:169.8
;MAXZ:8.2
;Generated with Cura_SteamEngine 4.9.1
M140 S60
M105
M190 S60
M104 S200
M105
M109 S200
M82 ;absolute extrusion mode
; Ender 3 Custom Start G-code
G92 E0 ; Reset Extruder
G28 ; Home all axes
G1 Z2.0 F3000 ; Move Z Axis up little to prevent scratching of Heat Bed
G1 X0.1 Y20 Z0.3 F5000.0 ; Move to start position
G1 X0.1 Y200.0 Z0.3 F1500.0 E15 ; Draw the first line
G1 X0.4 Y200.0 Z0.3 F5000.0 ; Move to side a little
G1 X0.4 Y20 Z0.3 F1500.0 E30 ; Draw the second line
G92 E0 ; Reset Extruder
G1 Z2.0 F3000 ; Move Z Axis up little to prevent scratching of Heat Bed
G1 X5 Y20 Z0.3 F5000.0 ; Move over to prevent blob squish
G92 E0
G92 E0
G1 F1500 E-6.5
;LAYER_COUNT:40
;LAYER:0
M107
G1 F300 Z0.4
;MESH:holder.stl
G0 F1200 X120.648 Y169.4 Z0.4
;TYPE:WALL-INNER
G1 F300 Z0.2
G1 F1500 E0
G1 F1200 X99.352 Y169.4 E0.70831
G1 X99.352 Y50.6 E4.65961
G1 X120.648 Y50.6 E5.36792
G1 X120.648 Y169.4 E9.31922
G0 X121.048 Y169.8
;TYPE:WALL-OUTER
G1 X98.952 Y169.8 E10.05414
G1 X98.952 Y50.2 E14.03205
G1 X121.048 Y50.2 E14.76697
G1 X121.048 Y169.8 E18.74488
G0 X120.258 Y169.01
;TYPE:SKIN
G1 X99.742 Y169.01 E19.42724
G1 X99.742 Y50.99 E23.35261
G1 X120.258 Y50.99 E24.03497
G1 X120.258 Y169.01 E27.96033
G1 F1500 E21.46033
G1 F300 Z0.4
G0 F1200 X100.401 Y168.849 Z0.4
G1 F300 Z0.2
G1 F1500 E27.96033
G1 F1200 X99.901 Y168.349 E27.98385
G0 X99.901 Y167.783
G1 X100.967 Y168.849 E28.03399
G0 X101.532 Y168.849
G1 X99.901 Y167.218 E28.11071
G0 X99.901 Y166.652
G1 X102.098 Y168.849 E28.21405
G0 X102.664 Y168.849
G1 X99.901 Y166.086 E28.34401
G0 X99.901 Y165.52
G1 X103.229 Y168.849 E28.50057
G0 X103.795 Y168.849
G1 X99.901 Y164.955 E28.68374
G0 X99.901 Y164.389
G1 X104.361 Y168.849 E28.89352
G0 X104.926 Y168.849
G1 X99.901 Y163.823 E29.12991
G0 X99.901 Y163.258
G1 X105.492 Y168.849 E29.39289
G0 X106.058 Y168.849
G1 X99.901 Y162.692 E29.6825
G0 X99.901 Y162.126
G1 X106.623 Y168.849 E29.9987
G0 X107.189 Y168.849
G1 X99.901 Y161.561 E30.34151
G0 X99.901 Y160.995
G1 X107.755 Y168.849 E30.71093
G0 X108.32 Y168.849
G1 X99.901 Y160.429 E31.10696
G0 X99.901 Y159.864
G1 X108.886 Y168.849 E31.52959
G0 X109.452 Y168.849
G1 X99.901 Y159.298 E31.97884
G0 X99.901 Y158.732
G1 X110.018 Y168.849 E32.45471
G0 X110.583 Y168.849
G1 X99.901 Y158.167 E32.95716
G0 X99.901 Y157.601
G1 X111.149 Y168.849 E33.48623
G0 X111.715 Y168.849
G1 X99.901 Y157.035 E34.04193
G0 X99.901 Y156.47
G1 X112.28 Y168.849 E34.6242
G0 X112.846 Y168.849
G1 X99.901 Y155.904 E35.23309
G0 X99.901 Y155.338
G1 X113.412 Y168.849 E35.8686
G0 X113.977 Y168.849
G1 X99.901 Y154.772 E36.53072
G0 X99.901 Y154.207
G1 X114.543 Y168.849 E37.21943
G0 X115.109 Y168.849
G1 X99.901 Y153.641 E37.93477
G0 X99.901 Y153.075
G1 X115.674 Y168.849 E38.67671
G0 X116.24 Y168.849
G1 X99.901 Y152.51 E39.44525
G0 X99.901 Y151.944
G1 X116.806 Y168.849 E40.24041
G0 X117.371 Y168.849
G1 X99.901 Y151.378 E41.06216
G0 X99.901 Y150.813
G1 X117.937 Y168.849 E41.91052
G0 X118.503 Y168.849
G1 X99.901 Y150.247 E42.7855
G0 X99.901 Y149.681
G1 X119.069 Y168.849 E43.68711
G0 X119.634 Y168.849
G1 X99.901 Y149.116 E44.61529
G0 X99.901 Y148.55
G1 X120.098 Y168.747 E45.56529
G0 X120.098 Y168.181
G1 X99.901 Y147.984 E46.5153
G0 X99.901 Y147.419
G1 X120.098 Y167.616 E47.4653
G0 X120.098 Y167.05
G1 X99.901 Y146.853 E48.41531
G0 X99.901 Y146.287
G1 X120.098 Y166.484 E49.36531
G0 X120.098 Y165.919
G1 X99.901 Y145.721 E50.31534
G0 X99.901 Y145.156
G1 X120.098 Y165.353 E51.26535
G0 X120.098 Y164.787
G1 X99.901 Y144.59 E52.21535
G0 X99.901 Y144.024
G1 X120.098 Y164.222 E53.16538
G0 X120.098 Y163.656
G1 X99.901 Y143.459 E54.11538
G0 X99.901 Y142.893
G1 X120.098 Y163.09 E55.06539
G0 X120.098 Y162.524
G1 X99.901 Y142.327 E56.01539
G0 X99.901 Y141.762
G1 X120.098 Y161.959 E56.9654
G0 X120.098 Y161.393
G1 X99.901 Y141.196 E57.9154
G0 X99.901 Y140.63
G1 X120.098 Y160.827 E58.86541
G0 X120.098 Y160.262
G1 X99.901 Y140.065 E59.81541
G0 X99.901 Y139.499
G1 X120.098 Y159.696 E60.76542
G0 X120.098 Y159.13
G1 X99.901 Y138.933 E61.71542
G0 X99.901 Y138.368
G1 X120.098 Y158.565 E62.66543
G0 X120.098 Y157.999
G1 X99.901 Y137.802 E63.61543
G0 X99.901 Y137.236
G1 X120.098 Y157.433 E64.56544
G0 X120.098 Y156.868
G1 X99.901 Y136.671 E65.51544
G0 X99.901 Y136.105
G1 X120.098 Y156.302 E66.46545
G0 X120.098 Y155.736
G1 X99.901 Y135.539 E67.41545
G0 X99.901 Y134.973
G1 X120.098 Y155.171 E68.36548
G0 X120.098 Y154.605
G1 X99.901 Y134.408 E69.31549
G0 X99.901 Y133.842
G1 X120.098 Y154.039 E70.26549
G0 X120.098 Y153.473
G1 X99.901 Y133.276 E71.2155
G0 X99.901 Y132.711
G1 X120.098 Y152.908 E72.1655
G0 X120.098 Y152.342
G1 X99.901 Y132.145 E73.11551
G0 X99.901 Y131.579
G1 X120.098 Y151.776 E74.06551
G0 X120.098 Y151.211
G1 X99.901 Y131.014 E75.01552
G0 X99.901 Y130.448
G1 X120.098 Y150.645 E75.96552
G0 X120.098 Y150.079
G1 X99.901 Y129.882 E76.91553
G0 X99.901 Y129.317
G1 X120.098 Y149.514 E77.86553
G0 X120.098 Y148.948
G1 X99.901 Y128.751 E78.81554
G0 X99.901 Y128.185
G1 X120.098 Y148.382 E79.76554
G0 X120.098 Y147.817
G1 X99.901 Y127.62 E80.71555
G0 X99.901 Y127.054
G1 X120.098 Y147.251 E81.66555
G0 X120.098 Y146.685
G1 X99.901 Y126.488 E82.61556
G0 X99.901 Y125.922
G1 X120.098 Y146.12 E83.56558
G0 X120.098 Y145.554
G1 X99.901 Y125.357 E84.51559
G0 X99.901 Y124.791
G1 X120.098 Y144.988 E85.46559
G0 X120.098 Y144.423
G1 X99.901 Y124.225 E86.41562
G0 X99.901 Y123.66
G1 X120.098 Y143.857 E87.36563
G0 X120.098 Y143.291
G1 X99.901 Y123.094 E88.31563
G0 X99.901 Y122.528
G1 X120.098 Y142.725 E89.26564
G0 X120.098 Y142.16
G1 X99.901 Y121.963 E90.21564
G0 X99.901 Y121.397
G1 X120.098 Y141.594 E91.16565
G0 X120.098 Y141.028
G1 X99.901 Y120.831 E92.11565
G0 X99.901 Y120.266
G1 X120.098 Y140.463 E93.06566
G0 X120.098 Y139.897
G1 X99.901 Y119.7 E94.01566
G0 X99.901 Y119.134
G1 X120.098 Y139.331 E94.96567
G0 X120.098 Y138.766
G1 X99.901 Y118.569 E95.91567
G0 X99.901 Y118.003
G1 X120.098 Y138.2 E96.86568
G0 X120.098 Y137.634
G1 X99.901 Y117.437 E97.81568
G0 X99.901 Y116.872
G1 X120.098 Y137.069 E98.76569
G0 X120.098 Y136.503
G1 X99.901 Y116.306 E99.71569
G0 X99.901 Y115.74
G1 X120.098 Y135.937 E100.6657
G0 X120.098 Y135.372
G1 X99.901 Y115.174 E101.61573
G0 X99.901 Y114.609
G1 X120.098 Y134.806 E102.56573
G0 X120.098 Y134.24
G1 X99.901 Y114.043 E103.51574
G0 X99.901 Y113.477
G1 X120.098 Y133.675 E104.46576
G0 X120.098 Y133.109
G1 X99.901 Y112.912 E105.41577
G0 X99.901 Y112.346
G1 X120.098 Y132.543 E106.36577
G0 X120.098 Y131.977
G1 X99.901 Y111.78 E107.31578
G0 X99.901 Y111.215
G1 X120.098 Y131.412 E108.26578
G0 X120.098 Y130.846
G1 X99.901 Y110.649 E109.21579
G0 X99.901 Y110.083
G1 X120.098 Y130.28 E110.16579
G0 X120.098 Y129.715
G1 X99.9 Y109.517 E111.11585
G0 X99.9 Y108.951
G1 X120.098 Y129.149 E112.0659
G0 X120.098 Y128.583
G1 X99.9 Y108.386 E113.01593
G0 X99.9 Y107.82
G1 X120.098 Y128.018 E113.96598
G0 X120.098 Y127.452
G1 X99.9 Y107.254 E114.91603
G0 X99.9 Y106.688
G1 X120.098 Y126.886 E115.86608
G0 X120.098 Y126.321
G1 X99.9 Y106.123 E116.81613
G0 X99.9 Y105.557
G1 X120.098 Y125.755 E117.76619
G0 X120.098 Y125.189
G1 X99.9 Y104.991 E118.71624
G0 X99.9 Y104.426
G1 X120.098 Y124.624 E119.66629
G0 X120.098 Y124.058
G1 X99.9 Y103.86 E120.61634
G0 X99.9 Y103.294
G1 X120.098 Y123.492 E121.56639
G0 X120.098 Y122.926
G1 X99.9 Y102.729 E122.51642
G0 X99.9 Y102.163
G1 X120.098 Y122.361 E123.46647
G0 X120.098 Y121.795
G1 X99.9 Y101.597 E124.41653
G0 X99.9 Y101.032
G1 X120.098 Y121.229 E125.36656
G0 X120.098 Y120.664
G1 X99.9 Y100.466 E126.31661
G0 X99.9 Y99.9
G1 X120.098 Y120.098 E127.26666
G0 X120.098 Y119.532
G1 X99.9 Y99.335 E128.21669
G0 X99.9 Y98.769
G1 X120.098 Y118.967 E129.16674
G0 X120.098 Y118.401
G1 X99.9 Y98.203 E130.11679
G0 X99.9 Y97.638
G1 X120.098 Y117.835 E131.06682
G0 X120.098 Y117.27
G1 X99.9 Y97.072 E132.01687
G0 X99.9 Y96.506
G1 X120.098 Y116.704 E132.96692
G0 X120.098 Y116.138
G1 X99.9 Y95.94 E133.91698
G0 X99.9 Y95.375
G1 X120.098 Y115.573 E134.86703
G0 X120.098 Y115.007
G1 X99.9 Y94.809 E135.81708
G0 X99.9 Y94.243
G1 X120.098 Y114.441 E136.76713
G0 X120.098 Y113.876
G1 X99.9 Y93.678 E137.71718
G0 X99.9 Y93.112
G1 X120.098 Y113.31 E138.66724
G0 X120.098 Y112.744
G1 X99.9 Y92.546 E139.61729
G0 X99.9 Y91.981
G1 X120.098 Y112.178 E140.56732
G0 X120.098 Y111.613
G1 X99.9 Y91.415 E141.51737
G0 X99.9 Y90.849
G1 X120.098 Y111.047 E142.46742
G0 X120.098 Y110.481
G1 X99.9 Y90.284 E143.41745
G0 X99.9 Y89.718
G1 X120.097 Y109.915 E144.36745
G0 X120.097 Y109.349
G1 X99.9 Y89.152 E145.31746
G0 X99.9 Y88.587
G1 X120.097 Y108.784 E146.26746
G0 X120.097 Y108.218
G1 X99.9 Y88.021 E147.21747
G0 X99.9 Y87.455
G1 X120.097 Y107.652 E148.16747
G0 X120.097 Y107.087
G1 X99.9 Y86.889 E149.1175
G0 X99.9 Y86.324
G1 X120.097 Y106.521 E150.06751
G0 X120.097 Y105.955
G1 X99.9 Y85.758 E151.01751
G0 X99.9 Y85.192
G1 X120.097 Y105.39 E151.96754
G0 X120.097 Y104.824
G1 X99.9 Y84.627 E152.91755
G0 X99.9 Y84.061
G1 X120.097 Y104.258 E153.86755
G0 X120.097 Y103.692
G1 X99.9 Y83.495 E154.81756
G0 X99.9 Y82.93
G1 X120.097 Y103.127 E155.76756
G0 X120.097 Y102.561
G1 X99.9 Y82.364 E156.71757
G0 X99.9 Y81.798
G1 X120.097 Y101.995 E157.66757
G0 X120.097 Y101.43
G1 X99.9 Y81.233 E158.61758
G0 X99.9 Y80.667
G1 X120.097 Y100.864 E159.56758
G0 X120.097 Y100.298
G1 X99.9 Y80.101 E160.51759
G0 X99.9 Y79.536
G1 X120.097 Y99.733 E161.46759
G0 X120.097 Y99.167
G1 X99.9 Y78.97 E162.4176
G0 X99.9 Y78.404
G1 X120.097 Y98.601 E163.3676
G0 X120.097 Y98.036
G1 X99.9 Y77.839 E164.31761
G0 X99.9 Y77.273
G1 X120.097 Y97.47 E165.26761
G0 X120.097 Y96.904
G1 X99.9 Y76.707 E166.21762
G0 X99.9 Y76.141
G1 X120.097 Y96.339 E167.16764
G0 X120.097 Y95.773
G1 X99.9 Y75.576 E168.11765
G0 X99.9 Y75.01
G1 X120.097 Y95.207 E169.06765
G0 X120.097 Y94.642
G1 X99.9 Y74.444 E170.01768
G0 X99.9 Y73.879
G1 X120.097 Y94.076 E170.96769
G0 X120.097 Y93.51
G1 X99.9 Y73.313 E171.91769
G0 X99.9 Y72.747
G1 X120.097 Y92.944 E172.8677
G0 X120.097 Y92.379
G1 X99.9 Y72.182 E173.8177
G0 X99.9 Y71.616
G1 X120.097 Y91.813 E174.76771
G0 X120.097 Y91.247
G1 X99.9 Y71.05 E175.71771
G0 X99.9 Y70.485
G1 X120.097 Y90.682 E176.66772
G0 X120.097 Y90.116
G1 X99.9 Y69.919 E177.61772
G0 X99.9 Y69.353
G1 X120.097 Y89.55 E178.56773
G0 X120.097 Y88.985
G1 X99.9 Y68.788 E179.51773
G0 X99.9 Y68.222
G1 X120.097 Y88.419 E180.46774
G0 X120.097 Y87.853
G1 X99.9 Y67.656 E181.41774
G0 X99.9 Y67.09
G1 X120.097 Y87.288 E182.36777
G0 X120.097 Y86.722
G1 X99.9 Y66.525 E183.31777
G0 X99.9 Y65.959
G1 X120.097 Y86.156 E184.26778
G0 X120.097 Y85.591
G1 X99.9 Y65.393 E185.21781
G0 X99.9 Y64.828
G1 X120.097 Y85.025 E186.16781
G0 X120.097 Y84.459
G1 X99.9 Y64.262 E187.11782
G0 X99.9 Y63.696
G1 X120.097 Y83.893 E188.06782
G0 X120.097 Y83.328
G1 X99.9 Y63.131 E189.01783
G0 X99.9 Y62.565
G1 X120.097 Y82.762 E189.96783
G0 X120.097 Y82.196
G1 X99.9 Y61.999 E190.91784
G0 X99.9 Y61.434
G1 X120.097 Y81.631 E191.86784
G0 X120.097 Y81.065
G1 X99.9 Y60.868 E192.81785
G0 X99.9 Y60.302
G1 X120.097 Y80.499 E193.76785
G0 X120.097 Y79.934
G1 X99.9 Y59.737 E194.71786
G0 X99.9 Y59.171
G1 X120.097 Y79.368 E195.66786
G0 X120.097 Y78.802
G1 X99.9 Y58.605 E196.61787
G0 X99.9 Y58.04
G1 X120.097 Y78.237 E197.56787
G0 X120.097 Y77.671
G1 X99.9 Y57.474 E198.51788
G0 X99.9 Y56.908
G1 X120.097 Y77.105 E199.46788
G0 X120.097 Y76.54
G1 X99.9 Y56.342 E200.41791
G0 X99.9 Y55.777
G1 X120.097 Y75.974 E201.36792
G0 X120.097 Y75.408
G1 X99.9 Y55.211 E202.31792
G0 X99.9 Y54.645
G1 X120.097 Y74.843 E203.26795
G0 X120.097 Y74.277
G1 X99.9 Y54.08 E204.21795
G0 X99.9 Y53.514
G1 X120.097 Y73.711 E205.16796
G0 X120.097 Y73.145
G1 X99.9 Y52.948 E206.11796
G0 X99.9 Y52.383
G1 X120.097 Y72.58 E207.06797
G0 X120.097 Y72.014
G1 X99.9 Y51.817 E208.01797
G0 X99.9 Y51.251
G1 X120.097 Y71.448 E208.96798
G0 X120.097 Y70.883
G1 X100.364 Y51.149 E209.89618
G0 X100.93 Y51.149
G1 X120.097 Y70.317 E210.79776
G0 X120.097 Y69.751
G1 X101.495 Y51.149 E211.67274
G0 X102.061 Y51.149
G1 X120.097 Y69.186 E212.52113
G0 X120.097 Y68.62
G1 X102.627 Y51.149 E213.34288
G0 X103.193 Y51.149
G1 X120.097 Y68.054 E214.13802
G0 X120.097 Y67.489
G1 X103.758 Y51.149 E214.90658
G0 X104.324 Y51.149
G1 X120.097 Y66.923 E215.64852
G0 X120.097 Y66.357
G1 X104.89 Y51.149 E216.36383
G0 X105.455 Y51.149
G1 X120.097 Y65.792 E217.05257
G0 X120.097 Y65.226
G1 X106.021 Y51.149 E217.71469
G0 X106.587 Y51.149
G1 X120.097 Y64.66 E218.35018
G0 X120.097 Y64.094
G1 X107.152 Y51.149 E218.95907
G0 X107.718 Y51.149
G1 X120.097 Y63.529 E219.54136
G0 X120.097 Y62.963
G1 X108.284 Y51.149 E220.09704
G0 X108.849 Y51.149
G1 X120.097 Y62.397 E220.62611
G0 X120.097 Y61.832
G1 X109.415 Y51.149 E221.12858
G0 X109.981 Y51.149
G1 X120.097 Y61.266 E221.60443
G0 X120.097 Y60.7
G1 X110.546 Y51.149 E222.05368
G0 X111.112 Y51.149
G1 X120.097 Y60.135 E222.47633
G0 X120.097 Y59.569
G1 X111.678 Y51.149 E222.87236
G0 X112.244 Y51.149
G1 X120.097 Y59.003 E223.24176
G0 X120.097 Y58.438
G1 X112.809 Y51.149 E223.58459
G0 X113.375 Y51.149
G1 X120.097 Y57.872 E223.90079
G0 X120.097 Y57.306
G1 X113.941 Y51.149 E224.19038
G0 X114.506 Y51.149
G1 X120.097 Y56.741 E224.45338
G0 X120.097 Y56.175
G1 X115.072 Y51.149 E224.68977
G0 X115.638 Y51.149
G1 X120.097 Y55.609 E224.89953
G0 X120.097 Y55.044
G1 X116.203 Y51.149 E225.08272
G0 X116.769 Y51.149
G1 X120.097 Y54.478 E225.23928
G0 X120.097 Y53.912
G1 X117.335 Y51.149 E225.36922
G0 X117.9 Y51.149
G1 X120.097 Y53.346 E225.47256
G0 X120.097 Y52.781
G1 X118.466 Y51.149 E225.5493
G0 X119.032 Y51.149
G1 X120.097 Y52.215 E225.59942
G0 X120.097 Y51.649
G1 X119.597 Y51.149 E225.62293
G1 F1500 E219.12293
G1 F300 Z0.4
;MESH:NONMESH
G0 F1200 X120.648 Y169.4 Z0.4
;TIME_ELAPSED:373.082722
;LAYER:1
M106 S85
;TYPE:WALL-INNER
;MESH:holder.stl
G1 F300 Z0.4
G1 F1500 E225.62293
G1 F1320 X99.352 Y169.4 E226.33124
G1 X99.352 Y50.6 E230.28255
G1 X120.648 Y50.6 E230.99085
G1 X120.648 Y169.4 E234.94216
G0 F2280 X121.048 Y169.8
;TYPE:WALL-OUTER
G1 F1320 X98.952 Y169.8 E235.67707
G1 X98.952 Y50.2 E239.65499
G1 X121.048 Y50.2 E240.3899
G1 X121.048 Y169.8 E244.36781
G0 F2280 X120.258 Y169.01
;TYPE:SKIN
G1 F1200 X99.742 Y169.01 E245.05018
G1 X99.742 Y50.99 E248.97554
G1 X120.258 Y50.99 E249.65791
G1 X120.258 Y169.01 E253.58327
G0 F2280 X119.65 Y168.849
G1 F1200 X120.097 Y168.401 E253.60432
G0 F2280 X120.097 Y167.836
G1 F1200 X119.084 Y168.849 E253.65196
G0 F2280 X118.518 Y168.849
G1 F1200 X120.097 Y167.27 E253.72624
G0 F2280 X120.097 Y166.704
G1 F1200 X117.953 Y168.849 E253.82711
G0 F2280 X117.387 Y168.849
G1 F1200 X120.097 Y166.138 E253.9546
G0 F2280 X120.097 Y165.573
G1 F1200 X116.821 Y168.849 E254.10869
G0 F2280 X116.256 Y168.849
G1 F1200 X120.097 Y165.007 E254.28939
G0 F2280 X120.097 Y164.441
G1 F1200 X115.69 Y168.849 E254.4967
G0 F2280 X115.124 Y168.849
G1 F1200 X120.097 Y163.876 E254.73062
G0 F2280 X120.097 Y163.31
G1 F1200 X114.559 Y168.849 E254.99113
G0 F2280 X113.993 Y168.849
G1 F1200 X120.097 Y162.744 E255.27827
G0 F2280 X120.097 Y162.179
G1 F1200 X113.427 Y168.849 E255.592
G0 F2280 X112.862 Y168.849
G1 F1200 X120.097 Y161.613 E255.93234
G0 F2280 X120.097 Y161.047
G1 F1200 X112.296 Y168.849 E256.2993
G0 F2280 X111.73 Y168.849
G1 F1200 X120.097 Y160.482 E256.69285
G0 F2280 X120.097 Y159.916
G1 F1200 X111.164 Y168.849 E257.11304
G0 F2280 X110.599 Y168.849
G1 F1200 X120.097 Y159.35 E257.55982
G0 F2280 X120.097 Y158.785
G1 F1200 X110.033 Y168.849 E258.0332
G0 F2280 X109.467 Y168.849
G1 F1200 X120.097 Y158.219 E258.5332
G0 F2280 X120.097 Y157.653
G1 F1200 X108.902 Y168.849 E259.0598
G0 F2280 X108.336 Y168.849
G1 F1200 X120.097 Y157.088 E259.613
G0 F2280 X120.097 Y156.522
G1 F1200 X107.77 Y168.849 E260.19283
G0 F2280 X107.205 Y168.849
G1 F1200 X120.097 Y155.956 E260.79925
G0 F2280 X120.097 Y155.39
G1 F1200 X106.639 Y168.849 E261.4323
G0 F2280 X106.073 Y168.849
G1 F1200 X120.097 Y154.825 E262.09194
G0 F2280 X120.097 Y154.259
G1 F1200 X105.508 Y168.849 E262.77819
G0 F2280 X104.942 Y168.849
G1 F1200 X120.097 Y153.693 E263.49106
G0 F2280 X120.097 Y153.128
G1 F1200 X104.376 Y168.849 E264.23052
G0 F2280 X103.811 Y168.849
