;FLAVOR:Marlin
;TIME:5729
;Filament used: 4.31682m
;Layer height: 0.2
;MINX:51.5
;MINY:98.952
;MINZ:0.2
;MAXX:168.5
;MAXY:121.048
;MAXZ:8.2
;Generated with Cura_SteamEngine 4.9.1
M140 S60
M105
M190 S60
M104 S200
M105
M109 S200
M82 ;absolute extrusion mode
; Ender 3 Custom Start G-code
G92 E0 ; Reset Extruder
G28 ; Home all axes
G1 Z2.0 F3000 ; Move Z Axis up little to prevent scratching of Heat Bed
G1 X0.1 Y20 Z0.3 F5000.0 ; Move to start position
G1 X0.1 Y200.0 Z0.3 F1500.0 E15 ; Draw the first line
G1 X0.4 Y200.0 Z0.3 F5000.0 ; Move to side a little
G1 X0.4 Y20 Z0.3 F1500.0 E30 ; Draw the second line
G92 E0 ; Reset Extruder
G1 Z2.0 F3000 ; Move Z Axis up little to prevent scratching of Heat Bed
G1 X5 Y20 Z0.3 F5000.0 ; Move over to prevent blob squish
G92 E0
G92 E0
G1 F1500 E-6.5
;LAYER_COUNT:40
;LAYER:0
M107
G1 F300 Z0.4
;MESH:holder.stl
G0 F1200 X168.1 Y120.648 Z0.4
;TYPE:WALL-INNER
G1 F300 Z0.2
G1 F1500 E0
G1 F1200 X51.9 Y120.648 E3.86483
G1 X51.9 Y99.352 E4.57314
G1 X168.1 Y99.352 E8.43796
G1 X168.1 Y120.648 E9.14627
G0 X168.5 Y121.048
;TYPE:WALL-OUTER
G1 X51.5 Y121.048 E13.03771
G1 X51.5 Y98.952 E13.77262
G1 X168.5 Y98.952 E17.66406
G1 X168.5 Y121.048 E18.39897
G0 X167.71 Y120.258
;TYPE:SKIN
G1 X52.29 Y120.258 E22.23786
G1 X52.29 Y99.742 E22.92022
G1 X167.71 Y99.742 E26.75911
G1 X167.71 Y120.258 E27.44147
G1 F1500 E20.94147
G1 F300 Z0.4
G0 F1200 X167.549 Y100.233 Z0.4
G1 F300 Z0.2
G1 F1500 E27.44147
G1 F1200 X167.218 Y99.902 E27.45704
G0 X166.653 Y99.902
G1 X167.549 Y100.798 E27.49919
G0 X167.549 Y101.364
G1 X166.087 Y99.902 E27.56796
G0 X165.521 Y99.902
G1 X167.549 Y101.93 E27.66335
G0 X167.549 Y102.495
G1 X164.955 Y99.902 E27.78534
G0 X164.39 Y99.902
G1 X167.549 Y103.061 E27.93393
G0 X167.549 Y103.627
G1 X163.824 Y99.902 E28.10914
G0 X163.258 Y99.902
G1 X167.549 Y104.192 E28.31095
G0 X167.549 Y104.758
G1 X162.693 Y99.902 E28.53936
G0 X162.127 Y99.902
G1 X167.549 Y105.324 E28.7944
G0 X167.549 Y105.889
G1 X161.561 Y99.902 E29.07603
G0 X160.996 Y99.902
G1 X167.549 Y106.455 E29.38426
G0 X167.549 Y107.021
G1 X160.43 Y99.902 E29.71912
G0 X159.864 Y99.902
G1 X167.549 Y107.587 E30.0806
G0 X167.549 Y108.152
G1 X159.299 Y99.902 E30.46865
G0 X158.733 Y99.902
G1 X167.549 Y108.718 E30.88333
G0 X167.549 Y109.284
G1 X158.167 Y99.902 E31.32463
G0 X157.602 Y99.902
G1 X167.549 Y109.849 E31.79251
G0 X167.549 Y110.415
G1 X157.036 Y99.902 E32.28701
G0 X156.47 Y99.902
G1 X167.549 Y110.981 E32.80813
G0 X167.549 Y111.546
G1 X155.905 Y99.902 E33.35583
G0 X155.339 Y99.902
G1 X167.549 Y112.112 E33.93015
G0 X167.549 Y112.678
G1 X154.773 Y99.902 E34.53109
G0 X154.207 Y99.902
G1 X167.549 Y113.243 E35.15864
G0 X167.549 Y113.809
G1 X153.642 Y99.902 E35.81278
G0 X153.076 Y99.902
G1 X167.549 Y114.375 E36.49354
G0 X167.549 Y114.94
G1 X152.51 Y99.902 E37.20091
G0 X151.945 Y99.902
G1 X167.549 Y115.506 E37.93487
G0 X167.549 Y116.072
G1 X151.379 Y99.902 E38.69546
G0 X150.813 Y99.902
G1 X167.549 Y116.637 E39.48265
G0 X167.549 Y117.203
G1 X150.248 Y99.902 E40.29643
G0 X149.682 Y99.902
G1 X167.549 Y117.769 E41.13684
G0 X167.549 Y118.335
G1 X149.116 Y99.902 E42.00387
G0 X148.551 Y99.902
G1 X167.549 Y118.9 E42.89748
G0 X167.549 Y119.466
G1 X147.985 Y99.902 E43.81771
G0 X147.419 Y99.902
G1 X167.549 Y120.032 E44.76457
G0 X167.049 Y120.097
G1 X146.854 Y99.902 E45.71448
G0 X146.288 Y99.902
G1 X166.483 Y120.097 E46.66439
G0 X165.917 Y120.097
G1 X145.722 Y99.902 E47.6143
G0 X145.157 Y99.902
G1 X165.351 Y120.097 E48.56419
G0 X164.786 Y120.097
G1 X144.591 Y99.902 E49.5141
G0 X144.025 Y99.902
G1 X164.22 Y120.097 E50.46401
G0 X163.654 Y120.097
G1 X143.459 Y99.902 E51.41392
G0 X142.894 Y99.902
G1 X163.089 Y120.097 E52.36383
G0 X162.523 Y120.097
G1 X142.328 Y99.902 E53.31374
G0 X141.762 Y99.902
G1 X161.957 Y120.097 E54.26365
G0 X161.392 Y120.097
G1 X141.197 Y99.902 E55.21356
G0 X140.631 Y99.902
G1 X160.826 Y120.097 E56.16347
G0 X160.26 Y120.097
G1 X140.065 Y99.902 E57.11338
G0 X139.5 Y99.902
G1 X159.695 Y120.097 E58.06329
G0 X159.129 Y120.097
G1 X138.934 Y99.902 E59.01321
G0 X138.368 Y99.902
G1 X158.563 Y120.097 E59.96312
G0 X157.998 Y120.097
G1 X137.803 Y99.902 E60.91303
G0 X137.237 Y99.902
G1 X157.432 Y120.097 E61.86294
G0 X156.866 Y120.097
G1 X136.671 Y99.902 E62.81285
G0 X136.106 Y99.902
G1 X156.301 Y120.097 E63.76276
G0 X155.735 Y120.097
G1 X135.54 Y99.902 E64.71267
G0 X134.974 Y99.902
G1 X155.169 Y120.097 E65.66258
G0 X154.603 Y120.097
G1 X134.408 Y99.902 E66.61249
G0 X133.843 Y99.902
G1 X154.038 Y120.097 E67.5624
G0 X153.472 Y120.097
G1 X133.277 Y99.902 E68.51231
G0 X132.711 Y99.902
G1 X152.906 Y120.097 E69.46222
G0 X152.341 Y120.097
G1 X132.146 Y99.902 E70.41214
G0 X131.58 Y99.902
G1 X151.775 Y120.097 E71.36205
G0 X151.209 Y120.097
G1 X131.014 Y99.902 E72.31196
G0 X130.449 Y99.902
G1 X150.644 Y120.097 E73.26187
G0 X150.078 Y120.097
G1 X129.883 Y99.902 E74.21178
G0 X129.317 Y99.902
G1 X149.512 Y120.097 E75.16169
G0 X148.947 Y120.097
G1 X128.752 Y99.902 E76.1116
G0 X128.186 Y99.902
G1 X148.381 Y120.097 E77.06151
G0 X147.815 Y120.097
G1 X127.62 Y99.902 E78.01142
G0 X127.055 Y99.902
G1 X147.25 Y120.097 E78.96133
G0 X146.684 Y120.097
G1 X126.489 Y99.902 E79.91124
G0 X125.923 Y99.902
G1 X146.118 Y120.097 E80.86116
G0 X145.552 Y120.097
G1 X125.358 Y99.902 E81.81104
G0 X124.792 Y99.902
G1 X144.987 Y120.097 E82.76095
G0 X144.421 Y120.097
G1 X124.226 Y99.902 E83.71086
G0 X123.66 Y99.902
G1 X143.855 Y120.097 E84.66078
G0 X143.29 Y120.097
G1 X123.095 Y99.902 E85.61069
G0 X122.529 Y99.902
G1 X142.724 Y120.097 E86.5606
G0 X142.158 Y120.097
G1 X121.963 Y99.902 E87.51051
G0 X121.398 Y99.902
G1 X141.593 Y120.097 E88.46042
G0 X141.027 Y120.097
G1 X120.832 Y99.902 E89.41033
G0 X120.266 Y99.902
G1 X140.461 Y120.097 E90.36024
G0 X139.896 Y120.097
G1 X119.701 Y99.902 E91.31015
G0 X119.135 Y99.902
G1 X139.33 Y120.097 E92.26006
G0 X138.764 Y120.097
G1 X118.569 Y99.902 E93.20997
G0 X118.004 Y99.902
G1 X138.199 Y120.097 E94.15988
G0 X137.633 Y120.097
G1 X117.438 Y99.902 E95.1098
G0 X116.872 Y99.902
G1 X137.067 Y120.097 E96.05971
G0 X136.502 Y120.097
G1 X116.307 Y99.902 E97.00962
G0 X115.741 Y99.902
G1 X135.936 Y120.097 E97.95953
G0 X135.37 Y120.097
G1 X115.175 Y99.902 E98.90944
G0 X114.609 Y99.902
G1 X134.804 Y120.097 E99.85935
G0 X134.239 Y120.097
G1 X114.044 Y99.902 E100.80926
G0 X113.478 Y99.902
G1 X133.673 Y120.097 E101.75917
G0 X133.107 Y120.097
G1 X112.912 Y99.902 E102.70908
G0 X112.347 Y99.902
G1 X132.542 Y120.097 E103.65899
G0 X131.976 Y120.097
G1 X111.781 Y99.902 E104.6089
G0 X111.215 Y99.902
G1 X131.41 Y120.097 E105.55881
G0 X130.845 Y120.097
G1 X110.65 Y99.902 E106.50873
G0 X110.084 Y99.902
G1 X130.279 Y120.097 E107.45864
G0 X129.713 Y120.097
G1 X109.518 Y99.902 E108.40855
G0 X108.953 Y99.902
G1 X129.148 Y120.097 E109.35846
G0 X128.582 Y120.097
G1 X108.387 Y99.902 E110.30837
G0 X107.821 Y99.902
G1 X128.016 Y120.097 E111.25828
G0 X127.451 Y120.097
G1 X107.256 Y99.902 E112.20819
G0 X106.69 Y99.902
G1 X126.885 Y120.097 E113.1581
G0 X126.319 Y120.097
G1 X106.124 Y99.902 E114.10801
G0 X105.559 Y99.902
G1 X125.753 Y120.097 E115.0579
G0 X125.188 Y120.097
G1 X104.993 Y99.902 E116.00781
G0 X104.427 Y99.902
G1 X124.622 Y120.097 E116.95772
G0 X124.056 Y120.097
G1 X103.861 Y99.902 E117.90763
G0 X103.296 Y99.902
G1 X123.491 Y120.097 E118.85754
G0 X122.925 Y120.097
G1 X102.73 Y99.902 E119.80745
G0 X102.164 Y99.902
G1 X122.359 Y120.097 E120.75737
G0 X121.794 Y120.097
G1 X101.599 Y99.902 E121.70728
G0 X101.033 Y99.902
G1 X121.228 Y120.097 E122.65719
G0 X120.662 Y120.097
G1 X100.467 Y99.902 E123.6071
G0 X99.902 Y99.902
G1 X120.097 Y120.097 E124.55701
G0 X119.531 Y120.097
G1 X99.336 Y99.902 E125.50692
G0 X98.77 Y99.902
G1 X118.965 Y120.097 E126.45683
G0 X118.4 Y120.097
G1 X98.205 Y99.902 E127.40674
G0 X97.639 Y99.902
G1 X117.834 Y120.097 E128.35665
G0 X117.268 Y120.097
G1 X97.073 Y99.902 E129.30656
G0 X96.508 Y99.902
G1 X116.703 Y120.097 E130.25647
G0 X116.137 Y120.097
G1 X95.942 Y99.902 E131.20639
G0 X95.376 Y99.902
G1 X115.571 Y120.097 E132.1563
G0 X115.005 Y120.097
G1 X94.81 Y99.902 E133.10621
G0 X94.245 Y99.902
G1 X114.44 Y120.097 E134.05612
G0 X113.874 Y120.097
G1 X93.679 Y99.902 E135.00603
G0 X93.113 Y99.902
G1 X113.308 Y120.097 E135.95594
G0 X112.743 Y120.097
G1 X92.548 Y99.902 E136.90585
G0 X91.982 Y99.902
G1 X112.177 Y120.097 E137.85576
G0 X111.611 Y120.097
G1 X91.416 Y99.902 E138.80567
G0 X90.851 Y99.902
G1 X111.046 Y120.097 E139.75558
G0 X110.48 Y120.097
G1 X90.285 Y99.902 E140.70549
G0 X89.719 Y99.902
G1 X109.914 Y120.097 E141.6554
G0 X109.349 Y120.097
G1 X89.154 Y99.902 E142.60532
G0 X88.588 Y99.902
G1 X108.783 Y120.097 E143.55523
G0 X108.217 Y120.097
G1 X88.022 Y99.902 E144.50514
G0 X87.457 Y99.902
G1 X107.652 Y120.097 E145.45505
G0 X107.086 Y120.097
G1 X86.891 Y99.902 E146.40496
G0 X86.325 Y99.902
G1 X106.52 Y120.097 E147.35487
G0 X105.955 Y120.097
G1 X85.76 Y99.902 E148.30478
G0 X85.194 Y99.902
G1 X105.389 Y120.097 E149.25469
G0 X104.823 Y120.097
G1 X84.628 Y99.902 E150.2046
G0 X84.062 Y99.902
G1 X104.257 Y120.097 E151.15451
G0 X103.692 Y120.097
G1 X83.497 Y99.902 E152.10442
G0 X82.931 Y99.902
G1 X103.126 Y120.097 E153.05434
G0 X102.56 Y120.097
G1 X82.365 Y99.902 E154.00425
G0 X81.8 Y99.902
G1 X101.995 Y120.097 E154.95416
G0 X101.429 Y120.097
G1 X81.234 Y99.902 E155.90407
G0 X80.668 Y99.902
G1 X100.863 Y120.097 E156.85398
G0 X100.298 Y120.097
G1 X80.103 Y99.902 E157.80389
G0 X79.537 Y99.902
G1 X99.732 Y120.097 E158.7538
G0 X99.166 Y120.097
G1 X78.971 Y99.902 E159.70371
G0 X78.406 Y99.902
G1 X98.601 Y120.097 E160.65362
G0 X98.035 Y120.097
G1 X77.84 Y99.902 E161.60353
G0 X77.274 Y99.902
G1 X97.469 Y120.097 E162.55344
G0 X96.904 Y120.097
G1 X76.709 Y99.902 E163.50336
G0 X76.143 Y99.902
G1 X96.338 Y120.097 E164.45327
G0 X95.772 Y120.097
G1 X75.577 Y99.902 E165.40318
G0 X75.012 Y99.902
G1 X95.206 Y120.097 E166.35306
G0 X94.641 Y120.097
G1 X74.446 Y99.902 E167.30298
G0 X73.88 Y99.902
G1 X94.075 Y120.097 E168.25289
G0 X93.509 Y120.097
G1 X73.314 Y99.902 E169.2028
G0 X72.749 Y99.902
G1 X92.944 Y120.097 E170.15271
G0 X92.378 Y120.097
G1 X72.183 Y99.902 E171.10262
G0 X71.617 Y99.902
G1 X91.812 Y120.097 E172.05253
G0 X91.247 Y120.097
G1 X71.052 Y99.902 E173.00244
G0 X70.486 Y99.902
G1 X90.681 Y120.097 E173.95235
G0 X90.115 Y120.097
G1 X69.92 Y99.902 E174.90226
G0 X69.355 Y99.902
G1 X89.55 Y120.097 E175.85217
G0 X88.984 Y120.097
G1 X68.789 Y99.902 E176.80208
G0 X68.223 Y99.902
G1 X88.418 Y120.097 E177.75199
G0 X87.853 Y120.097
G1 X67.658 Y99.902 E178.70191
G0 X67.092 Y99.902
G1 X87.287 Y120.097 E179.65182
G0 X86.721 Y120.097
G1 X66.526 Y99.902 E180.60173
G0 X65.961 Y99.902
G1 X86.156 Y120.097 E181.55164
G0 X85.59 Y120.097
G1 X65.395 Y99.902 E182.50155
G0 X64.829 Y99.902
G1 X85.024 Y120.097 E183.45146
G0 X84.458 Y120.097
G1 X64.263 Y99.902 E184.40137
G0 X63.698 Y99.902
G1 X83.893 Y120.097 E185.35128
G0 X83.327 Y120.097
G1 X63.132 Y99.902 E186.30119
G0 X62.566 Y99.902
G1 X82.761 Y120.097 E187.2511
G0 X82.196 Y120.097
G1 X62.001 Y99.902 E188.20101
G0 X61.435 Y99.902
G1 X81.63 Y120.097 E189.15093
G0 X81.064 Y120.097
G1 X60.869 Y99.902 E190.10084
G0 X60.304 Y99.902
G1 X80.499 Y120.097 E191.05075
G0 X79.933 Y120.097
G1 X59.738 Y99.902 E192.00066
G0 X59.172 Y99.902
G1 X79.367 Y120.097 E192.95057
G0 X78.802 Y120.097
G1 X58.607 Y99.902 E193.90048
G0 X58.041 Y99.902
G1 X78.236 Y120.097 E194.85039
G0 X77.67 Y120.097
G1 X57.475 Y99.902 E195.8003
G0 X56.91 Y99.902
G1 X77.105 Y120.097 E196.75021
G0 X76.539 Y120.097
G1 X56.344 Y99.902 E197.70012
G0 X55.778 Y99.902
G1 X75.973 Y120.097 E198.65003
G0 X75.407 Y120.097
G1 X55.213 Y99.902 E199.59992
G0 X54.647 Y99.902
G1 X74.842 Y120.097 E200.54983
G0 X74.276 Y120.097
G1 X54.081 Y99.902 E201.49974
G0 X53.515 Y99.902
G1 X73.71 Y120.097 E202.44965
G0 X73.145 Y120.097
G1 X52.95 Y99.902 E203.39957
G0 X52.449 Y99.967
G1 X72.579 Y120.097 E204.34642
G0 X72.013 Y120.097
G1 X52.449 Y100.532 E205.26667
G0 X52.449 Y101.098
G1 X71.448 Y120.097 E206.16033
G0 X70.882 Y120.097
G1 X52.449 Y101.664 E207.02736
G0 X52.449 Y102.229
G1 X70.316 Y120.097 E207.86779
G0 X69.751 Y120.097
G1 X52.449 Y102.795 E208.68162
G0 X52.449 Y103.361
G1 X69.185 Y120.097 E209.46883
G0 X68.619 Y120.097
G1 X52.449 Y103.927 E210.22942
G0 X52.449 Y104.492
G1 X68.054 Y120.097 E210.96343
G0 X67.488 Y120.097
G1 X52.449 Y105.058 E211.67082
G0 X52.449 Y105.624
G1 X66.922 Y120.097 E212.35159
G0 X66.357 Y120.097
G1 X52.449 Y106.189 E213.00578
G0 X52.449 Y106.755
G1 X65.791 Y120.097 E213.63334
G0 X65.225 Y120.097
G1 X52.449 Y107.321 E214.23429
G0 X52.449 Y107.886
G1 X64.659 Y120.097 E214.80863
G0 X64.094 Y120.097
G1 X52.449 Y108.452 E215.35638
G0 X52.449 Y109.018
G1 X63.528 Y120.097 E215.8775
G0 X62.962 Y120.097
G1 X52.449 Y109.583 E216.37202
G0 X52.449 Y110.149
G1 X62.397 Y120.097 E216.83995
G0 X61.831 Y120.097
G1 X52.449 Y110.715 E217.28125
G0 X52.449 Y111.28
G1 X61.265 Y120.097 E217.69595
G0 X60.7 Y120.097
G1 X52.449 Y111.846 E218.08405
G0 X52.449 Y112.412
G1 X60.134 Y120.097 E218.44553
G0 X59.568 Y120.097
G1 X52.449 Y112.977 E218.78041
G0 X52.449 Y113.543
G1 X59.003 Y120.097 E219.08869
G0 X58.437 Y120.097
G1 X52.449 Y114.109 E219.37034
G0 X52.449 Y114.675
G1 X57.871 Y120.097 E219.62538
G0 X57.306 Y120.097
G1 X52.449 Y115.24 E219.85384
G0 X52.449 Y115.806
G1 X56.74 Y120.097 E220.05567
G0 X56.174 Y120.097
G1 X52.449 Y116.372 E220.23089
G0 X52.449 Y116.937
G1 X55.608 Y120.097 E220.3795
G0 X55.043 Y120.097
G1 X52.449 Y117.503 E220.50151
G0 X52.449 Y118.069
G1 X54.477 Y120.097 E220.5969
G0 X53.911 Y120.097
G1 X52.449 Y118.634 E220.66569
G0 X52.449 Y119.2
G1 X53.346 Y120.097 E220.70789
G0 X52.78 Y120.097
G1 X52.449 Y119.766 E220.72346
G1 F1500 E214.22346
G1 F300 Z0.4
;MESH:NONMESH
G0 F1200 X168.1 Y120.648 Z0.4
;TIME_ELAPSED:365.322511
;LAYER:1
M106 S85
;TYPE:WALL-INNER
;MESH:holder.stl
G1 F300 Z0.4
G1 F1500 E220.72346
G1 F1320 X51.9 Y120.648 E224.58828
G1 X51.9 Y99.352 E225.29659
G1 X168.1 Y99.352 E229.16142
G1 X168.1 Y120.648 E229.86973
G0 F2280 X168.5 Y121.048
;TYPE:WALL-OUTER
G1 F1320 X51.5 Y121.048 E233.76116
G1 X51.5 Y98.952 E234.49608
G1 X168.5 Y98.952 E238.38751
G1 X168.5 Y121.048 E239.12243
G0 F2280 X167.71 Y120.258
;TYPE:SKIN
G1 F1200 X52.29 Y120.258 E242.96132
G1 X52.29 Y99.742 E243.64368
G1 X167.71 Y99.742 E247.48257
G1 X167.71 Y120.258 E248.16493
G0 F2280 X167.548 Y119.819
G1 F1200 X167.27 Y120.097 E248.17801
G0 F2280 X166.704 Y120.097
G1 F1200 X167.548 Y119.253 E248.21771
G0 F2280 X167.548 Y118.687
G1 F1200 X166.138 Y120.097 E248.28403
G0 F2280 X165.573 Y120.097
G1 F1200 X167.548 Y118.122 E248.37693
G0 F2280 X167.548 Y117.556
G1 F1200 X165.007 Y120.097 E248.49645
G0 F2280 X164.441 Y120.097
G1 F1200 X167.548 Y116.99 E248.64259
G0 F2280 X167.548 Y116.425
G1 F1200 X163.876 Y120.097 E248.81531
G0 F2280 X163.31 Y120.097
G1 F1200 X167.548 Y115.859 E249.01465
G0 F2280 X167.548 Y115.293
G1 F1200 X162.744 Y120.097 E249.24062
G0 F2280 X162.179 Y120.097
G1 F1200 X167.548 Y114.728 E249.49316
G0 F2280 X167.548 Y114.162
G1 F1200 X161.613 Y120.097 E249.77232
G0 F2280 X161.047 Y120.097
G1 F1200 X167.548 Y113.596 E250.07811
G0 F2280 X167.548 Y113.031
G1 F1200 X160.482 Y120.097 E250.41047
G0 F2280 X159.916 Y120.097
G1 F1200 X167.548 Y112.465 E250.76946
G0 F2280 X167.548 Y111.899
G1 F1200 X159.35 Y120.097 E251.15507
G0 F2280 X158.785 Y120.097
G1 F1200 X167.548 Y111.333 E251.56728
G0 F2280 X167.548 Y110.768
G1 F1200 X158.219 Y120.097 E252.00608
G0 F2280 X157.653 Y120.097
G1 F1200 X167.548 Y110.202 E252.47151
G0 F2280 X167.548 Y109.636
G1 F1200 X157.088 Y120.097 E252.96354
G0 F2280 X156.522 Y120.097
G1 F1200 X167.548 Y109.071 E253.48217
G0 F2280 X167.548 Y108.505
G1 F1200 X155.956 Y120.097 E254.02743
G0 F2280 X155.39 Y120.097
G1 F1200 X167.548 Y107.939 E254.5993
G0 F2280 X167.548 Y107.374
G1 F1200 X154.825 Y120.097 E255.19775
G0 F2280 X154.259 Y120.097
G1 F1200 X167.548 Y106.808 E255.82283
G0 F2280 X167.548 Y106.242
G1 F1200 X153.693 Y120.097 E256.47452
G0 F2280 X153.128 Y120.097
G1 F1200 X167.548 Y105.677 E257.15279
G0 F2280 X167.548 Y105.111
G1 F1200 X152.562 Y120.097 E257.85769
G0 F2280 X151.996 Y120.097
G1 F1200 X167.548 Y104.545 E258.58921
G0 F2280 X167.548 Y103.98
