;FLAVOR:Marlin
;TIME:15748
;Filament used: 15.7503m
;Layer height: 0.2
;MINX:86.091
;MINY:89.335
;MINZ:0.2
;MAXX:212.998
;MAXY:210.661
;MAXZ:7.8
;Generated with Cura_SteamEngine 4.10.0
M140 S60
M105
M190 S60
M104 S200
M105
M109 S200
M82 ;absolute extrusion mode
; Ender 3 Custom Start G-code
G92 E0 ; Reset Extruder
G28 ; Home all axes
G1 Z2.0 F3000 ; Move Z Axis up little to prevent scratching of Heat Bed
G1 X0.1 Y20 Z0.3 F5000.0 ; Move to start position
G1 X0.1 Y200.0 Z0.3 F1500.0 E15 ; Draw the first line
G1 X0.4 Y200.0 Z0.3 F5000.0 ; Move to side a little
G1 X0.4 Y20 Z0.3 F1500.0 E30 ; Draw the second line
G92 E0 ; Reset Extruder
G1 Z2.0 F3000 ; Move Z Axis up little to prevent scratching of Heat Bed
G1 X5 Y20 Z0.3 F5000.0 ; Move over to prevent blob squish
G92 E0
G92 E0
G1 F1500 E-6.5
;LAYER_COUNT:40
;LAYER:0
M107
;MESH:fullPillar.STL
G0 F1200 X116.648 Y209.399 Z0.2
;TYPE:WALL-INNER
G1 F1500 E0
G1 F2100 X87.353 Y209.4 E0.97436
G1 X87.352 Y205.799 E1.09413
G1 X87.352 Y205.6 E1.10074
G1 X87.551 Y205.6 E1.10503
G1 X95.352 Y205.6 E1.36449
G1 X95.352 Y94.4 E5.06302
G1 X87.353 Y94.4 E5.32906
G1 X87.352 Y90.799 E5.44883
G1 X87.352 Y90.6 E5.45545
G1 X87.551 Y90.6 E5.45973
G1 X116.647 Y90.6 E6.42747
G1 X116.648 Y209.399 E10.37874
G0 F1200 X117.048 Y209.799
;TYPE:WALL-OUTER
G1 F2100 X86.953 Y209.8 E11.37971
G1 X86.952 Y205.2 E11.5327
G1 X94.952 Y205.2 E11.79878
G1 X94.952 Y94.8 E15.4707
G1 X86.953 Y94.8 E15.73675
G1 X86.952 Y90.2 E15.88975
G1 X117.047 Y90.2 E16.89071
G1 X117.048 Y209.799 E20.86859
G0 F1200 X116.778 Y209.529
G0 X116.538 Y209.009
G0 X116.258 Y209.009
;TYPE:SKIN
G1 F2100 X87.743 Y209.01 E21.817
G1 X87.742 Y205.99 E21.91745
G1 X95.742 Y205.99 E22.18353
G1 X95.742 Y94.01 E25.908
G1 X87.743 Y94.01 E26.17405
G1 X87.742 Y90.99 E26.27449
G1 X116.257 Y90.99 E27.22291
G1 X116.258 Y209.009 E31.14823
G0 F1200 X116.538 Y209.009
G0 X88.357 Y209.29
G0 X88.357 Y208.848
G1 F2100 X87.902 Y208.393 E31.16963
G0 F1200 X87.902 Y207.827
G1 F2100 X88.923 Y208.848 E31.21766
G0 F1200 X89.489 Y208.848
G1 F2100 X87.902 Y207.262 E31.29228
G0 F1200 X87.902 Y206.696
G1 F2100 X90.054 Y208.848 E31.39351
G0 F1200 X90.62 Y208.848
G1 F2100 X87.921 Y206.149 E31.52046
G0 F1200 X88.487 Y206.149
G1 F2100 X91.186 Y208.848 E31.64741
G0 F1200 X91.752 Y208.848
G1 F2100 X89.053 Y206.149 E31.77437
G0 F1200 X89.618 Y206.149
G1 F2100 X92.317 Y208.848 E31.90132
G0 F1200 X92.883 Y208.848
G1 F2100 X90.184 Y206.149 E32.02827
G0 F1200 X90.75 Y206.149
G1 F2100 X93.449 Y208.848 E32.15522
G0 F1200 X94.014 Y208.848
G1 F2100 X91.315 Y206.149 E32.28218
G0 F1200 X91.881 Y206.149
G1 F2100 X94.58 Y208.848 E32.40913
G0 F1200 X95.146 Y208.848
G1 F2100 X92.447 Y206.149 E32.53608
G0 F1200 X93.012 Y206.149
G1 F2100 X95.711 Y208.848 E32.66303
G0 F1200 X96.277 Y208.848
G1 F2100 X93.578 Y206.149 E32.78999
G0 F1200 X94.144 Y206.149
G1 F2100 X96.843 Y208.848 E32.91694
G0 F1200 X97.408 Y208.848
G1 F2100 X94.709 Y206.149 E33.04389
G0 F1200 X95.275 Y206.149
G1 F2100 X97.974 Y208.848 E33.17084
G0 F1200 X98.54 Y208.848
G1 F2100 X95.841 Y206.149 E33.2978
G0 F1200 X95.901 Y205.644
G1 F2100 X99.105 Y208.848 E33.4485
G0 F1200 X99.671 Y208.848
G1 F2100 X95.901 Y205.078 E33.62583
G0 F1200 X95.901 Y204.512
G1 F2100 X100.237 Y208.848 E33.82979
G0 F1200 X100.803 Y208.848
G1 F2100 X95.901 Y203.947 E34.06034
G0 F1200 X95.901 Y203.381
G1 F2100 X101.368 Y208.848 E34.31749
G0 F1200 X101.934 Y208.848
G1 F2100 X95.901 Y202.815 E34.60126
G0 F1200 X95.901 Y202.25
G1 F2100 X102.499 Y208.848 E34.91161
G0 F1200 X103.065 Y208.848
G1 F2100 X95.901 Y201.684 E35.24858
G0 F1200 X95.901 Y201.118
G1 F2100 X103.63 Y208.848 E35.61216
G0 F1200 X104.196 Y208.848
G1 F2100 X95.901 Y200.553 E36.00233
G0 F1200 X95.901 Y199.987
G1 F2100 X104.762 Y208.848 E36.41912
G0 F1200 X105.327 Y208.848
G1 F2100 X95.901 Y199.421 E36.86251
G0 F1200 X95.901 Y198.856
G1 F2100 X105.893 Y208.848 E37.33251
G0 F1200 X106.459 Y208.848
G1 F2100 X95.901 Y198.29 E37.82912
G0 F1200 X95.901 Y197.724
G1 F2100 X107.024 Y208.848 E38.35234
G0 F1200 X107.59 Y208.848
G1 F2100 X95.901 Y197.159 E38.90215
G0 F1200 X95.901 Y196.593
G1 F2100 X108.156 Y208.848 E39.47859
G0 F1200 X108.721 Y208.848
G1 F2100 X95.901 Y196.027 E40.08163
G0 F1200 X95.901 Y195.461
G1 F2100 X109.287 Y208.848 E40.71129
G0 F1200 X109.853 Y208.848
G1 F2100 X95.901 Y194.896 E41.36755
G0 F1200 X95.901 Y194.33
G1 F2100 X110.418 Y208.848 E42.05041
G0 F1200 X110.984 Y208.848
G1 F2100 X95.901 Y193.764 E42.75989
G0 F1200 X95.901 Y193.199
G1 F2100 X111.55 Y208.848 E43.49597
G0 F1200 X112.116 Y208.848
G1 F2100 X95.901 Y192.633 E44.25867
G0 F1200 X95.901 Y192.067
G1 F2100 X112.681 Y208.848 E45.04798
G0 F1200 X113.247 Y208.848
G1 F2100 X95.901 Y191.502 E45.86388
G0 F1200 X95.901 Y190.936
G1 F2100 X113.813 Y208.848 E46.7064
G0 F1200 X114.378 Y208.848
G1 F2100 X95.901 Y190.37 E47.57553
G0 F1200 X95.901 Y189.805
G1 F2100 X114.944 Y208.848 E48.47125
G0 F1200 X115.51 Y208.848
G1 F2100 X95.901 Y189.239 E49.3936
G0 F1200 X95.901 Y188.673
G1 F2100 X116.075 Y208.848 E50.34255
G0 F1200 X116.098 Y208.305
G1 F2100 X95.901 Y188.108 E51.29255
G0 F1200 X95.901 Y187.542
G1 F2100 X116.098 Y207.739 E52.24256
G0 F1200 X116.098 Y207.173
G1 F2100 X95.901 Y186.976 E53.19256
G0 F1200 X95.901 Y186.411
G1 F2100 X116.098 Y206.608 E54.14257
G0 F1200 X116.098 Y206.042
G1 F2100 X95.901 Y185.845 E55.09257
G0 F1200 X95.901 Y185.279
G1 F2100 X116.098 Y205.476 E56.04258
G0 F1200 X116.098 Y204.911
G1 F2100 X95.901 Y184.713 E56.99261
G0 F1200 X95.901 Y184.148
G1 F2100 X116.098 Y204.345 E57.94261
G0 F1200 X116.098 Y203.779
G1 F2100 X95.901 Y183.582 E58.89262
G0 F1200 X95.901 Y183.016
G1 F2100 X116.098 Y203.214 E59.84264
G0 F1200 X116.098 Y202.648
G1 F2100 X95.901 Y182.451 E60.79265
G0 F1200 X95.901 Y181.885
G1 F2100 X116.098 Y202.082 E61.74265
G0 F1200 X116.098 Y201.516
G1 F2100 X95.901 Y181.319 E62.69266
G0 F1200 X95.901 Y180.754
G1 F2100 X116.098 Y200.951 E63.64266
G0 F1200 X116.098 Y200.385
G1 F2100 X95.901 Y180.188 E64.59267
G0 F1200 X95.901 Y179.622
G1 F2100 X116.098 Y199.819 E65.54267
G0 F1200 X116.098 Y199.254
G1 F2100 X95.901 Y179.057 E66.49268
G0 F1200 X95.901 Y178.491
G1 F2100 X116.098 Y198.688 E67.44268
G0 F1200 X116.098 Y198.122
G1 F2100 X95.901 Y177.925 E68.39269
G0 F1200 X95.901 Y177.36
G1 F2100 X116.098 Y197.557 E69.34269
G0 F1200 X116.098 Y196.991
G1 F2100 X95.901 Y176.794 E70.2927
G0 F1200 X95.901 Y176.228
G1 F2100 X116.098 Y196.425 E71.2427
G0 F1200 X116.098 Y195.86
G1 F2100 X95.901 Y175.663 E72.19271
G0 F1200 X95.901 Y175.097
G1 F2100 X116.098 Y195.294 E73.14271
G0 F1200 X116.098 Y194.728
G1 F2100 X95.901 Y174.531 E74.09272
G0 F1200 X95.901 Y173.965
G1 F2100 X116.098 Y194.163 E75.04275
G0 F1200 X116.098 Y193.597
G1 F2100 X95.901 Y173.4 E75.99275
G0 F1200 X95.901 Y172.834
G1 F2100 X116.098 Y193.031 E76.94276
G0 F1200 X116.098 Y192.465
G1 F2100 X95.901 Y172.268 E77.89276
G0 F1200 X95.901 Y171.703
G1 F2100 X116.098 Y191.9 E78.84277
G0 F1200 X116.098 Y191.334
G1 F2100 X95.901 Y171.137 E79.79277
G0 F1200 X95.901 Y170.571
G1 F2100 X116.098 Y190.768 E80.74278
G0 F1200 X116.098 Y190.203
G1 F2100 X95.901 Y170.006 E81.69278
G0 F1200 X95.901 Y169.44
G1 F2100 X116.098 Y189.637 E82.64279
G0 F1200 X116.098 Y189.071
G1 F2100 X95.901 Y168.874 E83.59279
G0 F1200 X95.901 Y168.309
G1 F2100 X116.098 Y188.506 E84.5428
G0 F1200 X116.098 Y187.94
G1 F2100 X95.901 Y167.743 E85.4928
G0 F1200 X95.901 Y167.177
G1 F2100 X116.098 Y187.374 E86.44281
G0 F1200 X116.098 Y186.809
G1 F2100 X95.901 Y166.612 E87.39281
G0 F1200 X95.901 Y166.046
G1 F2100 X116.098 Y186.243 E88.34282
G0 F1200 X116.098 Y185.677
G1 F2100 X95.901 Y165.48 E89.29282
G0 F1200 X95.901 Y164.914
G1 F2100 X116.098 Y185.112 E90.24285
G0 F1200 X116.098 Y184.546
G1 F2100 X95.901 Y164.349 E91.19285
G0 F1200 X95.901 Y163.783
G1 F2100 X116.098 Y183.98 E92.14286
G0 F1200 X116.098 Y183.415
G1 F2100 X95.901 Y163.217 E93.09289
G0 F1200 X95.901 Y162.652
G1 F2100 X116.098 Y182.849 E94.04289
G0 F1200 X116.098 Y182.283
G1 F2100 X95.901 Y162.086 E94.9929
G0 F1200 X95.901 Y161.52
G1 F2100 X116.098 Y181.717 E95.9429
G0 F1200 X116.098 Y181.152
G1 F2100 X95.901 Y160.955 E96.89291
G0 F1200 X95.901 Y160.389
G1 F2100 X116.098 Y180.586 E97.84291
G0 F1200 X116.098 Y180.02
G1 F2100 X95.901 Y159.823 E98.79292
G0 F1200 X95.901 Y159.258
G1 F2100 X116.098 Y179.455 E99.74292
G0 F1200 X116.098 Y178.889
G1 F2100 X95.901 Y158.692 E100.69293
G0 F1200 X95.901 Y158.126
G1 F2100 X116.098 Y178.323 E101.64293
G0 F1200 X116.098 Y177.758
G1 F2100 X95.901 Y157.561 E102.59294
G0 F1200 X95.901 Y156.995
G1 F2100 X116.098 Y177.192 E103.54294
G0 F1200 X116.098 Y176.626
G1 F2100 X95.901 Y156.429 E104.49295
G0 F1200 X95.901 Y155.864
G1 F2100 X116.098 Y176.061 E105.44295
G0 F1200 X116.098 Y175.495
G1 F2100 X95.901 Y155.298 E106.39296
G0 F1200 X95.901 Y154.732
G1 F2100 X116.098 Y174.929 E107.34296
G0 F1200 X116.098 Y174.364
G1 F2100 X95.901 Y154.166 E108.29299
G0 F1200 X95.901 Y153.601
G1 F2100 X116.098 Y173.798 E109.243
G0 F1200 X116.098 Y173.232
G1 F2100 X95.901 Y153.035 E110.193
G0 F1200 X95.901 Y152.469
G1 F2100 X116.098 Y172.666 E111.14301
G0 F1200 X116.098 Y172.101
G1 F2100 X95.901 Y151.904 E112.09301
G0 F1200 X95.901 Y151.338
G1 F2100 X116.098 Y171.535 E113.04302
G0 F1200 X116.098 Y170.969
G1 F2100 X95.901 Y150.772 E113.99302
G0 F1200 X95.901 Y150.207
G1 F2100 X116.098 Y170.404 E114.94303
G0 F1200 X116.098 Y169.838
G1 F2100 X95.9 Y149.64 E115.89308
G0 F1200 X95.9 Y149.075
G1 F2100 X116.097 Y169.272 E116.84308
G0 F1200 X116.097 Y168.706
G1 F2100 X95.9 Y148.509 E117.79309
G0 F1200 X95.9 Y147.943
G1 F2100 X116.097 Y168.14 E118.74309
G0 F1200 X116.097 Y167.575
G1 F2100 X95.9 Y147.378 E119.6931
G0 F1200 X95.9 Y146.812
G1 F2100 X116.097 Y167.009 E120.6431
G0 F1200 X116.097 Y166.443
G1 F2100 X95.9 Y146.246 E121.59311
G0 F1200 X95.9 Y145.68
G1 F2100 X116.097 Y165.878 E122.54314
G0 F1200 X116.097 Y165.312
G1 F2100 X95.9 Y145.115 E123.49314
G0 F1200 X95.9 Y144.549
G1 F2100 X116.097 Y164.746 E124.44315
G0 F1200 X116.097 Y164.181
G1 F2100 X95.9 Y143.983 E125.39317
G0 F1200 X95.9 Y143.418
G1 F2100 X116.097 Y163.615 E126.34318
G0 F1200 X116.097 Y163.049
G1 F2100 X95.9 Y142.852 E127.29318
G0 F1200 X95.9 Y142.286
G1 F2100 X116.097 Y162.483 E128.24319
G0 F1200 X116.097 Y161.918
G1 F2100 X95.9 Y141.721 E129.19319
G0 F1200 X95.9 Y141.155
G1 F2100 X116.097 Y161.352 E130.1432
G0 F1200 X116.097 Y160.786
G1 F2100 X95.9 Y140.589 E131.0932
G0 F1200 X95.9 Y140.024
G1 F2100 X116.097 Y160.221 E132.04321
G0 F1200 X116.097 Y159.655
G1 F2100 X95.9 Y139.458 E132.99321
G0 F1200 X95.9 Y138.892
G1 F2100 X116.097 Y159.089 E133.94322
G0 F1200 X116.097 Y158.524
G1 F2100 X95.9 Y138.327 E134.89322
G0 F1200 X95.9 Y137.761
G1 F2100 X116.097 Y157.958 E135.84323
G0 F1200 X116.097 Y157.392
G1 F2100 X95.9 Y137.195 E136.79323
G0 F1200 X95.9 Y136.63
G1 F2100 X116.097 Y156.827 E137.74324
G0 F1200 X116.097 Y156.261
G1 F2100 X95.9 Y136.064 E138.69324
G0 F1200 X95.9 Y135.498
G1 F2100 X116.097 Y155.695 E139.64325
G0 F1200 X116.097 Y155.13
G1 F2100 X95.9 Y134.932 E140.59328
G0 F1200 X95.9 Y134.367
G1 F2100 X116.097 Y154.564 E141.54328
G0 F1200 X116.097 Y153.998
G1 F2100 X95.9 Y133.801 E142.49329
G0 F1200 X95.9 Y133.235
G1 F2100 X116.097 Y153.432 E143.44329
G0 F1200 X116.097 Y152.867
G1 F2100 X95.9 Y132.67 E144.3933
G0 F1200 X95.9 Y132.104
G1 F2100 X116.097 Y152.301 E145.3433
G0 F1200 X116.097 Y151.735
G1 F2100 X95.9 Y131.538 E146.29331
G0 F1200 X95.9 Y130.973
G1 F2100 X116.097 Y151.17 E147.24331
G0 F1200 X116.097 Y150.604
G1 F2100 X95.9 Y130.407 E148.19332
G0 F1200 X95.9 Y129.841
G1 F2100 X116.097 Y150.038 E149.14332
G0 F1200 X116.097 Y149.473
G1 F2100 X95.9 Y129.276 E150.09333
G0 F1200 X95.9 Y128.71
G1 F2100 X116.097 Y148.907 E151.04333
G0 F1200 X116.097 Y148.341
G1 F2100 X95.9 Y128.144 E151.99334
G0 F1200 X95.9 Y127.579
G1 F2100 X116.097 Y147.776 E152.94334
G0 F1200 X116.097 Y147.21
G1 F2100 X95.9 Y127.013 E153.89335
G0 F1200 X95.9 Y126.447
G1 F2100 X116.097 Y146.644 E154.84335
G0 F1200 X116.097 Y146.079
G1 F2100 X95.9 Y125.881 E155.79338
G0 F1200 X95.9 Y125.316
G1 F2100 X116.097 Y145.513 E156.74339
G0 F1200 X116.097 Y144.947
G1 F2100 X95.9 Y124.75 E157.69339
G0 F1200 X95.9 Y124.184
G1 F2100 X116.097 Y144.382 E158.64342
G0 F1200 X116.097 Y143.816
G1 F2100 X95.9 Y123.619 E159.59342
G0 F1200 X95.9 Y123.053
G1 F2100 X116.097 Y143.25 E160.54343
G0 F1200 X116.097 Y142.684
G1 F2100 X95.9 Y122.487 E161.49343
G0 F1200 X95.9 Y121.922
G1 F2100 X116.097 Y142.119 E162.44344
G0 F1200 X116.097 Y141.553
G1 F2100 X95.9 Y121.356 E163.39344
G0 F1200 X95.9 Y120.79
G1 F2100 X116.097 Y140.987 E164.34345
G0 F1200 X116.097 Y140.422
G1 F2100 X95.9 Y120.225 E165.29345
G0 F1200 X95.9 Y119.659
G1 F2100 X116.097 Y139.856 E166.24346
G0 F1200 X116.097 Y139.29
G1 F2100 X95.9 Y119.093 E167.19346
G0 F1200 X95.9 Y118.528
G1 F2100 X116.097 Y138.725 E168.14347
G0 F1200 X116.097 Y138.159
G1 F2100 X95.9 Y117.962 E169.09347
G0 F1200 X95.9 Y117.396
G1 F2100 X116.097 Y137.593 E170.04348
G0 F1200 X116.097 Y137.028
G1 F2100 X95.9 Y116.831 E170.99348
G0 F1200 X95.9 Y116.265
G1 F2100 X116.097 Y136.462 E171.94349
G0 F1200 X116.097 Y135.896
G1 F2100 X95.9 Y115.699 E172.89349
G0 F1200 X95.9 Y115.133
G1 F2100 X116.097 Y135.331 E173.84352
G0 F1200 X116.097 Y134.765
G1 F2100 X95.9 Y114.568 E174.79353
G0 F1200 X95.9 Y114.002
G1 F2100 X116.097 Y134.199 E175.74353
G0 F1200 X116.097 Y133.633
G1 F2100 X95.9 Y113.436 E176.69354
G0 F1200 X95.9 Y112.871
G1 F2100 X116.097 Y133.068 E177.64354
G0 F1200 X116.097 Y132.502
G1 F2100 X95.9 Y112.305 E178.59355
G0 F1200 X95.9 Y111.739
G1 F2100 X116.097 Y131.936 E179.54355
G0 F1200 X116.097 Y131.371
G1 F2100 X95.9 Y111.174 E180.49356
G0 F1200 X95.9 Y110.608
G1 F2100 X116.097 Y130.805 E181.44356
G0 F1200 X116.097 Y130.239
G1 F2100 X95.9 Y110.042 E182.39357
G0 F1200 X95.9 Y109.477
G1 F2100 X116.097 Y129.673 E183.34355
G0 F1200 X116.097 Y129.107
G1 F2100 X95.9 Y108.911 E184.29353
G0 F1200 X95.9 Y108.345
G1 F2100 X116.097 Y128.542 E185.24353
G0 F1200 X116.097 Y127.976
G1 F2100 X95.9 Y107.78 E186.19352
G0 F1200 X95.9 Y107.214
G1 F2100 X116.097 Y127.41 E187.1435
G0 F1200 X116.097 Y126.845
G1 F2100 X95.9 Y106.648 E188.0935
G0 F1200 X95.9 Y106.082
G1 F2100 X116.097 Y126.279 E189.04351
G0 F1200 X116.097 Y125.713
G1 F2100 X95.9 Y105.517 E189.99349
G0 F1200 X95.9 Y104.951
G1 F2100 X116.097 Y125.148 E190.94349
G0 F1200 X116.097 Y124.582
G1 F2100 X95.9 Y104.385 E191.8935
G0 F1200 X95.9 Y103.82
G1 F2100 X116.097 Y124.016 E192.84348
G0 F1200 X116.097 Y123.45
G1 F2100 X95.9 Y103.254 E193.79346
G0 F1200 X95.9 Y102.688
G1 F2100 X116.097 Y122.885 E194.74347
G0 F1200 X116.097 Y122.319
G1 F2100 X95.9 Y102.123 E195.69345
G0 F1200 X95.9 Y101.557
G1 F2100 X116.097 Y121.753 E196.64343
G0 F1200 X116.097 Y121.188
G1 F2100 X95.9 Y100.991 E197.59343
G0 F1200 X95.9 Y100.426
G1 F2100 X116.097 Y120.622 E198.54342
G0 F1200 X116.097 Y120.056
G1 F2100 X95.9 Y99.86 E199.4934
G0 F1200 X95.9 Y99.294
G1 F2100 X116.097 Y119.491 E200.4434
G0 F1200 X116.097 Y118.925
G1 F2100 X95.9 Y98.729 E201.39338
G0 F1200 X95.9 Y98.163
G1 F2100 X116.097 Y118.359 E202.34336
G0 F1200 X116.097 Y117.794
G1 F2100 X95.9 Y97.597 E203.29337
G0 F1200 X95.9 Y97.032
G1 F2100 X116.097 Y117.228 E204.24335
G0 F1200 X116.097 Y116.662
G1 F2100 X95.9 Y96.466 E205.19333
G0 F1200 X95.9 Y95.9
G1 F2100 X116.097 Y116.097 E206.14334
G0 F1200 X116.097 Y115.531
G1 F2100 X95.9 Y95.334 E207.09334
G0 F1200 X95.9 Y94.769
G1 F2100 X116.097 Y114.965 E208.04332
G0 F1200 X116.097 Y114.399
G1 F2100 X95.9 Y94.203 E208.99331
G0 F1200 X95.546 Y93.849
G1 F2100 X92.846 Y91.149 E209.1203
G0 F1200 X93.412 Y91.149
G1 F2100 X116.097 Y113.834 E210.18734
G0 F1200 X116.097 Y113.268
G1 F2100 X93.978 Y91.149 E211.22775
G0 F1200 X94.543 Y91.149
G1 F2100 X116.097 Y112.702 E212.24156
G0 F1200 X116.097 Y112.137
G1 F2100 X95.109 Y91.149 E213.22877
G0 F1200 X95.675 Y91.149
G1 F2100 X116.097 Y111.571 E214.18936
G0 F1200 X116.097 Y111.005
G1 F2100 X96.24 Y91.149 E215.12335
G0 F1200 X96.806 Y91.149
G1 F2100 X116.097 Y110.44 E216.03074
G0 F1200 X116.097 Y109.874
G1 F2100 X97.372 Y91.149 E216.9115
G0 F1200 X97.937 Y91.149
G1 F2100 X116.097 Y109.308 E217.76567
