;FLAVOR:Marlin
;TIME:14810
;Filament used: 14.0477m
;Layer height: 0.2
;MINX:82.147
;MINY:89.335
;MINZ:0.2
;MAXX:218.714
;MAXY:210.665
;MAXZ:21.4
;Generated with Cura_SteamEngine 4.10.0
M140 S60
M105
M190 S60
M104 S200
M105
M109 S200
M82 ;absolute extrusion mode
; Ender 3 Custom Start G-code
G92 E0 ; Reset Extruder
G28 ; Home all axes
G1 Z2.0 F3000 ; Move Z Axis up little to prevent scratching of Heat Bed
G1 X0.1 Y20 Z0.3 F5000.0 ; Move to start position
G1 X0.1 Y200.0 Z0.3 F1500.0 E15 ; Draw the first line
G1 X0.4 Y200.0 Z0.3 F5000.0 ; Move to side a little
G1 X0.4 Y20 Z0.3 F1500.0 E30 ; Draw the second line
G92 E0 ; Reset Extruder
G1 Z2.0 F3000 ; Move Z Axis up little to prevent scratching of Heat Bed
G1 X5 Y20 Z0.3 F5000.0 ; Move over to prevent blob squish
G92 E0
G92 E0
G1 F1500 E-6.5
;LAYER_COUNT:108
;LAYER:0
M107
;MESH:bottom_plate.STL
G0 F1200 X86.856 Y96.088 Z0.2
;TYPE:WALL-INNER
G1 F1500 E0
G1 F2100 X87.192 Y95.906 E0.01271
G1 X87.489 Y95.675 E0.02522
G1 X87.743 Y95.398 E0.03772
G1 X87.949 Y95.085 E0.05019
G1 X88.101 Y94.74 E0.06273
G1 X88.193 Y94.375 E0.07525
G1 X88.224 Y94 E0.08776
G1 X88.193 Y93.621 E0.10041
G1 X88.1 Y93.26 E0.11281
G1 X87.949 Y92.915 E0.12533
G1 X87.743 Y92.602 E0.1378
G1 X87.49 Y92.326 E0.15025
G1 X87.193 Y92.094 E0.16278
G1 X86.861 Y91.914 E0.17534
G1 X86.508 Y91.794 E0.18775
G1 X86.134 Y91.731 E0.20036
G1 X85.759 Y91.731 E0.21283
G1 X85.406 Y91.79 E0.22474
G1 X85.038 Y91.912 E0.23763
G1 X84.701 Y92.094 E0.25037
G1 X84.404 Y92.325 E0.26288
G1 X84.15 Y92.602 E0.27538
G1 X83.944 Y92.915 E0.28785
G1 X83.792 Y93.26 E0.30039
G1 X83.7 Y93.625 E0.31291
G1 X83.669 Y94 E0.32542
G1 X83.7 Y94.379 E0.33807
G1 X83.793 Y94.74 E0.35047
G1 X83.944 Y95.085 E0.36299
G1 X84.15 Y95.398 E0.37546
G1 X84.403 Y95.674 E0.38791
G1 X84.7 Y95.906 E0.40044
G1 X85.032 Y96.086 E0.413
G1 X85.385 Y96.206 E0.42541
G1 X85.759 Y96.269 E0.43802
G1 X86.134 Y96.269 E0.45049
G1 X86.486 Y96.21 E0.46236
G1 X86.856 Y96.088 E0.47532
G0 F1200 X86.697 Y95.719
;TYPE:WALL-OUTER
G1 F2100 X86.973 Y95.57 E0.48575
G1 X87.217 Y95.38 E0.49604
G1 X87.426 Y95.152 E0.50633
G1 X87.596 Y94.893 E0.51663
G1 X87.721 Y94.609 E0.52695
G1 X87.797 Y94.309 E0.53724
G1 X87.823 Y94 E0.54756
G1 X87.797 Y93.688 E0.55797
G1 X87.721 Y93.391 E0.56817
G1 X87.596 Y93.107 E0.57849
G1 X87.426 Y92.848 E0.58879
G1 X87.218 Y92.621 E0.59903
G1 X86.973 Y92.43 E0.60936
G1 X86.7 Y92.282 E0.61969
G1 X86.41 Y92.183 E0.62989
G1 X86.101 Y92.131 E0.64031
G1 X85.792 Y92.131 E0.65058
G1 X85.503 Y92.179 E0.66033
G1 X85.197 Y92.281 E0.67106
G1 X84.92 Y92.43 E0.68152
G1 X84.676 Y92.62 E0.6918
G1 X84.467 Y92.848 E0.70209
G1 X84.297 Y93.107 E0.71239
G1 X84.172 Y93.391 E0.72272
G1 X84.096 Y93.691 E0.73301
G1 X84.07 Y94 E0.74332
G1 X84.096 Y94.312 E0.75374
G1 X84.172 Y94.609 E0.76393
G1 X84.297 Y94.893 E0.77425
G1 X84.467 Y95.152 E0.78456
G1 X84.675 Y95.379 E0.7948
G1 X84.92 Y95.57 E0.80513
G1 X85.193 Y95.718 E0.81546
G1 X85.483 Y95.817 E0.82565
G1 X85.792 Y95.869 E0.83607
G1 X86.101 Y95.869 E0.84635
G1 X86.39 Y95.821 E0.85609
G1 X86.697 Y95.719 E0.86685
G0 F1200 X86.871 Y96.122
G1 F1500 E-5.63315
G0 F1200 X87.619 Y95.816
G0 X86.631 Y94.741
G0 X104.93 Y94.74
G0 X105 Y108.004
G0 X126.201 Y108.004
G0 X126.268 Y94.739
G0 X144.568 Y94.74
G0 X143.58 Y95.815
G0 X145.066 Y96.269
;TYPE:WALL-INNER
G1 F1500 E0.86685
G1 F2100 X145.441 Y96.269 E0.87933
G1 X145.793 Y96.21 E0.8912
G1 X146.163 Y96.088 E0.90415
G1 X146.499 Y95.906 E0.91686
G1 X146.796 Y95.675 E0.92938
G1 X147.05 Y95.398 E0.94188
G1 X147.256 Y95.085 E0.95434
G1 X147.408 Y94.74 E0.96688
G1 X147.5 Y94.375 E0.9794
G1 X147.531 Y94 E0.99191
G1 X147.5 Y93.621 E1.00456
G1 X147.407 Y93.26 E1.01696
G1 X147.256 Y92.915 E1.02949
G1 X147.05 Y92.602 E1.04195
G1 X146.797 Y92.326 E1.0544
G1 X146.5 Y92.094 E1.06694
G1 X146.168 Y91.914 E1.0795
G1 X145.815 Y91.794 E1.0919
G1 X145.441 Y91.731 E1.10451
G1 X145.066 Y91.731 E1.11699
G1 X144.713 Y91.79 E1.12889
G1 X144.345 Y91.912 E1.14178
G1 X144.008 Y92.094 E1.15452
G1 X143.711 Y92.325 E1.16704
G1 X143.457 Y92.602 E1.17954
G1 X143.251 Y92.915 E1.192
G1 X143.099 Y93.26 E1.20454
G1 X143.007 Y93.625 E1.21706
G1 X142.977 Y94 E1.22957
G1 X143.007 Y94.378 E1.24218
G1 X143.1 Y94.74 E1.25461
G1 X143.251 Y95.085 E1.26714
G1 X143.457 Y95.398 E1.2796
G1 X143.71 Y95.674 E1.29206
G1 X144.007 Y95.906 E1.30459
G1 X144.339 Y96.086 E1.31715
G1 X144.692 Y96.206 E1.32955
G1 X145.066 Y96.269 E1.34217
G0 F1200 X145.099 Y95.869
;TYPE:WALL-OUTER
G1 F2100 X145.408 Y95.869 E1.35244
G1 X145.697 Y95.821 E1.36219
G1 X146.004 Y95.719 E1.37295
G1 X146.28 Y95.57 E1.38338
G1 X146.524 Y95.38 E1.39367
G1 X146.733 Y95.152 E1.40395
G1 X146.903 Y94.893 E1.41426
G1 X147.028 Y94.609 E1.42458
G1 X147.104 Y94.309 E1.43487
G1 X147.13 Y94 E1.44518
G1 X147.104 Y93.688 E1.4556
G1 X147.028 Y93.391 E1.46579
G1 X146.903 Y93.107 E1.47611
G1 X146.733 Y92.848 E1.48642
G1 X146.525 Y92.621 E1.49666
G1 X146.28 Y92.43 E1.50699
G1 X146.007 Y92.282 E1.51732
G1 X145.717 Y92.183 E1.52751
G1 X145.408 Y92.131 E1.53793
G1 X145.099 Y92.131 E1.54821
G1 X144.81 Y92.179 E1.55796
G1 X144.504 Y92.281 E1.56868
G1 X144.227 Y92.43 E1.57914
G1 X143.983 Y92.62 E1.58943
G1 X143.774 Y92.848 E1.59972
G1 X143.604 Y93.107 E1.61002
G1 X143.479 Y93.391 E1.62034
G1 X143.403 Y93.691 E1.63064
G1 X143.378 Y94 E1.64095
G1 X143.403 Y94.312 E1.65136
G1 X143.479 Y94.609 E1.66155
G1 X143.604 Y94.893 E1.67187
G1 X143.774 Y95.152 E1.68218
G1 X143.982 Y95.379 E1.69242
G1 X144.227 Y95.57 E1.70275
G1 X144.5 Y95.718 E1.71308
G1 X144.79 Y95.817 E1.72327
G1 X145.099 Y95.869 E1.73369
G0 F1200 X145.063 Y96.307
G1 F1500 E-4.76631
G0 F1200 X145.441 Y96.459
G0 X145.336 Y95.005
G0 X145.335 Y98.583
G0 X141.907 Y98.653
G0 X141.907 Y201.348
G0 X145.34 Y201.415
G0 X145.341 Y204.995
G0 X145.441 Y203.541
G0 X146.688 Y204.445
G0 X147.114 Y204.992
G0 X147.341 Y205.649
G0 X147.341 Y206.348
G0 X147.114 Y207.008
G0 X146.687 Y207.557
G0 X146.354 Y207.772
G0 X145.441 Y208.269
;TYPE:WALL-INNER
G1 F1500 E1.73369
G1 F2100 X145.793 Y208.21 E1.74556
G1 X146.163 Y208.088 E1.75852
G1 X146.499 Y207.906 E1.77123
G1 X146.796 Y207.675 E1.78375
G1 X147.05 Y207.398 E1.79625
G1 X147.256 Y207.085 E1.80871
G1 X147.408 Y206.74 E1.82125
G1 X147.5 Y206.375 E1.83377
G1 X147.531 Y206 E1.84628
G1 X147.5 Y205.621 E1.85893
G1 X147.407 Y205.26 E1.87133
G1 X147.256 Y204.915 E1.88386
G1 X147.05 Y204.602 E1.89632
G1 X146.797 Y204.326 E1.90877
G1 X146.5 Y204.094 E1.92131
G1 X146.168 Y203.914 E1.93387
G1 X145.815 Y203.794 E1.94627
G1 X145.441 Y203.731 E1.95888
G1 X145.066 Y203.731 E1.97135
G1 X144.714 Y203.79 E1.98323
G1 X144.344 Y203.912 E1.99618
G1 X144.008 Y204.094 E2.00889
G1 X143.711 Y204.325 E2.02141
G1 X143.457 Y204.602 E2.03391
G1 X143.251 Y204.915 E2.04637
G1 X143.099 Y205.26 E2.05891
G1 X143.007 Y205.625 E2.07143
G1 X142.977 Y206 E2.08394
G1 X143.007 Y206.378 E2.09655
G1 X143.1 Y206.74 E2.10898
G1 X143.251 Y207.085 E2.12151
G1 X143.457 Y207.398 E2.13397
G1 X143.71 Y207.674 E2.14643
G1 X144.007 Y207.906 E2.15896
G1 X144.339 Y208.086 E2.17152
G1 X144.692 Y208.206 E2.18392
G1 X145.066 Y208.269 E2.19654
G1 X145.441 Y208.269 E2.20901
G0 F1200 X145.408 Y207.869
;TYPE:WALL-OUTER
G1 F2100 X145.697 Y207.821 E2.21875
G1 X146.004 Y207.719 E2.22951
G1 X146.28 Y207.57 E2.23994
G1 X146.524 Y207.38 E2.25023
G1 X146.733 Y207.152 E2.26052
G1 X146.903 Y206.893 E2.27082
G1 X147.028 Y206.609 E2.28114
G1 X147.104 Y206.309 E2.29144
G1 X147.13 Y206 E2.30175
G1 X147.104 Y205.688 E2.31216
G1 X147.028 Y205.391 E2.32236
G1 X146.903 Y205.107 E2.33268
G1 X146.733 Y204.848 E2.34298
G1 X146.525 Y204.621 E2.35322
G1 X146.28 Y204.43 E2.36356
G1 X146.007 Y204.282 E2.37388
G1 X145.717 Y204.183 E2.38408
G1 X145.408 Y204.131 E2.3945
G1 X145.099 Y204.131 E2.40478
G1 X144.81 Y204.179 E2.41452
G1 X144.503 Y204.281 E2.42528
G1 X144.227 Y204.43 E2.43571
G1 X143.983 Y204.62 E2.446
G1 X143.774 Y204.848 E2.45628
G1 X143.604 Y205.107 E2.46659
G1 X143.479 Y205.391 E2.47691
G1 X143.403 Y205.691 E2.4872
G1 X143.378 Y206 E2.49751
G1 X143.403 Y206.312 E2.50792
G1 X143.479 Y206.609 E2.51812
G1 X143.604 Y206.893 E2.52844
G1 X143.774 Y207.152 E2.53874
G1 X143.982 Y207.379 E2.54899
G1 X144.227 Y207.57 E2.55932
G1 X144.5 Y207.718 E2.56965
G1 X144.79 Y207.817 E2.57984
G1 X145.099 Y207.869 E2.59026
G1 X145.408 Y207.869 E2.60054
G0 F1200 X145.444 Y208.307
G1 F1500 E-3.89946
G0 F1200 X146.926 Y207.816
G0 X146.926 Y209.19
G0 X148.654 Y209.399
;TYPE:WALL-INNER
G1 F1500 E2.60054
G1 F2100 X148.455 Y209.399 E2.60716
G1 X127.451 Y209.4 E3.30575
G1 X127.45 Y190.743 E3.92629
G1 X103.75 Y190.743 E4.71455
G1 X103.75 Y209.4 E5.33509
G1 X90.547 Y209.4 E5.77422
G1 X90.547 Y97.598 E9.49277
G1 X90.547 Y97.399 E9.49939
G1 X90.348 Y97.399 E9.50367
G1 X82.548 Y97.4 E9.7631
G1 X82.547 Y90.8 E9.98262
G1 X82.547 Y90.601 E9.98923
G1 X82.746 Y90.601 E9.99352
G1 X103.746 Y90.6 E10.69198
G1 X103.747 Y109.257 E11.31251
G1 X127.454 Y109.257 E12.10101
G1 X127.454 Y90.6 E12.72155
G1 X148.653 Y90.6 E13.42663
G1 X148.654 Y97.2 E13.64615
G1 X148.654 Y97.399 E13.65276
G1 X148.455 Y97.399 E13.65705
G1 X140.654 Y97.4 E13.91651
G1 X140.654 Y202.402 E17.40889
G1 X140.654 Y202.601 E17.41551
G1 X140.853 Y202.601 E17.41979
G1 X148.653 Y202.6 E17.67922
G1 X148.654 Y209.2 E17.89874
G1 X148.654 Y209.399 E17.90302
G0 F1200 X149.054 Y209.799
;TYPE:WALL-OUTER
G1 F2100 X127.051 Y209.8 E18.63484
G1 X127.05 Y191.143 E19.25538
G1 X104.15 Y191.143 E20.01703
G1 X104.15 Y209.8 E20.63757
G1 X90.147 Y209.8 E21.10331
G1 X90.147 Y97.799 E24.82848
G1 X82.148 Y97.8 E25.09453
G1 X82.147 Y90.201 E25.34727
G1 X104.146 Y90.2 E26.07896
G1 X104.147 Y108.857 E26.69949
G1 X127.054 Y108.857 E27.46138
G1 X127.054 Y90.2 E28.08192
G1 X149.053 Y90.2 E28.81361
G1 X149.054 Y97.799 E29.06635
G1 X141.054 Y97.8 E29.33243
G1 X141.054 Y202.201 E32.80482
G1 X149.053 Y202.2 E33.07087
G1 X149.054 Y209.799 E33.32361
G0 F1200 X148.784 Y209.529
G0 X148.544 Y209.009
G0 X148.264 Y209.009
;TYPE:SKIN
G1 F2100 X127.841 Y209.01 E34.00289
G1 X127.84 Y190.353 E34.62342
G1 X103.36 Y190.353 E35.43763
G1 X103.36 Y209.01 E36.05816
G1 X90.937 Y209.01 E36.47135
G1 X90.937 Y97.009 E40.19652
G1 X82.938 Y97.01 E40.46257
G1 X82.937 Y90.991 E40.66276
G1 X103.356 Y90.99 E41.3419
G1 X103.357 Y109.647 E41.96244
G1 X127.844 Y109.647 E42.77688
G1 X127.844 Y90.99 E43.39741
G1 X148.263 Y90.99 E44.07655
G1 X148.264 Y97.009 E44.27674
G1 X140.264 Y97.01 E44.54282
G1 X140.264 Y202.991 E48.06777
G1 X148.263 Y202.99 E48.33381
G1 X148.264 Y209.009 E48.53401
G1 F1500 E42.03401
G0 F1200 X148.544 Y209.009
G0 X146.872 Y209.19
G0 X146.339 Y208.209
G0 X146.872 Y207.756
G0 X147.061 Y207.963
G1 F1500 E48.53401
G1 F2100 X147.358 Y207.638 E48.54865
G1 X147.599 Y207.272 E48.56323
G1 X147.778 Y206.867 E48.57795
G1 X147.886 Y206.439 E48.59263
G1 X147.923 Y206 E48.60729
G1 X147.886 Y205.556 E48.62211
G1 X147.777 Y205.133 E48.63663
G1 X147.6 Y204.728 E48.65133
G1 X147.358 Y204.362 E48.66593
G1 X147.062 Y204.039 E48.6805
G1 X146.715 Y203.767 E48.69516
G1 X146.324 Y203.555 E48.70996
G1 X145.911 Y203.414 E48.72447
G1 X145.474 Y203.341 E48.73921
G1 X145.033 Y203.341 E48.75388
G1 X144.62 Y203.41 E48.7678
G1 X144.188 Y203.553 E48.78294
G1 X143.794 Y203.766 E48.79784
G1 X143.446 Y204.037 E48.81251
G1 X143.149 Y204.362 E48.82715
G1 X142.908 Y204.728 E48.84172
G1 X142.729 Y205.133 E48.85645
G1 X142.621 Y205.561 E48.87113
G1 X142.585 Y206 E48.88578
G1 X142.621 Y206.442 E48.90053
G1 X142.73 Y206.867 E48.91513
G1 X142.907 Y207.272 E48.92983
G1 X143.149 Y207.638 E48.94442
G1 X143.445 Y207.961 E48.95899
G1 X143.792 Y208.233 E48.97366
G1 X144.183 Y208.445 E48.98845
G1 X144.596 Y208.586 E49.00296
G1 X145.033 Y208.659 E49.0177
G1 X145.474 Y208.659 E49.03237
G1 X145.887 Y208.59 E49.0463
G1 X146.319 Y208.447 E49.06143
G1 X146.713 Y208.234 E49.07633
G1 X147.061 Y207.963 E49.091
G1 F1500 E42.591
G0 F1200 X146.872 Y207.756
G0 X147.341 Y206.348
G0 X147.341 Y205.649
G0 X147.158 Y205.118
G0 X146.244 Y203.739
G0 X145.661 Y205.077
G0 X145.649 Y201.414
G0 X141.907 Y201.348
G0 X141.907 Y98.653
G0 X145.345 Y98.584
G0 X145.336 Y95.005
G0 X145.457 Y96.46
G0 X145.474 Y96.659
G1 F1500 E49.091
G1 F2100 X145.887 Y96.59 E49.10492
G1 X146.319 Y96.447 E49.12006
G1 X146.713 Y96.234 E49.13496
G1 X147.061 Y95.963 E49.14963
G1 X147.358 Y95.638 E49.16427
G1 X147.599 Y95.272 E49.17884
G1 X147.778 Y94.867 E49.19357
G1 X147.886 Y94.439 E49.20825
G1 X147.923 Y94 E49.22291
G1 X147.886 Y93.556 E49.23773
G1 X147.777 Y93.133 E49.25225
G1 X147.6 Y92.728 E49.26695
G1 X147.358 Y92.362 E49.28155
G1 X147.062 Y92.039 E49.29612
G1 X146.715 Y91.767 E49.31078
G1 X146.324 Y91.555 E49.32558
G1 X145.911 Y91.414 E49.34009
G1 X145.474 Y91.341 E49.35483
G1 X145.033 Y91.341 E49.3695
G1 X144.619 Y91.41 E49.38346
G1 X144.189 Y91.553 E49.39853
G1 X143.794 Y91.766 E49.41345
G1 X143.446 Y92.037 E49.42812
G1 X143.149 Y92.362 E49.44277
G1 X142.908 Y92.728 E49.45734
G1 X142.729 Y93.133 E49.47207
G1 X142.621 Y93.561 E49.48675
G1 X142.585 Y94 E49.5014
G1 X142.621 Y94.442 E49.51615
G1 X142.73 Y94.867 E49.53074
G1 X142.907 Y95.272 E49.54545
G1 X143.149 Y95.638 E49.56004
G1 X143.445 Y95.961 E49.57461
G1 X143.792 Y96.233 E49.58928
G1 X144.183 Y96.445 E49.60407
G1 X144.596 Y96.586 E49.61858
G1 X145.033 Y96.659 E49.63332
G1 X145.474 Y96.659 E49.64799
G1 F1500 E43.14799
G0 F1200 X145.451 Y96.379
G0 X143.58 Y95.815
G0 X144.568 Y94.74
G0 X126.269 Y94.657
G0 X126.201 Y108.004
G0 X105 Y108.004
G0 X104.93 Y94.561
G0 X86.833 Y94.48
G0 X88.117 Y95.177
G0 X87.253 Y95.997
G0 X87.406 Y96.234
G1 F1500 E49.64799
G1 F2100 X87.754 Y95.963 E49.66266
G1 X88.051 Y95.638 E49.6773
G1 X88.292 Y95.272 E49.69188
G1 X88.471 Y94.867 E49.7066
G1 X88.579 Y94.439 E49.72128
G1 X88.616 Y94 E49.73594
G1 X88.579 Y93.556 E49.75076
G1 X88.47 Y93.133 E49.76528
G1 X88.293 Y92.728 E49.77999
G1 X88.051 Y92.362 E49.79458
G1 X87.755 Y92.039 E49.80915
G1 X87.408 Y91.767 E49.82382
G1 X87.017 Y91.555 E49.83861
G1 X86.604 Y91.414 E49.85312
G1 X86.167 Y91.341 E49.86786
G1 X85.726 Y91.341 E49.88253
G1 X85.312 Y91.41 E49.89649
G1 X84.882 Y91.553 E49.91156
G1 X84.487 Y91.766 E49.92649
G1 X84.139 Y92.037 E49.94116
G1 X83.842 Y92.362 E49.9558
G1 X83.601 Y92.728 E49.97037
G1 X83.422 Y93.133 E49.9851
G1 X83.314 Y93.561 E49.99978
G1 X83.277 Y94 E50.01444
G1 X83.314 Y94.444 E50.02925
G1 X83.423 Y94.867 E50.04378
G1 X83.6 Y95.272 E50.05848
G1 X83.842 Y95.638 E50.07308
G1 X84.138 Y95.961 E50.08765
G1 X84.485 Y96.233 E50.10231
G1 X84.876 Y96.445 E50.11711
G1 X85.289 Y96.586 E50.13162
G1 X85.726 Y96.659 E50.14636
G1 X86.167 Y96.659 E50.16103
G1 X86.58 Y96.59 E50.17495
G1 X87.012 Y96.447 E50.19009
G1 X87.406 Y96.234 E50.20498
G1 F1500 E43.70498
G0 F1200 X87.253 Y95.997
G0 X88.117 Y95.177
G0 X86.833 Y94.48
G0 X105.011 Y95.176
G0 X103.537 Y95.177
G0 X103.919 Y109.085
G0 X127.282 Y109.085
G0 X127.636 Y90.782
G0 X148.471 Y90.782
G0 X148.544 Y91.533
G0 X148.102 Y91.533
G1 F1500 E50.20498
G1 F2100 X147.718 Y91.15 E50.22302
G0 F1200 X147.153 Y91.15
G1 F2100 X148.102 Y92.099 E50.26766
G0 F1200 X148.102 Y92.664
G1 F2100 X146.587 Y91.15 E50.3389
G0 F1200 X146.222 Y91.351
G1 F2100 X146.021 Y91.15 E50.34835
G1 F1500 E43.84835
G0 F1200 X146.021 Y90.71
G0 X144.603 Y90.81
G0 X144.731 Y91.575
G0 X144.466 Y91.291
G1 F1500 E50.34835
G1 F2100 X144.324 Y91.15 E50.35501
G0 F1200 X144.052 Y91.443
G1 F2100 X143.759 Y91.15 E50.36879
G0 F1200 X143.687 Y91.644
G1 F2100 X143.193 Y91.15 E50.39203
G0 F1200 X142.627 Y91.15
G1 F2100 X143.37 Y91.892 E50.42695
G0 F1200 X143.095 Y92.184
G1 F2100 X142.061 Y91.15 E50.47559
G0 F1200 X141.496 Y91.15
G1 F2100 X142.858 Y92.512 E50.53965
G0 F1200 X142.663 Y92.883
G1 F2100 X140.93 Y91.15 E50.62117
G0 F1200 X140.364 Y91.15
G1 F2100 X142.52 Y93.305 E50.72256
G0 F1200 X142.441 Y93.792
G1 F2100 X139.799 Y91.15 E50.84683
G0 F1200 X139.233 Y91.15
G1 F2100 X142.453 Y94.37 E50.99829
G0 F1200 X142.688 Y95.17
G1 F2100 X138.667 Y91.15 E51.1874
G0 F1200 X138.102 Y91.15
G1 F2100 X143.8 Y96.848 E51.45541
G0 F1200 X144.101 Y96.584
G1 F2100 X144.366 Y96.848 E51.46786
G0 F1200 X144.366 Y97.29
G0 X143.235 Y97.29
G0 X143.235 Y96.848
G1 F2100 X137.536 Y91.15 E51.7359
G0 F1200 X136.97 Y91.15
G1 F2100 X142.669 Y96.848 E52.00394
