;FLAVOR:Marlin
;TIME:3815
;Filament used: 3.93758m
;Layer height: 0.2
;MINX:134.091
;MINY:89.335
;MINZ:0.2
;MAXX:165.048
;MAXY:209.8
;MAXZ:7.8
;Generated with Cura_SteamEngine 4.10.0
M140 S60
M105
M190 S60
M104 S200
M105
M109 S200
M82 ;absolute extrusion mode
; Ender 3 Custom Start G-code
G92 E0 ; Reset Extruder
G28 ; Home all axes
G1 Z2.0 F3000 ; Move Z Axis up little to prevent scratching of Heat Bed
G1 X0.1 Y20 Z0.3 F5000.0 ; Move to start position
G1 X0.1 Y200.0 Z0.3 F1500.0 E15 ; Draw the first line
G1 X0.4 Y200.0 Z0.3 F5000.0 ; Move to side a little
G1 X0.4 Y20 Z0.3 F1500.0 E30 ; Draw the second line
G92 E0 ; Reset Extruder
G1 Z2.0 F3000 ; Move Z Axis up little to prevent scratching of Heat Bed
G1 X5 Y20 Z0.3 F5000.0 ; Move over to prevent blob squish
G92 E0
G92 E0
G1 F1500 E-6.5
;LAYER_COUNT:40
;LAYER:0
M107
;MESH:fullPillar.STL
G0 F1200 X135.353 Y209.4 Z0.2
;TYPE:WALL-INNER
G1 F1500 E0
G1 F2100 X135.352 Y205.799 E0.11977
G1 X135.352 Y205.6 E0.12639
G1 X135.551 Y205.6 E0.13067
G1 X143.352 Y205.6 E0.39013
G1 X143.352 Y94.4 E4.08866
G1 X135.353 Y94.4 E4.35471
G1 X135.352 Y90.799 E4.47448
G1 X135.352 Y90.6 E4.4811
G1 X135.551 Y90.6 E4.48538
G1 X164.647 Y90.6 E5.45312
G1 X164.648 Y209.399 E9.40439
G1 X135.353 Y209.4 E10.37874
G0 F1200 X134.953 Y209.8
;TYPE:WALL-OUTER
G1 F2100 X134.952 Y205.2 E10.53174
G1 X142.952 Y205.2 E10.79782
G1 X142.952 Y94.8 E14.46974
G1 X134.953 Y94.8 E14.73579
G1 X134.952 Y90.2 E14.88878
G1 X165.047 Y90.2 E15.88975
G1 X165.048 Y209.799 E19.86763
G1 X134.953 Y209.8 E20.86859
G0 F1200 X135.223 Y209.53
G0 X135.743 Y209.29
G0 X135.743 Y209.01
;TYPE:SKIN
G1 F2100 X135.742 Y205.99 E20.96904
G1 X143.742 Y205.99 E21.23512
G1 X143.742 Y94.01 E24.95959
G1 X135.743 Y94.01 E25.22563
G1 X135.742 Y90.99 E25.32608
G1 X164.257 Y90.99 E26.27449
G1 X164.258 Y209.009 E30.19982
G1 X135.743 Y209.01 E31.14823
G0 F1200 X136.441 Y208.848
G1 F2100 X135.902 Y208.31 E31.17356
G0 F1200 X135.902 Y207.744
G1 F2100 X137.006 Y208.848 E31.22549
G0 F1200 X137.572 Y208.848
G1 F2100 X135.902 Y207.178 E31.30404
G0 F1200 X135.902 Y206.613
G1 F2100 X138.138 Y208.848 E31.40919
G0 F1200 X138.703 Y208.848
G1 F2100 X136.004 Y206.149 E31.53615
G0 F1200 X136.569 Y206.149
G1 F2100 X139.269 Y208.848 E31.66312
G0 F1200 X139.835 Y208.848
G1 F2100 X137.135 Y206.149 E31.7901
G0 F1200 X137.701 Y206.149
G1 F2100 X140.401 Y208.848 E31.91708
G0 F1200 X140.966 Y208.848
G1 F2100 X138.266 Y206.149 E32.04405
G0 F1200 X138.832 Y206.149
G1 F2100 X141.532 Y208.848 E32.17103
G0 F1200 X142.098 Y208.848
G1 F2100 X139.398 Y206.149 E32.298
G0 F1200 X139.964 Y206.149
G1 F2100 X142.663 Y208.848 E32.42496
G0 F1200 X143.229 Y208.848
G1 F2100 X140.529 Y206.149 E32.55193
G0 F1200 X141.095 Y206.149
G1 F2100 X143.795 Y208.848 E32.67891
G0 F1200 X144.36 Y208.848
G1 F2100 X141.661 Y206.149 E32.80586
G0 F1200 X142.226 Y206.149
G1 F2100 X144.926 Y208.848 E32.93284
G0 F1200 X145.492 Y208.848
G1 F2100 X142.792 Y206.149 E33.05981
G0 F1200 X143.358 Y206.149
G1 F2100 X146.057 Y208.848 E33.18677
G0 F1200 X146.623 Y208.848
G1 F2100 X143.901 Y206.127 E33.31478
G0 F1200 X143.901 Y205.561
G1 F2100 X147.189 Y208.848 E33.46941
G0 F1200 X147.754 Y208.848
G1 F2100 X143.901 Y204.995 E33.65065
G0 F1200 X143.901 Y204.43
G1 F2100 X148.32 Y208.848 E33.85848
G0 F1200 X148.886 Y208.848
G1 F2100 X143.901 Y203.864 E34.09293
G0 F1200 X143.901 Y203.298
G1 F2100 X149.451 Y208.848 E34.35399
G0 F1200 X150.016 Y208.848
G1 F2100 X143.901 Y202.733 E34.64162
G0 F1200 X143.901 Y202.167
G1 F2100 X150.582 Y208.848 E34.95587
G0 F1200 X151.148 Y208.848
G1 F2100 X143.901 Y201.601 E35.29675
G0 F1200 X143.901 Y201.036
G1 F2100 X151.714 Y208.848 E35.66423
G0 F1200 X152.279 Y208.848
G1 F2100 X143.901 Y200.47 E36.0583
G0 F1200 X143.901 Y199.904
G1 F2100 X152.845 Y208.848 E36.479
G0 F1200 X153.411 Y208.848
G1 F2100 X143.901 Y199.339 E36.9263
G0 F1200 X143.901 Y198.773
G1 F2100 X153.976 Y208.848 E37.40019
G0 F1200 X154.542 Y208.848
G1 F2100 X143.901 Y198.207 E37.90071
G0 F1200 X143.901 Y197.642
G1 F2100 X155.108 Y208.848 E38.42783
G0 F1200 X155.673 Y208.848
G1 F2100 X143.901 Y197.076 E38.98155
G0 F1200 X143.901 Y196.51
G1 F2100 X156.239 Y208.848 E39.56189
G0 F1200 X156.805 Y208.848
G1 F2100 X143.901 Y195.944 E40.16886
G0 F1200 X143.901 Y195.379
G1 F2100 X157.37 Y208.848 E40.8024
G0 F1200 X157.936 Y208.848
G1 F2100 X143.901 Y194.813 E41.46256
G0 F1200 X143.901 Y194.247
G1 F2100 X158.502 Y208.848 E42.14935
G0 F1200 X159.067 Y208.848
G1 F2100 X143.901 Y193.682 E42.86271
G0 F1200 X143.901 Y193.116
G1 F2100 X159.633 Y208.848 E43.6027
G0 F1200 X160.199 Y208.848
G1 F2100 X143.901 Y192.55 E44.3693
G0 F1200 X143.901 Y191.985
G1 F2100 X160.764 Y208.848 E45.16249
G0 F1200 X161.33 Y208.848
G1 F2100 X143.901 Y191.419 E45.98229
G0 F1200 X143.901 Y190.853
G1 F2100 X161.896 Y208.848 E46.82872
G0 F1200 X162.462 Y208.848
G1 F2100 X143.901 Y190.288 E47.70175
G0 F1200 X143.901 Y189.722
G1 F2100 X163.027 Y208.848 E48.60138
G0 F1200 X163.593 Y208.848
G1 F2100 X143.901 Y189.156 E49.52763
G0 F1200 X143.901 Y188.591
G1 F2100 X164.098 Y208.787 E50.47761
G0 F1200 X164.098 Y208.221
G1 F2100 X143.901 Y188.025 E51.4276
G0 F1200 X143.901 Y187.459
G1 F2100 X164.098 Y207.656 E52.3776
G0 F1200 X164.098 Y207.09
G1 F2100 X143.901 Y186.893 E53.32761
G0 F1200 X143.901 Y186.328
G1 F2100 X164.098 Y206.524 E54.27759
G0 F1200 X164.098 Y205.958
G1 F2100 X143.901 Y185.762 E55.22757
G0 F1200 X143.901 Y185.196
G1 F2100 X164.098 Y205.393 E56.17757
G0 F1200 X164.098 Y204.827
G1 F2100 X143.901 Y184.631 E57.12755
G0 F1200 X143.901 Y184.065
G1 F2100 X164.098 Y204.261 E58.07754
G0 F1200 X164.098 Y203.696
G1 F2100 X143.901 Y183.499 E59.02754
G0 F1200 X143.901 Y182.934
G1 F2100 X164.098 Y203.13 E59.97752
G0 F1200 X164.098 Y202.564
G1 F2100 X143.901 Y182.368 E60.9275
G0 F1200 X143.901 Y181.802
G1 F2100 X164.098 Y201.999 E61.87751
G0 F1200 X164.098 Y201.433
G1 F2100 X143.901 Y181.237 E62.82749
G0 F1200 X143.901 Y180.671
G1 F2100 X164.098 Y200.867 E63.77747
G0 F1200 X164.098 Y200.302
G1 F2100 X143.901 Y180.105 E64.72748
G0 F1200 X143.901 Y179.54
G1 F2100 X164.098 Y199.736 E65.67746
G0 F1200 X164.098 Y199.17
G1 F2100 X143.901 Y178.974 E66.62744
G0 F1200 X143.901 Y178.408
G1 F2100 X164.098 Y198.605 E67.57744
G0 F1200 X164.098 Y198.039
G1 F2100 X143.901 Y177.843 E68.52743
G0 F1200 X143.901 Y177.277
G1 F2100 X164.098 Y197.473 E69.47741
G0 F1200 X164.098 Y196.908
G1 F2100 X143.901 Y176.711 E70.42741
G0 F1200 X143.901 Y176.145
G1 F2100 X164.098 Y196.342 E71.37742
G0 F1200 X164.098 Y195.776
G1 F2100 X143.901 Y175.58 E72.3274
G0 F1200 X143.901 Y175.014
G1 F2100 X164.098 Y195.21 E73.27738
G0 F1200 X164.098 Y194.645
G1 F2100 X143.901 Y174.448 E74.22739
G0 F1200 X143.901 Y173.883
G1 F2100 X164.098 Y194.079 E75.17737
G0 F1200 X164.098 Y193.513
G1 F2100 X143.901 Y173.317 E76.12735
G0 F1200 X143.901 Y172.751
G1 F2100 X164.098 Y192.948 E77.07735
G0 F1200 X164.098 Y192.382
G1 F2100 X143.901 Y172.186 E78.02733
G0 F1200 X143.901 Y171.62
G1 F2100 X164.098 Y191.816 E78.97732
G0 F1200 X164.098 Y191.251
G1 F2100 X143.901 Y171.054 E79.92732
G0 F1200 X143.901 Y170.489
G1 F2100 X164.098 Y190.685 E80.8773
G0 F1200 X164.098 Y190.119
G1 F2100 X143.901 Y169.923 E81.82728
G0 F1200 X143.901 Y169.357
G1 F2100 X164.098 Y189.554 E82.77729
G0 F1200 X164.098 Y188.988
G1 F2100 X143.901 Y168.792 E83.72727
G0 F1200 X143.901 Y168.226
G1 F2100 X164.098 Y188.422 E84.67725
G0 F1200 X164.098 Y187.857
G1 F2100 X143.901 Y167.66 E85.62726
G0 F1200 X143.901 Y167.094
G1 F2100 X164.098 Y187.291 E86.57726
G0 F1200 X164.098 Y186.725
G1 F2100 X143.901 Y166.529 E87.52724
G0 F1200 X143.901 Y165.963
G1 F2100 X164.098 Y186.16 E88.47725
G0 F1200 X164.098 Y185.594
G1 F2100 X143.901 Y165.397 E89.42725
G0 F1200 X143.901 Y164.832
G1 F2100 X164.098 Y185.028 E90.37723
G0 F1200 X164.098 Y184.462
G1 F2100 X143.901 Y164.266 E91.32722
G0 F1200 X143.901 Y163.7
G1 F2100 X164.098 Y183.897 E92.27722
G0 F1200 X164.098 Y183.331
G1 F2100 X143.901 Y163.135 E93.2272
G0 F1200 X143.901 Y162.569
G1 F2100 X164.098 Y182.765 E94.17718
G0 F1200 X164.098 Y182.2
G1 F2100 X143.901 Y162.003 E95.12719
G0 F1200 X143.901 Y161.438
G1 F2100 X164.098 Y181.634 E96.07717
G0 F1200 X164.098 Y181.068
G1 F2100 X143.901 Y160.872 E97.02715
G0 F1200 X143.901 Y160.306
G1 F2100 X164.098 Y180.503 E97.97716
G0 F1200 X164.098 Y179.937
G1 F2100 X143.901 Y159.741 E98.92714
G0 F1200 X143.901 Y159.175
G1 F2100 X164.098 Y179.371 E99.87712
G0 F1200 X164.098 Y178.806
G1 F2100 X143.901 Y158.609 E100.82712
G0 F1200 X143.901 Y158.044
G1 F2100 X164.098 Y178.24 E101.77711
G0 F1200 X164.098 Y177.674
G1 F2100 X143.901 Y157.478 E102.72709
G0 F1200 X143.901 Y156.912
G1 F2100 X164.098 Y177.109 E103.67709
G0 F1200 X164.098 Y176.543
G1 F2100 X143.901 Y156.346 E104.6271
G0 F1200 X143.901 Y155.781
G1 F2100 X164.098 Y175.977 E105.57708
G0 F1200 X164.098 Y175.411
G1 F2100 X143.901 Y155.215 E106.52706
G0 F1200 X143.901 Y154.649
G1 F2100 X164.098 Y174.846 E107.47707
G0 F1200 X164.098 Y174.28
G1 F2100 X143.901 Y154.084 E108.42705
G0 F1200 X143.901 Y153.518
G1 F2100 X164.098 Y173.714 E109.37703
G0 F1200 X164.098 Y173.149
G1 F2100 X143.901 Y152.952 E110.32703
G0 F1200 X143.901 Y152.387
G1 F2100 X164.098 Y172.583 E111.27701
G0 F1200 X164.098 Y172.017
G1 F2100 X143.901 Y151.821 E112.227
G0 F1200 X143.901 Y151.255
G1 F2100 X164.098 Y171.452 E113.177
G0 F1200 X164.098 Y170.886
G1 F2100 X143.901 Y150.69 E114.12698
G0 F1200 X143.901 Y150.124
G1 F2100 X164.098 Y170.32 E115.07696
G0 F1200 X164.098 Y169.755
G1 F2100 X143.901 Y149.558 E116.02697
G0 F1200 X143.901 Y148.993
G1 F2100 X164.097 Y169.188 E116.9769
G0 F1200 X164.097 Y168.623
G1 F2100 X143.901 Y148.427 E117.92686
G0 F1200 X143.901 Y147.861
G1 F2100 X164.097 Y168.057 E118.87682
G0 F1200 X164.097 Y167.491
G1 F2100 X143.901 Y147.295 E119.82678
G0 F1200 X143.901 Y146.73
G1 F2100 X164.097 Y166.925 E120.77671
G0 F1200 X164.097 Y166.36
G1 F2100 X143.901 Y146.164 E121.72667
G0 F1200 X143.901 Y145.598
G1 F2100 X164.097 Y165.794 E122.67663
G0 F1200 X164.097 Y165.228
G1 F2100 X143.901 Y145.033 E123.62656
G0 F1200 X143.901 Y144.467
G1 F2100 X164.097 Y164.663 E124.57652
G0 F1200 X164.097 Y164.097
G1 F2100 X143.901 Y143.901 E125.52648
G0 F1200 X143.901 Y143.336
G1 F2100 X164.097 Y163.531 E126.47641
G0 F1200 X164.097 Y162.966
G1 F2100 X143.901 Y142.77 E127.42637
G0 F1200 X143.901 Y142.204
G1 F2100 X164.097 Y162.4 E128.37633
G0 F1200 X164.097 Y161.834
G1 F2100 X143.901 Y141.639 E129.32626
G0 F1200 X143.901 Y141.073
G1 F2100 X164.097 Y161.269 E130.27622
G0 F1200 X164.097 Y160.703
G1 F2100 X143.901 Y140.507 E131.22618
G0 F1200 X143.901 Y139.942
G1 F2100 X164.097 Y160.137 E132.17611
G0 F1200 X164.097 Y159.572
G1 F2100 X143.901 Y139.376 E133.12607
G0 F1200 X143.901 Y138.81
G1 F2100 X164.097 Y159.006 E134.07603
G0 F1200 X164.097 Y158.44
G1 F2100 X143.901 Y138.245 E135.02596
G0 F1200 X143.901 Y137.679
G1 F2100 X164.097 Y157.875 E135.97592
G0 F1200 X164.097 Y157.309
G1 F2100 X143.901 Y137.113 E136.92588
G0 F1200 X143.901 Y136.547
G1 F2100 X164.097 Y156.743 E137.87584
G0 F1200 X164.097 Y156.177
G1 F2100 X143.901 Y135.982 E138.82577
G0 F1200 X143.901 Y135.416
G1 F2100 X164.097 Y155.612 E139.77573
G0 F1200 X164.097 Y155.046
G1 F2100 X143.901 Y134.85 E140.72569
G0 F1200 X143.901 Y134.285
G1 F2100 X164.097 Y154.48 E141.67562
G0 F1200 X164.097 Y153.915
G1 F2100 X143.901 Y133.719 E142.62558
G0 F1200 X143.901 Y133.153
G1 F2100 X164.097 Y153.349 E143.57554
G0 F1200 X164.097 Y152.783
G1 F2100 X143.901 Y132.588 E144.52547
G0 F1200 X143.901 Y132.022
G1 F2100 X164.097 Y152.218 E145.47543
G0 F1200 X164.097 Y151.652
G1 F2100 X143.901 Y131.456 E146.42539
G0 F1200 X143.901 Y130.891
G1 F2100 X164.097 Y151.086 E147.37532
G0 F1200 X164.097 Y150.521
G1 F2100 X143.901 Y130.325 E148.32528
G0 F1200 X143.901 Y129.759
G1 F2100 X164.097 Y149.955 E149.27524
G0 F1200 X164.097 Y149.389
G1 F2100 X143.901 Y129.194 E150.22517
G0 F1200 X143.901 Y128.628
G1 F2100 X164.097 Y148.824 E151.17513
G0 F1200 X164.097 Y148.258
G1 F2100 X143.901 Y128.062 E152.12509
G0 F1200 X143.901 Y127.497
G1 F2100 X164.097 Y147.692 E153.07502
G0 F1200 X164.097 Y147.127
G1 F2100 X143.901 Y126.931 E154.02498
G0 F1200 X143.901 Y126.365
G1 F2100 X164.097 Y146.561 E154.97494
G0 F1200 X164.097 Y145.995
G1 F2100 X143.901 Y125.799 E155.9249
G0 F1200 X143.901 Y125.234
G1 F2100 X164.097 Y145.429 E156.87483
G0 F1200 X164.097 Y144.864
G1 F2100 X143.901 Y124.668 E157.82479
G0 F1200 X143.901 Y124.102
G1 F2100 X164.097 Y144.298 E158.77475
G0 F1200 X164.097 Y143.732
G1 F2100 X143.901 Y123.537 E159.72468
G0 F1200 X143.901 Y122.971
G1 F2100 X164.097 Y143.167 E160.67464
G0 F1200 X164.097 Y142.601
G1 F2100 X143.901 Y122.405 E161.6246
G0 F1200 X143.901 Y121.84
G1 F2100 X164.097 Y142.035 E162.57453
G0 F1200 X164.097 Y141.47
G1 F2100 X143.901 Y121.274 E163.52449
G0 F1200 X143.901 Y120.708
G1 F2100 X164.097 Y140.904 E164.47445
G0 F1200 X164.097 Y140.338
G1 F2100 X143.901 Y120.143 E165.42438
G0 F1200 X143.901 Y119.577
G1 F2100 X164.097 Y139.773 E166.37434
G0 F1200 X164.097 Y139.207
G1 F2100 X143.901 Y119.011 E167.3243
G0 F1200 X143.901 Y118.446
G1 F2100 X164.097 Y138.641 E168.27423
G0 F1200 X164.097 Y138.076
G1 F2100 X143.901 Y117.88 E169.22419
G0 F1200 X143.901 Y117.314
G1 F2100 X164.097 Y137.51 E170.17415
G0 F1200 X164.097 Y136.944
G1 F2100 X143.901 Y116.748 E171.1241
G0 F1200 X143.901 Y116.183
G1 F2100 X164.097 Y136.378 E172.07404
G0 F1200 X164.097 Y135.813
G1 F2100 X143.901 Y115.617 E173.024
G0 F1200 X143.901 Y115.051
G1 F2100 X164.097 Y135.247 E173.97395
G0 F1200 X164.097 Y134.681
G1 F2100 X143.901 Y114.486 E174.92389
G0 F1200 X143.901 Y113.92
G1 F2100 X164.097 Y134.116 E175.87385
G0 F1200 X164.097 Y133.55
G1 F2100 X143.901 Y113.354 E176.82381
G0 F1200 X143.901 Y112.789
G1 F2100 X164.097 Y132.984 E177.77374
G0 F1200 X164.097 Y132.419
G1 F2100 X143.901 Y112.223 E178.7237
G0 F1200 X143.901 Y111.657
G1 F2100 X164.097 Y131.853 E179.67366
G0 F1200 X164.097 Y131.287
G1 F2100 X143.901 Y111.092 E180.62359
G0 F1200 X143.901 Y110.526
G1 F2100 X164.097 Y130.722 E181.57355
G0 F1200 X164.096 Y130.155
G1 F2100 X143.901 Y109.96 E182.52346
G0 F1200 X143.901 Y109.395
G1 F2100 X164.096 Y129.59 E183.47337
G0 F1200 X164.096 Y129.024
G1 F2100 X143.901 Y108.829 E184.42328
G0 F1200 X143.901 Y108.263
G1 F2100 X164.096 Y128.458 E185.37319
G0 F1200 X164.096 Y127.892
G1 F2100 X143.901 Y107.698 E186.32308
G0 F1200 X143.901 Y107.132
G1 F2100 X164.096 Y127.327 E187.27299
G0 F1200 X164.096 Y126.761
G1 F2100 X143.901 Y106.566 E188.2229
G0 F1200 X143.901 Y106
G1 F2100 X164.096 Y126.195 E189.17281
G0 F1200 X164.096 Y125.63
G1 F2100 X143.901 Y105.435 E190.12272
G0 F1200 X143.901 Y104.869
G1 F2100 X164.096 Y125.064 E191.07263
G0 F1200 X164.096 Y124.498
G1 F2100 X143.901 Y104.303 E192.02254
G0 F1200 X143.901 Y103.738
G1 F2100 X164.096 Y123.933 E192.97245
G0 F1200 X164.096 Y123.367
G1 F2100 X143.901 Y103.172 E193.92237
G0 F1200 X143.901 Y102.606
G1 F2100 X164.096 Y122.801 E194.87228
G0 F1200 X164.096 Y122.236
G1 F2100 X143.901 Y102.041 E195.82219
G0 F1200 X143.901 Y101.475
G1 F2100 X164.096 Y121.67 E196.7721
G0 F1200 X164.096 Y121.104
G1 F2100 X143.901 Y100.909 E197.72201
G0 F1200 X143.901 Y100.344
G1 F2100 X164.096 Y120.539 E198.67192
G0 F1200 X164.096 Y119.973
G1 F2100 X143.901 Y99.778 E199.62183
G0 F1200 X143.901 Y99.212
G1 F2100 X164.096 Y119.407 E200.57174
G0 F1200 X164.096 Y118.842
G1 F2100 X143.901 Y98.647 E201.52165
G0 F1200 X143.901 Y98.081
G1 F2100 X164.096 Y118.276 E202.47156
G0 F1200 X164.096 Y117.71
G1 F2100 X143.901 Y97.515 E203.42147
G0 F1200 X143.901 Y96.949
G1 F2100 X164.096 Y117.144 E204.37139
G0 F1200 X164.096 Y116.579
G1 F2100 X143.901 Y96.384 E205.3213
G0 F1200 X143.901 Y95.818
G1 F2100 X164.096 Y116.013 E206.27121
G0 F1200 X164.096 Y115.447
G1 F2100 X143.901 Y95.252 E207.22112
G0 F1200 X143.901 Y94.687
G1 F2100 X164.096 Y114.882 E208.17103
G0 F1200 X164.096 Y114.316
G1 F2100 X143.901 Y94.121 E209.12094
G0 F1200 X143.63 Y93.85
G1 F2100 X140.93 Y91.15 E209.24794
G0 F1200 X141.496 Y91.15
G1 F2100 X164.096 Y113.75 E210.31097
G0 F1200 X164.096 Y113.185
G1 F2100 X142.061 Y91.15 E211.34743
G0 F1200 X142.627 Y91.15
