;FLAVOR:Marlin
;TIME:11770
;Filament used: 11.8128m
;Layer height: 0.2
;MINX:102.091
;MINY:89.335
;MINZ:0.2
;MAXX:197.048
;MAXY:210.661
;MAXZ:7.8
;Generated with Cura_SteamEngine 4.10.0
M140 S60
M105
M190 S60
M104 S200
M105
M109 S200
M82 ;absolute extrusion mode
; Ender 3 Custom Start G-code
G92 E0 ; Reset Extruder
G28 ; Home all axes
G1 Z2.0 F3000 ; Move Z Axis up little to prevent scratching of Heat Bed
G1 X0.1 Y20 Z0.3 F5000.0 ; Move to start position
G1 X0.1 Y200.0 Z0.3 F1500.0 E15 ; Draw the first line
G1 X0.4 Y200.0 Z0.3 F5000.0 ; Move to side a little
G1 X0.4 Y20 Z0.3 F1500.0 E30 ; Draw the second line
G92 E0 ; Reset Extruder
G1 Z2.0 F3000 ; Move Z Axis up little to prevent scratching of Heat Bed
G1 X5 Y20 Z0.3 F5000.0 ; Move over to prevent blob squish
G92 E0
G92 E0
G1 F1500 E-6.5
;LAYER_COUNT:40
;LAYER:0
M107
;MESH:fullPillar.STL(2)
G0 F1200 X132.648 Y209.399 Z0.2
;TYPE:WALL-INNER
G1 F1500 E0
G1 F2100 X103.353 Y209.4 E0.97436
G1 X103.352 Y205.799 E1.09413
G1 X103.352 Y205.6 E1.10074
G1 X103.551 Y205.6 E1.10503
G1 X111.352 Y205.6 E1.36449
G1 X111.352 Y94.4 E5.06302
G1 X103.353 Y94.4 E5.32906
G1 X103.352 Y90.799 E5.44883
G1 X103.352 Y90.6 E5.45545
G1 X103.551 Y90.6 E5.45973
G1 X132.647 Y90.6 E6.42747
G1 X132.648 Y209.399 E10.37874
G0 F1200 X133.048 Y209.799
;TYPE:WALL-OUTER
G1 F2100 X102.953 Y209.8 E11.37971
G1 X102.952 Y205.2 E11.5327
G1 X110.952 Y205.2 E11.79878
G1 X110.952 Y94.8 E15.4707
G1 X102.953 Y94.8 E15.73675
G1 X102.952 Y90.2 E15.88975
G1 X133.047 Y90.2 E16.89071
G1 X133.048 Y209.799 E20.86859
G0 F1200 X132.778 Y209.529
G0 X132.538 Y209.009
G0 X132.258 Y209.009
;TYPE:SKIN
G1 F2100 X103.743 Y209.01 E21.817
G1 X103.742 Y205.99 E21.91745
G1 X111.742 Y205.99 E22.18353
G1 X111.742 Y94.01 E25.908
G1 X103.743 Y94.01 E26.17405
G1 X103.742 Y90.99 E26.27449
G1 X132.257 Y90.99 E27.22291
G1 X132.258 Y209.009 E31.14823
G0 F1200 X132.538 Y209.009
G0 X104.196 Y209.29
G0 X104.196 Y208.848
G1 F2100 X103.902 Y208.554 E31.16206
G0 F1200 X103.902 Y207.988
G1 F2100 X104.762 Y208.848 E31.20251
G0 F1200 X105.327 Y208.848
G1 F2100 X103.901 Y207.421 E31.26961
G0 F1200 X103.901 Y206.856
G1 F2100 X105.893 Y208.848 E31.36331
G0 F1200 X106.459 Y208.848
G1 F2100 X103.901 Y206.29 E31.48363
G0 F1200 X104.325 Y206.149
G1 F2100 X107.024 Y208.848 E31.61058
G0 F1200 X107.59 Y208.848
G1 F2100 X104.891 Y206.149 E31.73754
G0 F1200 X105.457 Y206.149
G1 F2100 X108.156 Y208.848 E31.86449
G0 F1200 X108.721 Y208.848
G1 F2100 X106.022 Y206.149 E31.99144
G0 F1200 X106.588 Y206.149
G1 F2100 X109.287 Y208.848 E32.11839
G0 F1200 X109.853 Y208.848
G1 F2100 X107.154 Y206.149 E32.24535
G0 F1200 X107.719 Y206.149
G1 F2100 X110.418 Y208.848 E32.3723
G0 F1200 X110.984 Y208.848
G1 F2100 X108.285 Y206.149 E32.49925
G0 F1200 X108.851 Y206.149
G1 F2100 X111.55 Y208.848 E32.6262
G0 F1200 X112.116 Y208.848
G1 F2100 X109.416 Y206.149 E32.75318
G0 F1200 X109.982 Y206.149
G1 F2100 X112.681 Y208.848 E32.88013
G0 F1200 X113.247 Y208.848
G1 F2100 X110.548 Y206.149 E33.00709
G0 F1200 X111.114 Y206.149
G1 F2100 X113.813 Y208.848 E33.13404
G0 F1200 X114.378 Y208.848
G1 F2100 X111.679 Y206.149 E33.26099
G0 F1200 X111.901 Y205.804
G1 F2100 X114.944 Y208.848 E33.40415
G0 F1200 X115.51 Y208.848
G1 F2100 X111.901 Y205.239 E33.5739
G0 F1200 X111.901 Y204.673
G1 F2100 X116.075 Y208.848 E33.77026
G0 F1200 X116.641 Y208.848
G1 F2100 X111.901 Y204.107 E33.99324
G0 F1200 X111.901 Y203.542
G1 F2100 X117.207 Y208.848 E34.24282
G0 F1200 X117.772 Y208.848
G1 F2100 X111.901 Y202.976 E34.51899
G0 F1200 X111.901 Y202.41
G1 F2100 X118.338 Y208.848 E34.82179
G0 F1200 X118.904 Y208.848
G1 F2100 X111.901 Y201.845 E35.15119
G0 F1200 X111.901 Y201.279
G1 F2100 X119.469 Y208.848 E35.50719
G0 F1200 X120.035 Y208.848
G1 F2100 X111.901 Y200.713 E35.88981
G0 F1200 X111.901 Y200.147
G1 F2100 X120.601 Y208.848 E36.29906
G0 F1200 X121.166 Y208.848
G1 F2100 X111.901 Y199.582 E36.73488
G0 F1200 X111.901 Y199.016
G1 F2100 X121.732 Y208.848 E37.19732
G0 F1200 X122.298 Y208.848
G1 F2100 X111.901 Y198.45 E37.68639
G0 F1200 X111.901 Y197.885
G1 F2100 X122.864 Y208.848 E38.20206
G0 F1200 X123.429 Y208.848
G1 F2100 X111.901 Y197.319 E38.74432
G0 F1200 X111.901 Y196.753
G1 F2100 X123.995 Y208.848 E39.31321
G0 F1200 X124.561 Y208.848
G1 F2100 X111.901 Y196.188 E39.9087
G0 F1200 X111.901 Y195.622
G1 F2100 X125.126 Y208.848 E40.53078
G0 F1200 X125.692 Y208.848
G1 F2100 X111.901 Y195.056 E41.17949
G0 F1200 X111.901 Y194.491
G1 F2100 X126.258 Y208.848 E41.8548
G0 F1200 X126.823 Y208.848
G1 F2100 X111.901 Y193.925 E42.55671
G0 F1200 X111.901 Y193.359
G1 F2100 X127.389 Y208.848 E43.28524
G0 F1200 X127.955 Y208.848
G1 F2100 X111.901 Y192.794 E44.04037
G0 F1200 X111.901 Y192.228
G1 F2100 X128.52 Y208.848 E44.8221
G0 F1200 X129.086 Y208.848
G1 F2100 X111.901 Y191.662 E45.63046
G0 F1200 X111.901 Y191.097
G1 F2100 X129.652 Y208.848 E46.46541
G0 F1200 X130.217 Y208.848
G1 F2100 X111.901 Y190.531 E47.32696
G0 F1200 X111.901 Y189.965
G1 F2100 X130.783 Y208.848 E48.21514
G0 F1200 X131.349 Y208.848
G1 F2100 X111.901 Y189.399 E49.12994
G0 F1200 X111.901 Y188.834
G1 F2100 X131.915 Y208.848 E50.07133
G0 F1200 X132.097 Y208.464
G1 F2100 X111.901 Y188.268 E51.02129
G0 F1200 X111.901 Y187.702
G1 F2100 X132.097 Y207.899 E51.97127
G0 F1200 X132.097 Y207.333
G1 F2100 X111.901 Y187.137 E52.92123
G0 F1200 X111.901 Y186.571
G1 F2100 X132.097 Y206.767 E53.87119
G0 F1200 X132.097 Y206.202
G1 F2100 X111.901 Y186.005 E54.82117
G0 F1200 X111.901 Y185.44
G1 F2100 X132.097 Y205.636 E55.77113
G0 F1200 X132.097 Y205.07
G1 F2100 X111.901 Y184.874 E56.72109
G0 F1200 X111.901 Y184.308
G1 F2100 X132.097 Y204.505 E57.67107
G0 F1200 X132.097 Y203.939
G1 F2100 X111.901 Y183.743 E58.62102
G0 F1200 X111.901 Y183.177
G1 F2100 X132.097 Y203.373 E59.57098
G0 F1200 X132.097 Y202.808
G1 F2100 X111.901 Y182.611 E60.52096
G0 F1200 X111.901 Y182.046
G1 F2100 X132.097 Y202.242 E61.47092
G0 F1200 X132.097 Y201.676
G1 F2100 X111.901 Y181.48 E62.42088
G0 F1200 X111.901 Y180.914
G1 F2100 X132.097 Y201.111 E63.37086
G0 F1200 X132.097 Y200.545
G1 F2100 X111.901 Y180.348 E64.32084
G0 F1200 X111.901 Y179.783
G1 F2100 X132.097 Y199.979 E65.2708
G0 F1200 X132.097 Y199.414
G1 F2100 X111.901 Y179.217 E66.22078
G0 F1200 X111.901 Y178.651
G1 F2100 X132.097 Y198.848 E67.17076
G0 F1200 X132.097 Y198.282
G1 F2100 X111.901 Y178.086 E68.12072
G0 F1200 X111.901 Y177.52
G1 F2100 X132.097 Y197.716 E69.07068
G0 F1200 X132.097 Y197.151
G1 F2100 X111.901 Y176.954 E70.02066
G0 F1200 X111.901 Y176.389
G1 F2100 X132.097 Y196.585 E70.97062
G0 F1200 X132.097 Y196.019
G1 F2100 X111.901 Y175.823 E71.92058
G0 F1200 X111.901 Y175.257
G1 F2100 X132.097 Y195.454 E72.87056
G0 F1200 X132.097 Y194.888
G1 F2100 X111.901 Y174.692 E73.82052
G0 F1200 X111.901 Y174.126
G1 F2100 X132.097 Y194.322 E74.77047
G0 F1200 X132.097 Y193.757
G1 F2100 X111.901 Y173.56 E75.72046
G0 F1200 X111.901 Y172.995
G1 F2100 X132.097 Y193.191 E76.67041
G0 F1200 X132.097 Y192.625
G1 F2100 X111.901 Y172.429 E77.62037
G0 F1200 X111.901 Y171.863
G1 F2100 X132.097 Y192.06 E78.57035
G0 F1200 X132.097 Y191.494
G1 F2100 X111.901 Y171.298 E79.52031
G0 F1200 X111.901 Y170.732
G1 F2100 X132.097 Y190.928 E80.47027
G0 F1200 X132.097 Y190.363
G1 F2100 X111.901 Y170.166 E81.42025
G0 F1200 X111.901 Y169.6
G1 F2100 X132.097 Y189.797 E82.37023
G0 F1200 X132.097 Y189.231
G1 F2100 X111.901 Y169.035 E83.32019
G0 F1200 X111.901 Y168.469
G1 F2100 X132.097 Y188.665 E84.27015
G0 F1200 X132.097 Y188.1
G1 F2100 X111.901 Y167.903 E85.22013
G0 F1200 X111.901 Y167.338
G1 F2100 X132.097 Y187.534 E86.17009
G0 F1200 X132.097 Y186.968
G1 F2100 X111.901 Y166.772 E87.12004
G0 F1200 X111.901 Y166.206
G1 F2100 X132.097 Y186.403 E88.07003
G0 F1200 X132.097 Y185.837
G1 F2100 X111.901 Y165.641 E89.01998
G0 F1200 X111.901 Y165.075
G1 F2100 X132.097 Y185.271 E89.96994
G0 F1200 X132.097 Y184.706
G1 F2100 X111.901 Y164.509 E90.91992
G0 F1200 X111.901 Y163.944
G1 F2100 X132.097 Y184.14 E91.86988
G0 F1200 X132.097 Y183.574
G1 F2100 X111.901 Y163.378 E92.81984
G0 F1200 X111.901 Y162.812
G1 F2100 X132.097 Y183.009 E93.76982
G0 F1200 X132.097 Y182.443
G1 F2100 X111.901 Y162.247 E94.71978
G0 F1200 X111.901 Y161.681
G1 F2100 X132.097 Y181.877 E95.66974
G0 F1200 X132.097 Y181.312
G1 F2100 X111.901 Y161.115 E96.61972
G0 F1200 X111.901 Y160.55
G1 F2100 X132.097 Y180.746 E97.56968
G0 F1200 X132.097 Y180.18
G1 F2100 X111.901 Y159.984 E98.51963
G0 F1200 X111.901 Y159.418
G1 F2100 X132.097 Y179.615 E99.46961
G0 F1200 X132.097 Y179.049
G1 F2100 X111.901 Y158.852 E100.4196
G0 F1200 X111.901 Y158.287
G1 F2100 X132.097 Y178.483 E101.36955
G0 F1200 X132.097 Y177.917
G1 F2100 X111.901 Y157.721 E102.31951
G0 F1200 X111.901 Y157.155
G1 F2100 X132.097 Y177.352 E103.26949
G0 F1200 X132.097 Y176.786
G1 F2100 X111.901 Y156.59 E104.21945
G0 F1200 X111.901 Y156.024
G1 F2100 X132.097 Y176.22 E105.16941
G0 F1200 X132.097 Y175.655
G1 F2100 X111.901 Y155.458 E106.11939
G0 F1200 X111.901 Y154.893
G1 F2100 X132.097 Y175.089 E107.06935
G0 F1200 X132.097 Y174.523
G1 F2100 X111.901 Y154.327 E108.01931
G0 F1200 X111.901 Y153.761
G1 F2100 X132.097 Y173.958 E108.96929
G0 F1200 X132.097 Y173.392
G1 F2100 X111.901 Y153.196 E109.91925
G0 F1200 X111.901 Y152.63
G1 F2100 X132.097 Y172.826 E110.8692
G0 F1200 X132.097 Y172.261
G1 F2100 X111.901 Y152.064 E111.81919
G0 F1200 X111.901 Y151.499
G1 F2100 X132.097 Y171.695 E112.76914
G0 F1200 X132.097 Y171.129
G1 F2100 X111.901 Y150.933 E113.7191
G0 F1200 X111.901 Y150.367
G1 F2100 X132.097 Y170.564 E114.66908
G0 F1200 X132.097 Y169.998
G1 F2100 X111.901 Y149.801 E115.61906
G0 F1200 X111.901 Y149.236
G1 F2100 X132.097 Y169.432 E116.56902
G0 F1200 X132.097 Y168.866
G1 F2100 X111.901 Y148.67 E117.51898
G0 F1200 X111.901 Y148.104
G1 F2100 X132.097 Y168.301 E118.46896
G0 F1200 X132.097 Y167.735
G1 F2100 X111.901 Y147.539 E119.41892
G0 F1200 X111.901 Y146.973
G1 F2100 X132.097 Y167.169 E120.36888
G0 F1200 X132.097 Y166.604
G1 F2100 X111.901 Y146.407 E121.31886
G0 F1200 X111.901 Y145.842
G1 F2100 X132.097 Y166.038 E122.26882
G0 F1200 X132.097 Y165.472
G1 F2100 X111.901 Y145.276 E123.21877
G0 F1200 X111.901 Y144.71
G1 F2100 X132.097 Y164.907 E124.16876
G0 F1200 X132.097 Y164.341
G1 F2100 X111.901 Y144.145 E125.11871
G0 F1200 X111.901 Y143.579
G1 F2100 X132.097 Y163.775 E126.06867
G0 F1200 X132.097 Y163.21
G1 F2100 X111.901 Y143.013 E127.01865
G0 F1200 X111.901 Y142.448
G1 F2100 X132.097 Y162.644 E127.96861
G0 F1200 X132.097 Y162.078
G1 F2100 X111.901 Y141.882 E128.91857
G0 F1200 X111.901 Y141.316
G1 F2100 X132.097 Y161.513 E129.86855
G0 F1200 X132.097 Y160.947
G1 F2100 X111.901 Y140.751 E130.81851
G0 F1200 X111.901 Y140.185
G1 F2100 X132.097 Y160.381 E131.76847
G0 F1200 X132.097 Y159.816
G1 F2100 X111.901 Y139.619 E132.71845
G0 F1200 X111.901 Y139.053
G1 F2100 X132.097 Y159.25 E133.66843
G0 F1200 X132.097 Y158.684
G1 F2100 X111.901 Y138.488 E134.61839
G0 F1200 X111.901 Y137.922
G1 F2100 X132.097 Y158.118 E135.56835
G0 F1200 X132.097 Y157.553
G1 F2100 X111.901 Y137.356 E136.51833
G0 F1200 X111.901 Y136.791
G1 F2100 X132.097 Y156.987 E137.46828
G0 F1200 X132.097 Y156.421
G1 F2100 X111.901 Y136.225 E138.41824
G0 F1200 X111.901 Y135.659
G1 F2100 X132.097 Y155.856 E139.36822
G0 F1200 X132.097 Y155.29
G1 F2100 X111.901 Y135.094 E140.31818
G0 F1200 X111.901 Y134.528
G1 F2100 X132.097 Y154.724 E141.26814
G0 F1200 X132.097 Y154.159
G1 F2100 X111.901 Y133.962 E142.21812
G0 F1200 X111.901 Y133.397
G1 F2100 X132.097 Y153.593 E143.16808
G0 F1200 X132.097 Y153.027
G1 F2100 X111.901 Y132.831 E144.11804
G0 F1200 X111.901 Y132.265
G1 F2100 X132.097 Y152.462 E145.06802
G0 F1200 X132.097 Y151.896
G1 F2100 X111.901 Y131.7 E146.01798
G0 F1200 X111.901 Y131.134
G1 F2100 X132.097 Y151.33 E146.96793
G0 F1200 X132.097 Y150.765
G1 F2100 X111.901 Y130.568 E147.91792
G0 F1200 X111.901 Y130.002
G1 F2100 X132.097 Y150.199 E148.8679
G0 F1200 X132.096 Y149.632
G1 F2100 X111.901 Y129.437 E149.81781
G0 F1200 X111.901 Y128.871
G1 F2100 X132.096 Y149.067 E150.76774
G0 F1200 X132.096 Y148.501
G1 F2100 X111.901 Y128.305 E151.71768
G0 F1200 X111.901 Y127.74
G1 F2100 X132.096 Y147.935 E152.66759
G0 F1200 X132.096 Y147.37
G1 F2100 X111.901 Y127.174 E153.61752
G0 F1200 X111.901 Y126.608
G1 F2100 X132.096 Y146.804 E154.56746
G0 F1200 X132.096 Y146.238
G1 F2100 X111.901 Y126.043 E155.51737
G0 F1200 X111.901 Y125.477
G1 F2100 X132.096 Y145.673 E156.4673
G0 F1200 X132.096 Y145.107
G1 F2100 X111.901 Y124.911 E157.41724
G0 F1200 X111.901 Y124.346
G1 F2100 X132.096 Y144.541 E158.36715
G0 F1200 X132.096 Y143.976
G1 F2100 X111.901 Y123.78 E159.31708
G0 F1200 X111.901 Y123.214
G1 F2100 X132.096 Y143.41 E160.26702
G0 F1200 X132.096 Y142.844
G1 F2100 X111.901 Y122.649 E161.21693
G0 F1200 X111.901 Y122.083
G1 F2100 X132.096 Y142.279 E162.16686
G0 F1200 X132.096 Y141.713
G1 F2100 X111.901 Y121.517 E163.1168
G0 F1200 X111.901 Y120.952
G1 F2100 X132.096 Y141.147 E164.06671
G0 F1200 X132.096 Y140.582
G1 F2100 X111.901 Y120.386 E165.01664
G0 F1200 X111.901 Y119.82
G1 F2100 X132.096 Y140.016 E165.96658
G0 F1200 X132.096 Y139.45
G1 F2100 X111.901 Y119.254 E166.91651
G0 F1200 X111.901 Y118.689
G1 F2100 X132.096 Y138.884 E167.86642
G0 F1200 X132.096 Y138.319
G1 F2100 X111.901 Y118.123 E168.81636
G0 F1200 X111.901 Y117.557
G1 F2100 X132.096 Y137.753 E169.76629
G0 F1200 X132.096 Y137.187
G1 F2100 X111.901 Y116.992 E170.7162
G0 F1200 X111.901 Y116.426
G1 F2100 X132.096 Y136.622 E171.66613
G0 F1200 X132.096 Y136.056
G1 F2100 X111.901 Y115.86 E172.61607
G0 F1200 X111.901 Y115.295
G1 F2100 X132.096 Y135.49 E173.56598
G0 F1200 X132.096 Y134.925
G1 F2100 X111.901 Y114.729 E174.51591
G0 F1200 X111.901 Y114.163
G1 F2100 X132.096 Y134.359 E175.46585
G0 F1200 X132.096 Y133.793
G1 F2100 X111.901 Y113.598 E176.41576
G0 F1200 X111.901 Y113.032
G1 F2100 X132.096 Y133.228 E177.36569
G0 F1200 X132.096 Y132.662
G1 F2100 X111.901 Y112.466 E178.31563
G0 F1200 X111.901 Y111.901
G1 F2100 X132.096 Y132.096 E179.26554
G0 F1200 X132.096 Y131.531
G1 F2100 X111.901 Y111.335 E180.21547
G0 F1200 X111.901 Y110.769
G1 F2100 X132.096 Y130.965 E181.16541
G0 F1200 X132.096 Y130.399
G1 F2100 X111.901 Y110.204 E182.11532
G0 F1200 X111.901 Y109.638
G1 F2100 X132.096 Y129.833 E183.06523
G0 F1200 X132.096 Y129.268
G1 F2100 X111.901 Y109.072 E184.01516
G0 F1200 X111.901 Y108.506
G1 F2100 X132.096 Y128.702 E184.9651
G0 F1200 X132.096 Y128.136
G1 F2100 X111.901 Y107.941 E185.91501
G0 F1200 X111.901 Y107.375
G1 F2100 X132.096 Y127.571 E186.86494
G0 F1200 X132.096 Y127.005
G1 F2100 X111.901 Y106.809 E187.81488
G0 F1200 X111.901 Y106.244
G1 F2100 X132.096 Y126.439 E188.76479
G0 F1200 X132.096 Y125.874
G1 F2100 X111.901 Y105.678 E189.71472
G0 F1200 X111.901 Y105.112
G1 F2100 X132.096 Y125.308 E190.66466
G0 F1200 X132.096 Y124.742
G1 F2100 X111.901 Y104.547 E191.61457
G0 F1200 X111.901 Y103.981
G1 F2100 X132.096 Y124.177 E192.5645
G0 F1200 X132.096 Y123.611
G1 F2100 X111.901 Y103.415 E193.51444
G0 F1200 X111.901 Y102.85
G1 F2100 X132.096 Y123.045 E194.46435
G0 F1200 X132.096 Y122.48
G1 F2100 X111.901 Y102.284 E195.41428
G0 F1200 X111.901 Y101.718
G1 F2100 X132.096 Y121.914 E196.36422
G0 F1200 X132.096 Y121.348
G1 F2100 X111.901 Y101.153 E197.31413
G0 F1200 X111.901 Y100.587
G1 F2100 X132.096 Y120.783 E198.26406
G0 F1200 X132.096 Y120.217
G1 F2100 X111.901 Y100.021 E199.214
G0 F1200 X111.901 Y99.455
G1 F2100 X132.096 Y119.651 E200.16393
G0 F1200 X132.096 Y119.085
G1 F2100 X111.901 Y98.89 E201.11384
G0 F1200 X111.901 Y98.324
G1 F2100 X132.096 Y118.52 E202.06378
G0 F1200 X132.096 Y117.954
G1 F2100 X111.901 Y97.758 E203.01371
G0 F1200 X111.901 Y97.193
G1 F2100 X132.096 Y117.388 E203.96362
G0 F1200 X132.096 Y116.823
G1 F2100 X111.901 Y96.627 E204.91356
G0 F1200 X111.901 Y96.061
G1 F2100 X132.096 Y116.257 E205.86349
G0 F1200 X132.096 Y115.691
G1 F2100 X111.901 Y95.496 E206.8134
G0 F1200 X111.901 Y94.93
G1 F2100 X132.096 Y115.126 E207.76334
G0 F1200 X132.096 Y114.56
G1 F2100 X111.901 Y94.364 E208.71327
G0 F1200 X111.386 Y93.85
G1 F2100 X108.686 Y91.15 E208.84027
G0 F1200 X109.252 Y91.15
G1 F2100 X132.096 Y113.994 E209.91478
G0 F1200 X132.096 Y113.429
