;FLAVOR:Marlin
;TIME:5993
;Filament used: 6.3537m
;Layer height: 0.2
;MINX:116.547
;MINY:89.335
;MINZ:0.2
;MAXX:183.453
;MAXY:210.665
;MAXZ:4.8
;Generated with Cura_SteamEngine 4.10.0
M140 S60
M105
M190 S60
M104 S200
M105
M109 S200
M82 ;absolute extrusion mode
; Ender 3 Custom Start G-code
G92 E0 ; Reset Extruder
G28 ; Home all axes
G1 Z2.0 F3000 ; Move Z Axis up little to prevent scratching of Heat Bed
G1 X0.1 Y20 Z0.3 F5000.0 ; Move to start position
G1 X0.1 Y200.0 Z0.3 F1500.0 E15 ; Draw the first line
G1 X0.4 Y200.0 Z0.3 F5000.0 ; Move to side a little
G1 X0.4 Y20 Z0.3 F1500.0 E30 ; Draw the second line
G92 E0 ; Reset Extruder
G1 Z2.0 F3000 ; Move Z Axis up little to prevent scratching of Heat Bed
G1 X5 Y20 Z0.3 F5000.0 ; Move over to prevent blob squish
G92 E0
G92 E0
G1 F1500 E-6.5
;LAYER_COUNT:25
;LAYER:0
M107
;MESH:middle_plate.STL
G0 F1200 X178.739 Y208.086 Z0.2
;TYPE:WALL-INNER
G1 F1500 E0
G1 F2100 X179.092 Y208.206 E0.0124
G1 X179.466 Y208.269 E0.02502
G1 X179.841 Y208.269 E0.03749
G1 X180.193 Y208.21 E0.04936
G1 X180.563 Y208.088 E0.06232
G1 X180.899 Y207.906 E0.07503
G1 X181.196 Y207.675 E0.08754
G1 X181.45 Y207.398 E0.10004
G1 X181.656 Y207.085 E0.1125
G1 X181.808 Y206.74 E0.12504
G1 X181.9 Y206.375 E0.13756
G1 X181.93 Y206 E0.15007
G1 X181.9 Y205.622 E0.16269
G1 X181.807 Y205.26 E0.17512
G1 X181.656 Y204.915 E0.18764
G1 X181.45 Y204.602 E0.20011
G1 X181.197 Y204.326 E0.21256
G1 X180.9 Y204.094 E0.22509
G1 X180.568 Y203.914 E0.23765
G1 X180.215 Y203.794 E0.25006
G1 X179.841 Y203.731 E0.26267
G1 X179.466 Y203.731 E0.27514
G1 X179.114 Y203.79 E0.28701
G1 X178.744 Y203.912 E0.29997
G1 X178.408 Y204.094 E0.31268
G1 X178.111 Y204.325 E0.3252
G1 X177.857 Y204.602 E0.3377
G1 X177.651 Y204.915 E0.35016
G1 X177.499 Y205.26 E0.3627
G1 X177.407 Y205.625 E0.37522
G1 X177.376 Y206 E0.38773
G1 X177.407 Y206.379 E0.40038
G1 X177.5 Y206.74 E0.41278
G1 X177.651 Y207.085 E0.4253
G1 X177.857 Y207.398 E0.43777
G1 X178.11 Y207.674 E0.45022
G1 X178.407 Y207.906 E0.46275
G1 X178.739 Y208.086 E0.47532
G0 F1200 X178.9 Y207.718
;TYPE:WALL-OUTER
G1 F2100 X179.19 Y207.817 E0.48551
G1 X179.499 Y207.869 E0.49593
G1 X179.808 Y207.869 E0.50621
G1 X180.097 Y207.821 E0.51595
G1 X180.404 Y207.719 E0.52671
G1 X180.68 Y207.57 E0.53714
G1 X180.924 Y207.38 E0.54743
G1 X181.133 Y207.152 E0.55772
G1 X181.303 Y206.893 E0.56802
G1 X181.428 Y206.609 E0.57834
G1 X181.504 Y206.309 E0.58863
G1 X181.529 Y206 E0.59894
G1 X181.504 Y205.688 E0.60935
G1 X181.428 Y205.391 E0.61955
G1 X181.303 Y205.107 E0.62987
G1 X181.133 Y204.848 E0.64018
G1 X180.925 Y204.621 E0.65042
G1 X180.68 Y204.43 E0.66075
G1 X180.407 Y204.282 E0.67108
G1 X180.117 Y204.183 E0.68127
G1 X179.808 Y204.131 E0.69169
G1 X179.499 Y204.131 E0.70197
G1 X179.21 Y204.179 E0.71171
G1 X178.903 Y204.281 E0.72247
G1 X178.627 Y204.43 E0.7329
G1 X178.383 Y204.62 E0.74319
G1 X178.174 Y204.848 E0.75348
G1 X178.004 Y205.107 E0.76378
G1 X177.879 Y205.391 E0.7741
G1 X177.803 Y205.691 E0.78439
G1 X177.777 Y206 E0.79471
G1 X177.803 Y206.312 E0.80512
G1 X177.879 Y206.609 E0.81532
G1 X178.004 Y206.893 E0.82564
G1 X178.174 Y207.152 E0.83594
G1 X178.382 Y207.379 E0.84618
G1 X178.627 Y207.57 E0.85652
G1 X178.9 Y207.718 E0.86684
G0 F1200 X178.724 Y208.121
G1 F1500 E-5.63316
G0 F1200 X177.985 Y207.299
G0 X177.652 Y206.688
G0 X177.536 Y206
G0 X177.652 Y205.313
G0 X177.985 Y204.701
G0 X178.274 Y204.435
G0 X179.45 Y203.54
G0 X179.571 Y204.995
G0 X179.57 Y201.415
G0 X176.306 Y201.348
G0 X176.306 Y98.653
G0 X179.565 Y98.583
G0 X179.566 Y95.005
G0 X179.45 Y96.459
G0 X179.466 Y96.269
;TYPE:WALL-INNER
G1 F1500 E0.86684
G1 F2100 X179.841 Y96.269 E0.87932
G1 X180.193 Y96.21 E0.89119
G1 X180.563 Y96.088 E0.90415
G1 X180.899 Y95.906 E0.91686
G1 X181.196 Y95.675 E0.92937
G1 X181.45 Y95.398 E0.94187
G1 X181.656 Y95.085 E0.95433
G1 X181.808 Y94.74 E0.96687
G1 X181.9 Y94.375 E0.97939
G1 X181.93 Y94 E0.9919
G1 X181.9 Y93.622 E1.00452
G1 X181.807 Y93.26 E1.01695
G1 X181.656 Y92.915 E1.02947
G1 X181.45 Y92.602 E1.04193
G1 X181.197 Y92.326 E1.05439
G1 X180.9 Y92.094 E1.06692
G1 X180.568 Y91.914 E1.07948
G1 X180.215 Y91.794 E1.09188
G1 X179.841 Y91.731 E1.1045
G1 X179.466 Y91.731 E1.11697
G1 X179.113 Y91.79 E1.12888
G1 X178.745 Y91.912 E1.14177
G1 X178.408 Y92.094 E1.15451
G1 X178.111 Y92.325 E1.16702
G1 X177.857 Y92.602 E1.17952
G1 X177.651 Y92.915 E1.19199
G1 X177.499 Y93.26 E1.20453
G1 X177.407 Y93.625 E1.21704
G1 X177.376 Y94 E1.22956
G1 X177.407 Y94.379 E1.24221
G1 X177.5 Y94.74 E1.25461
G1 X177.651 Y95.085 E1.26713
G1 X177.857 Y95.398 E1.27959
G1 X178.11 Y95.674 E1.29205
G1 X178.407 Y95.906 E1.30458
G1 X178.739 Y96.086 E1.31714
G1 X179.092 Y96.206 E1.32954
G1 X179.466 Y96.269 E1.34216
G0 F1200 X179.499 Y95.869
;TYPE:WALL-OUTER
G1 F2100 X179.808 Y95.869 E1.35244
G1 X180.097 Y95.821 E1.36218
G1 X180.404 Y95.719 E1.37294
G1 X180.68 Y95.57 E1.38337
G1 X180.924 Y95.38 E1.39366
G1 X181.133 Y95.152 E1.40394
G1 X181.303 Y94.893 E1.41425
G1 X181.428 Y94.609 E1.42457
G1 X181.504 Y94.309 E1.43486
G1 X181.529 Y94 E1.44517
G1 X181.504 Y93.688 E1.45558
G1 X181.428 Y93.391 E1.46578
G1 X181.303 Y93.107 E1.4761
G1 X181.133 Y92.848 E1.48641
G1 X180.925 Y92.621 E1.49665
G1 X180.68 Y92.43 E1.50698
G1 X180.407 Y92.282 E1.51731
G1 X180.117 Y92.183 E1.5275
G1 X179.808 Y92.131 E1.53792
G1 X179.499 Y92.131 E1.5482
G1 X179.21 Y92.179 E1.55794
G1 X178.904 Y92.281 E1.56867
G1 X178.627 Y92.43 E1.57913
G1 X178.383 Y92.62 E1.58942
G1 X178.174 Y92.848 E1.5997
G1 X178.004 Y93.107 E1.61001
G1 X177.879 Y93.391 E1.62033
G1 X177.803 Y93.691 E1.63062
G1 X177.777 Y94 E1.64094
G1 X177.803 Y94.312 E1.65135
G1 X177.879 Y94.609 E1.66155
G1 X178.004 Y94.893 E1.67187
G1 X178.174 Y95.152 E1.68217
G1 X178.382 Y95.379 E1.69241
G1 X178.627 Y95.57 E1.70274
G1 X178.9 Y95.718 E1.71307
G1 X179.19 Y95.817 E1.72326
G1 X179.499 Y95.869 E1.73368
G0 F1200 X179.463 Y96.307
G1 F1500 E-4.76632
G0 F1200 X178.302 Y96.066
G0 X179.104 Y94.846
G0 X176.473 Y98.591
G0 X176.255 Y98.902
G0 X149.215 Y137.415
G0 X149.215 Y135.98
G0 X147.46 Y136.322
G0 X147.288 Y139.85
;TYPE:WALL-INNER
G1 F1500 E1.73368
G1 F2100 X156.488 Y139.85 E2.03968
G1 X156.488 Y136.15 E2.16274
G1 X147.288 Y136.15 E2.46873
G1 X147.288 Y139.85 E2.5918
G0 F1200 X147.688 Y139.45
;TYPE:WALL-OUTER
G1 F2100 X156.088 Y139.45 E2.87118
G1 X156.088 Y136.55 E2.96764
G1 X147.688 Y136.55 E3.24702
G1 X147.688 Y139.45 E3.34348
G1 F1500 E-3.15652
G0 F1200 X147.388 Y139.45
G0 X147.288 Y140.04
G0 X148.541 Y138.597
G0 X148.541 Y161.403
G0 X147.288 Y159.96
G0 X147.288 Y163.85
;TYPE:WALL-INNER
G1 F1500 E3.34348
G1 F2100 X156.488 Y163.85 E3.64947
G1 X156.488 Y160.15 E3.77253
G1 X147.288 Y160.15 E4.07852
G1 X147.288 Y163.85 E4.20159
G0 F1200 X147.688 Y163.45
;TYPE:WALL-OUTER
G1 F2100 X156.088 Y163.45 E4.48097
G1 X156.088 Y160.55 E4.57743
G1 X147.688 Y160.55 E4.85681
G1 X147.688 Y163.45 E4.95327
G1 F1500 E-1.54673
G0 F1200 X147.388 Y163.45
G0 X150.287 Y164.02
G0 X150.287 Y162.585
G0 X121.142 Y205.38
G0 X122.294 Y204.484
G0 X122.463 Y206
G0 X122.348 Y206.687
G0 X122.079 Y207.182
G0 X121.256 Y208.088
;TYPE:WALL-INNER
G1 F1500 E4.95327
G1 F2100 X121.592 Y207.906 E4.96598
G1 X121.889 Y207.675 E4.97849
G1 X122.143 Y207.398 E4.99099
G1 X122.349 Y207.085 E5.00345
G1 X122.501 Y206.74 E5.01599
G1 X122.593 Y206.375 E5.02851
G1 X122.623 Y206 E5.04102
G1 X122.593 Y205.622 E5.05364
G1 X122.5 Y205.26 E5.06607
G1 X122.349 Y204.915 E5.07859
G1 X122.143 Y204.602 E5.09106
G1 X121.89 Y204.326 E5.10351
G1 X121.593 Y204.094 E5.11604
G1 X121.261 Y203.914 E5.1286
G1 X120.908 Y203.794 E5.141
G1 X120.534 Y203.731 E5.15362
G1 X120.159 Y203.731 E5.16609
G1 X119.807 Y203.79 E5.17796
G1 X119.437 Y203.912 E5.19092
G1 X119.101 Y204.094 E5.20363
G1 X118.804 Y204.325 E5.21614
G1 X118.55 Y204.602 E5.22864
G1 X118.344 Y204.915 E5.24111
G1 X118.192 Y205.26 E5.25365
G1 X118.1 Y205.625 E5.26617
G1 X118.069 Y206 E5.27868
G1 X118.1 Y206.379 E5.29133
G1 X118.193 Y206.74 E5.30373
G1 X118.344 Y207.085 E5.31625
G1 X118.55 Y207.398 E5.32872
G1 X118.803 Y207.674 E5.34117
G1 X119.1 Y207.906 E5.3537
G1 X119.432 Y208.086 E5.36627
G1 X119.785 Y208.206 E5.37867
G1 X120.159 Y208.269 E5.39128
G1 X120.534 Y208.269 E5.40375
G1 X120.886 Y208.21 E5.41562
G1 X121.256 Y208.088 E5.42858
G0 F1200 X121.097 Y207.719
;TYPE:WALL-OUTER
G1 F2100 X121.373 Y207.57 E5.43901
G1 X121.617 Y207.38 E5.4493
G1 X121.826 Y207.152 E5.45959
G1 X121.996 Y206.893 E5.46989
G1 X122.121 Y206.609 E5.48021
G1 X122.197 Y206.309 E5.4905
G1 X122.222 Y206 E5.50082
G1 X122.197 Y205.688 E5.51123
G1 X122.121 Y205.391 E5.52142
G1 X121.996 Y205.107 E5.53174
G1 X121.826 Y204.848 E5.54205
G1 X121.618 Y204.621 E5.55229
G1 X121.373 Y204.43 E5.56262
G1 X121.1 Y204.282 E5.57295
G1 X120.81 Y204.183 E5.58314
G1 X120.501 Y204.131 E5.59356
G1 X120.192 Y204.131 E5.60384
G1 X119.903 Y204.179 E5.61358
G1 X119.596 Y204.281 E5.62434
G1 X119.32 Y204.43 E5.63478
G1 X119.076 Y204.62 E5.64506
G1 X118.867 Y204.848 E5.65535
G1 X118.697 Y205.107 E5.66565
G1 X118.572 Y205.391 E5.67597
G1 X118.496 Y205.691 E5.68627
G1 X118.47 Y206 E5.69658
G1 X118.496 Y206.312 E5.70699
G1 X118.572 Y206.609 E5.71719
G1 X118.697 Y206.893 E5.72751
G1 X118.867 Y207.152 E5.73781
G1 X119.075 Y207.379 E5.74805
G1 X119.32 Y207.57 E5.75839
G1 X119.593 Y207.718 E5.76872
G1 X119.883 Y207.817 E5.77891
G1 X120.192 Y207.869 E5.78933
G1 X120.501 Y207.869 E5.79961
G1 X120.79 Y207.821 E5.80935
G1 X121.097 Y207.719 E5.82011
G0 F1200 X121.271 Y208.122
G1 F1500 E-0.67989
G0 F1200 X120.381 Y208.112
G0 X118.673 Y207.815
G0 X118.673 Y209.19
G0 X116.948 Y209.4
;TYPE:WALL-INNER
G1 F1500 E5.82011
G1 F2100 X116.947 Y202.8 E6.03963
G1 X116.947 Y202.601 E6.04625
G1 X117.146 Y202.601 E6.05053
G1 X124.947 Y202.6 E6.30999
G1 X124.947 Y90.601 E10.03509
G1 X183.052 Y90.6 E11.96767
G1 X183.053 Y97.2 E12.18719
G1 X183.053 Y97.399 E12.19381
G1 X182.854 Y97.399 E12.19809
G1 X175.053 Y97.4 E12.45755
G1 X175.053 Y202.402 E15.94993
G1 X175.053 Y202.601 E15.95655
G1 X175.252 Y202.601 E15.96083
G1 X183.052 Y202.6 E16.22026
G1 X183.053 Y209.2 E16.43978
G1 X183.053 Y209.399 E16.4464
G1 X182.854 Y209.399 E16.45068
G1 X116.948 Y209.4 E18.64272
G0 F1200 X116.548 Y209.8
;TYPE:WALL-OUTER
G1 F2100 X116.547 Y202.201 E18.89547
G1 X124.547 Y202.2 E19.16155
G1 X124.547 Y90.201 E22.88665
G1 X183.452 Y90.2 E24.84584
G1 X183.453 Y97.799 E25.09858
G1 X175.453 Y97.8 E25.36466
G1 X175.453 Y202.201 E28.83706
G1 X183.452 Y202.2 E29.1031
G1 X183.453 Y209.799 E29.35585
G1 X116.548 Y209.8 E31.58112
G0 F1200 X116.818 Y209.53
G0 X117.338 Y209.29
G0 X117.338 Y209.01
;TYPE:SKIN
G1 F2100 X117.337 Y202.991 E31.78131
G1 X125.337 Y202.99 E32.04739
G1 X125.337 Y90.991 E35.77249
G1 X182.662 Y90.99 E37.67913
G1 X182.663 Y97.009 E37.87932
G1 X174.663 Y97.01 E38.1454
G1 X174.663 Y202.991 E41.67035
G1 X182.662 Y202.99 E41.93639
G1 X182.663 Y209.009 E42.13659
G1 X117.338 Y209.01 E44.3093
G1 F1500 E37.8093
G0 F1200 X117.338 Y209.29
G0 X118.728 Y209.19
G0 X119.261 Y208.21
G0 X118.728 Y207.756
G0 X118.538 Y207.961
G1 F1500 E44.3093
G1 F2100 X118.885 Y208.233 E44.32397
G1 X119.276 Y208.445 E44.33876
G1 X119.689 Y208.586 E44.35328
G1 X120.126 Y208.659 E44.36801
G1 X120.567 Y208.659 E44.38268
G1 X120.98 Y208.59 E44.39661
G1 X121.412 Y208.447 E44.41174
G1 X121.806 Y208.234 E44.42664
G1 X122.154 Y207.963 E44.44131
G1 X122.451 Y207.638 E44.45595
G1 X122.692 Y207.272 E44.47053
G1 X122.871 Y206.867 E44.48526
G1 X122.979 Y206.439 E44.49994
G1 X123.015 Y206 E44.51459
G1 X122.979 Y205.558 E44.52934
G1 X122.87 Y205.133 E44.54393
G1 X122.693 Y204.728 E44.55863
G1 X122.451 Y204.362 E44.57322
G1 X122.155 Y204.039 E44.5878
G1 X121.808 Y203.767 E44.60246
G1 X121.417 Y203.555 E44.61725
G1 X121.004 Y203.414 E44.63177
G1 X120.567 Y203.341 E44.6465
G1 X120.126 Y203.341 E44.66117
G1 X119.713 Y203.41 E44.6751
G1 X119.281 Y203.553 E44.69023
G1 X118.887 Y203.766 E44.70513
G1 X118.539 Y204.037 E44.7198
G1 X118.242 Y204.362 E44.73444
G1 X118.001 Y204.728 E44.74902
G1 X117.822 Y205.133 E44.76375
G1 X117.714 Y205.561 E44.77843
G1 X117.677 Y206 E44.79308
G1 X117.714 Y206.444 E44.8079
G1 X117.823 Y206.867 E44.82243
G1 X118 Y207.272 E44.83713
G1 X118.242 Y207.638 E44.85172
G1 X118.538 Y207.961 E44.86629
G1 F1500 E38.36629
G0 F1200 X118.728 Y207.756
G0 X118.259 Y206.351
G0 X118.259 Y205.652
G0 X118.486 Y204.992
G0 X118.913 Y204.443
G0 X119.501 Y204.061
G0 X120.044 Y203.925
G0 X121.698 Y203.934
G0 X120.896 Y205.154
G0 X123.481 Y201.407
G0 X123.744 Y201.026
G0 X150.287 Y162.585
G0 X150.287 Y164.02
G0 X147.178 Y163.99
G0 X146.898 Y164.24
G1 F1500 E44.86629
G1 F2100 X156.878 Y164.24 E45.19823
G1 X156.878 Y159.76 E45.34724
G1 X146.898 Y159.76 E45.67917
G1 X146.898 Y164.24 E45.82818
G1 F1500 E39.32818
G0 F1200 X147.178 Y163.99
G0 X147.178 Y159.96
G0 X148.541 Y161.403
G0 X148.541 Y138.597
G0 X147.178 Y140.04
G0 X146.898 Y140.24
G1 F1500 E45.82818
G1 F2100 X156.878 Y140.24 E46.16011
G1 X156.878 Y135.76 E46.30912
G1 X146.898 Y135.76 E46.64106
G1 X146.898 Y140.24 E46.79006
G1 F1500 E40.29006
G0 F1200 X147.178 Y139.99
G0 X147.46 Y136.322
G0 X149.215 Y135.98
G0 X149.215 Y137.415
G0 X176.255 Y98.902
G0 X176.306 Y98.653
G0 X179.104 Y94.846
G0 X178.302 Y96.066
G0 X178.192 Y96.233
G1 F1500 E46.79006
G1 F2100 X178.583 Y96.445 E46.80485
G1 X178.996 Y96.586 E46.81937
G1 X179.433 Y96.659 E46.83411
G1 X179.874 Y96.659 E46.84877
G1 X180.287 Y96.59 E46.8627
G1 X180.719 Y96.447 E46.87784
G1 X181.113 Y96.234 E46.89273
G1 X181.461 Y95.963 E46.9074
G1 X181.758 Y95.638 E46.92205
G1 X181.999 Y95.272 E46.93662
G1 X182.178 Y94.867 E46.95135
G1 X182.286 Y94.439 E46.96603
G1 X182.322 Y94 E46.98068
G1 X182.286 Y93.558 E46.99543
G1 X182.177 Y93.133 E47.01002
G1 X182 Y92.728 E47.02472
G1 X181.758 Y92.362 E47.03932
G1 X181.462 Y92.039 E47.05389
G1 X181.115 Y91.767 E47.06855
G1 X180.724 Y91.555 E47.08335
G1 X180.311 Y91.414 E47.09786
G1 X179.874 Y91.341 E47.1126
G1 X179.433 Y91.341 E47.12726
G1 X179.019 Y91.41 E47.14122
G1 X178.589 Y91.553 E47.1563
G1 X178.194 Y91.766 E47.17122
G1 X177.846 Y92.037 E47.18589
G1 X177.549 Y92.362 E47.20054
G1 X177.308 Y92.728 E47.21511
G1 X177.129 Y93.133 E47.22984
G1 X177.021 Y93.561 E47.24452
G1 X176.984 Y94 E47.25917
G1 X177.021 Y94.444 E47.27399
G1 X177.13 Y94.867 E47.28852
G1 X177.307 Y95.272 E47.30322
G1 X177.549 Y95.638 E47.31781
G1 X177.845 Y95.961 E47.33239
G1 X178.192 Y96.233 E47.34705
G1 F1500 E40.84705
G0 F1200 X178.347 Y95.998
G0 X178.663 Y96.261
G0 X179.246 Y94.923
G0 X179.236 Y98.584
G0 X176.306 Y98.653
G0 X176.306 Y201.348
G0 X178.977 Y201.414
G0 X178.969 Y205.259
G0 X177.706 Y204.484
G0 X177.265 Y206.001
G0 X176.984 Y206
G1 F1500 E47.34705
G1 F2100 X177.021 Y206.444 E47.36187
G1 X177.13 Y206.867 E47.3764
G1 X177.307 Y207.272 E47.3911
G1 X177.549 Y207.638 E47.40569
G1 X177.845 Y207.961 E47.42026
G1 X178.192 Y208.233 E47.43493
G1 X178.583 Y208.445 E47.44972
G1 X178.996 Y208.586 E47.46424
G1 X179.433 Y208.659 E47.47897
G1 X179.874 Y208.659 E47.49364
G1 X180.287 Y208.59 E47.50757
G1 X180.719 Y208.447 E47.5227
G1 X181.113 Y208.234 E47.5376
G1 X181.461 Y207.963 E47.55227
G1 X181.758 Y207.638 E47.56691
G1 X181.999 Y207.272 E47.58149
G1 X182.178 Y206.867 E47.59622
G1 X182.286 Y206.439 E47.6109
G1 X182.322 Y206 E47.62555
G1 X182.286 Y205.558 E47.6403
G1 X182.177 Y205.133 E47.65489
G1 X182 Y204.728 E47.66959
G1 X181.758 Y204.362 E47.68418
G1 X181.462 Y204.039 E47.69876
G1 X181.115 Y203.767 E47.71342
G1 X180.724 Y203.555 E47.72821
G1 X180.311 Y203.414 E47.74273
G1 X179.874 Y203.341 E47.75746
G1 X179.433 Y203.341 E47.77213
G1 X179.02 Y203.41 E47.78606
G1 X178.588 Y203.553 E47.80119
G1 X178.194 Y203.766 E47.81609
G1 X177.846 Y204.037 E47.83076
G1 X177.549 Y204.362 E47.8454
G1 X177.308 Y204.728 E47.85998
G1 X177.129 Y205.133 E47.87471
G1 X177.021 Y205.561 E47.88939
G1 X176.984 Y206 E47.90404
G1 F1500 E41.40404
G0 F1200 X177.265 Y206.001
G0 X178.657 Y206.163
G0 X177.186 Y210.664
G0 X177.185 Y209.19
G0 X117.773 Y209.29
G0 X117.773 Y208.848
G1 F1500 E47.90404
G1 F2100 X117.497 Y208.573 E47.917
G0 F1200 X117.497 Y208.007
G1 F2100 X118.339 Y208.848 E47.95658
G0 F1200 X118.904 Y208.848
G1 F2100 X117.497 Y207.441 E48.02276
G0 F1200 X117.774 Y207.152
