;FLAVOR:Marlin
;TIME:9909
;Filament used: 10.2931m
;Layer height: 0.2
;MINX:99.691
;MINY:89.335
;MINZ:0.2
;MAXX:199.403
;MAXY:210.665
;MAXZ:7.8
;Generated with Cura_SteamEngine 4.10.0
M140 S60
M105
M190 S60
M104 S200
M105
M109 S200
M82 ;absolute extrusion mode
; Ender 3 Custom Start G-code
G92 E0 ; Reset Extruder
G28 ; Home all axes
G1 Z2.0 F3000 ; Move Z Axis up little to prevent scratching of Heat Bed
G1 X0.1 Y20 Z0.3 F5000.0 ; Move to start position
G1 X0.1 Y200.0 Z0.3 F1500.0 E15 ; Draw the first line
G1 X0.4 Y200.0 Z0.3 F5000.0 ; Move to side a little
G1 X0.4 Y20 Z0.3 F1500.0 E30 ; Draw the second line
G92 E0 ; Reset Extruder
G1 Z2.0 F3000 ; Move Z Axis up little to prevent scratching of Heat Bed
G1 X5 Y20 Z0.3 F5000.0 ; Move over to prevent blob squish
G92 E0
G92 E0
G1 F1500 E-6.5
;LAYER_COUNT:40
;LAYER:0
M107
;MESH:fullPillar.STL
G0 F1200 X130.248 Y209.399 Z0.2
;TYPE:WALL-INNER
G1 F1500 E0
G1 F2100 X100.953 Y209.4 E0.97436
G1 X100.952 Y205.799 E1.09413
G1 X100.952 Y205.6 E1.10074
G1 X101.151 Y205.6 E1.10503
G1 X108.952 Y205.6 E1.36449
G1 X108.952 Y94.4 E5.06302
G1 X100.953 Y94.4 E5.32906
G1 X100.952 Y90.799 E5.44883
G1 X100.952 Y90.6 E5.45545
G1 X101.151 Y90.6 E5.45973
G1 X130.247 Y90.6 E6.42747
G1 X130.248 Y209.399 E10.37874
G0 F1200 X130.648 Y209.799
;TYPE:WALL-OUTER
G1 F2100 X100.553 Y209.8 E11.37971
G1 X100.552 Y205.2 E11.5327
G1 X108.552 Y205.2 E11.79878
G1 X108.552 Y94.8 E15.4707
G1 X100.553 Y94.8 E15.73675
G1 X100.552 Y90.2 E15.88975
G1 X130.647 Y90.2 E16.89071
G1 X130.648 Y209.799 E20.86859
G0 F1200 X130.378 Y209.529
G0 X130.138 Y209.009
G0 X129.858 Y209.009
;TYPE:SKIN
G1 F2100 X101.343 Y209.01 E21.817
G1 X101.342 Y205.99 E21.91745
G1 X109.342 Y205.99 E22.18353
G1 X109.342 Y94.01 E25.908
G1 X101.343 Y94.01 E26.17405
G1 X101.342 Y90.99 E26.27449
G1 X129.857 Y90.99 E27.22291
G1 X129.858 Y209.009 E31.14823
G0 F1200 X130.138 Y209.009
G0 X101.933 Y209.29
G0 X101.933 Y208.848
G1 F2100 X101.502 Y208.416 E31.16853
G0 F1200 X101.502 Y207.851
G1 F2100 X102.499 Y208.848 E31.21543
G0 F1200 X103.065 Y208.848
G1 F2100 X101.501 Y207.284 E31.28899
G0 F1200 X101.501 Y206.719
G1 F2100 X103.63 Y208.848 E31.38913
G0 F1200 X104.196 Y208.848
G1 F2100 X101.501 Y206.153 E31.5159
G0 F1200 X102.063 Y206.149
G1 F2100 X104.762 Y208.848 E31.64285
G0 F1200 X105.327 Y208.848
G1 F2100 X102.628 Y206.149 E31.7698
G0 F1200 X103.194 Y206.149
G1 F2100 X105.893 Y208.848 E31.89676
G0 F1200 X106.459 Y208.848
G1 F2100 X103.76 Y206.149 E32.02371
G0 F1200 X104.325 Y206.149
G1 F2100 X107.024 Y208.848 E32.15066
G0 F1200 X107.59 Y208.848
G1 F2100 X104.891 Y206.149 E32.27761
G0 F1200 X105.457 Y206.149
G1 F2100 X108.156 Y208.848 E32.40457
G0 F1200 X108.721 Y208.848
G1 F2100 X106.022 Y206.149 E32.53152
G0 F1200 X106.588 Y206.149
G1 F2100 X109.287 Y208.848 E32.65847
G0 F1200 X109.853 Y208.848
G1 F2100 X107.154 Y206.149 E32.78542
G0 F1200 X107.719 Y206.149
G1 F2100 X110.418 Y208.848 E32.91238
G0 F1200 X110.984 Y208.848
G1 F2100 X108.285 Y206.149 E33.03933
G0 F1200 X108.851 Y206.149
G1 F2100 X111.55 Y208.848 E33.16628
G0 F1200 X112.116 Y208.848
G1 F2100 X109.416 Y206.149 E33.29326
G0 F1200 X109.501 Y205.667
G1 F2100 X112.681 Y208.848 E33.44286
G0 F1200 X113.247 Y208.848
G1 F2100 X109.501 Y205.101 E33.61908
G0 F1200 X109.501 Y204.536
G1 F2100 X113.813 Y208.848 E33.82191
G0 F1200 X114.378 Y208.848
G1 F2100 X109.501 Y203.97 E34.05133
G0 F1200 X109.501 Y203.404
G1 F2100 X114.944 Y208.848 E34.30737
G0 F1200 X115.51 Y208.848
G1 F2100 X109.501 Y202.839 E34.59002
G0 F1200 X109.501 Y202.273
G1 F2100 X116.075 Y208.848 E34.89926
G0 F1200 X116.641 Y208.848
G1 F2100 X109.501 Y201.707 E35.23513
G0 F1200 X109.501 Y201.142
G1 F2100 X117.207 Y208.848 E35.5976
G0 F1200 X117.772 Y208.848
G1 F2100 X109.501 Y200.576 E35.98666
G0 F1200 X109.501 Y200.01
G1 F2100 X118.338 Y208.848 E36.40235
G0 F1200 X118.904 Y208.848
G1 F2100 X109.501 Y199.445 E36.84464
G0 F1200 X109.501 Y198.879
G1 F2100 X119.469 Y208.848 E37.31353
G0 F1200 X120.035 Y208.848
G1 F2100 X109.501 Y198.313 E37.80904
G0 F1200 X109.501 Y197.748
G1 F2100 X120.601 Y208.848 E38.33115
G0 F1200 X121.166 Y208.848
G1 F2100 X109.501 Y197.182 E38.87986
G0 F1200 X109.501 Y196.616
G1 F2100 X121.732 Y208.848 E39.45519
G0 F1200 X122.298 Y208.848
G1 F2100 X109.501 Y196.051 E40.05712
G0 F1200 X109.501 Y195.485
G1 F2100 X122.864 Y208.848 E40.68568
G0 F1200 X123.429 Y208.848
G1 F2100 X109.501 Y194.919 E41.34083
G0 F1200 X109.501 Y194.353
G1 F2100 X123.995 Y208.848 E42.02261
G0 F1200 X124.561 Y208.848
G1 F2100 X109.501 Y193.788 E42.73098
G0 F1200 X109.501 Y193.222
G1 F2100 X125.126 Y208.848 E43.46596
G0 F1200 X125.692 Y208.848
G1 F2100 X109.501 Y192.656 E44.22756
G0 F1200 X109.501 Y192.091
G1 F2100 X126.258 Y208.848 E45.01576
G0 F1200 X126.823 Y208.848
G1 F2100 X109.501 Y191.525 E45.83055
G0 F1200 X109.501 Y190.959
G1 F2100 X127.389 Y208.848 E46.67197
G0 F1200 X127.955 Y208.848
G1 F2100 X109.501 Y190.394 E47.53999
G0 F1200 X109.501 Y189.828
G1 F2100 X128.52 Y208.848 E48.43461
G0 F1200 X129.086 Y208.848
G1 F2100 X109.501 Y189.262 E49.35585
G0 F1200 X109.501 Y188.697
G1 F2100 X129.652 Y208.848 E50.3037
G0 F1200 X129.697 Y208.327
G1 F2100 X109.501 Y188.131 E51.25365
G0 F1200 X109.501 Y187.565
G1 F2100 X129.697 Y207.762 E52.20363
G0 F1200 X129.697 Y207.196
G1 F2100 X109.501 Y187 E53.15359
G0 F1200 X109.501 Y186.434
G1 F2100 X129.697 Y206.63 E54.10355
G0 F1200 X129.697 Y206.065
G1 F2100 X109.501 Y185.868 E55.05353
G0 F1200 X109.501 Y185.302
G1 F2100 X129.697 Y205.499 E56.00351
G0 F1200 X129.697 Y204.933
G1 F2100 X109.501 Y184.737 E56.95347
G0 F1200 X109.501 Y184.171
G1 F2100 X129.697 Y204.368 E57.90345
G0 F1200 X129.697 Y203.802
G1 F2100 X109.501 Y183.605 E58.85343
G0 F1200 X109.501 Y183.04
G1 F2100 X129.697 Y203.236 E59.80339
G0 F1200 X129.697 Y202.67
G1 F2100 X109.501 Y182.474 E60.75335
G0 F1200 X109.501 Y181.908
G1 F2100 X129.697 Y202.105 E61.70333
G0 F1200 X129.697 Y201.539
G1 F2100 X109.501 Y181.343 E62.65329
G0 F1200 X109.501 Y180.777
G1 F2100 X129.697 Y200.973 E63.60325
G0 F1200 X129.697 Y200.408
G1 F2100 X109.501 Y180.211 E64.55323
G0 F1200 X109.501 Y179.646
G1 F2100 X129.697 Y199.842 E65.50319
G0 F1200 X129.697 Y199.276
G1 F2100 X109.501 Y179.08 E66.45314
G0 F1200 X109.501 Y178.514
G1 F2100 X129.697 Y198.711 E67.40313
G0 F1200 X129.697 Y198.145
G1 F2100 X109.501 Y177.949 E68.35308
G0 F1200 X109.501 Y177.383
G1 F2100 X129.697 Y197.579 E69.30304
G0 F1200 X129.697 Y197.014
G1 F2100 X109.501 Y176.817 E70.25302
G0 F1200 X109.501 Y176.252
G1 F2100 X129.697 Y196.448 E71.20298
G0 F1200 X129.697 Y195.882
G1 F2100 X109.501 Y175.686 E72.15294
G0 F1200 X109.501 Y175.12
G1 F2100 X129.697 Y195.317 E73.10292
G0 F1200 X129.697 Y194.751
G1 F2100 X109.501 Y174.554 E74.0529
G0 F1200 X109.501 Y173.989
G1 F2100 X129.697 Y194.185 E75.00286
G0 F1200 X129.697 Y193.619
G1 F2100 X109.501 Y173.423 E75.95282
G0 F1200 X109.501 Y172.857
G1 F2100 X129.697 Y193.054 E76.9028
G0 F1200 X129.697 Y192.488
G1 F2100 X109.501 Y172.292 E77.85276
G0 F1200 X109.501 Y171.726
G1 F2100 X129.697 Y191.922 E78.80272
G0 F1200 X129.697 Y191.357
G1 F2100 X109.501 Y171.16 E79.7527
G0 F1200 X109.501 Y170.595
G1 F2100 X129.697 Y190.791 E80.70265
G0 F1200 X129.697 Y190.225
G1 F2100 X109.501 Y170.029 E81.65261
G0 F1200 X109.501 Y169.463
G1 F2100 X129.697 Y189.66 E82.60259
G0 F1200 X129.697 Y189.094
G1 F2100 X109.501 Y168.898 E83.55255
G0 F1200 X109.501 Y168.332
G1 F2100 X129.697 Y188.528 E84.50251
G0 F1200 X129.697 Y187.963
G1 F2100 X109.501 Y167.766 E85.45249
G0 F1200 X109.501 Y167.201
G1 F2100 X129.697 Y187.397 E86.40245
G0 F1200 X129.697 Y186.831
G1 F2100 X109.501 Y166.635 E87.35241
G0 F1200 X109.501 Y166.069
G1 F2100 X129.697 Y186.266 E88.30239
G0 F1200 X129.697 Y185.7
G1 F2100 X109.501 Y165.503 E89.25237
G0 F1200 X109.501 Y164.938
G1 F2100 X129.697 Y185.134 E90.20233
G0 F1200 X129.697 Y184.569
G1 F2100 X109.501 Y164.372 E91.15231
G0 F1200 X109.501 Y163.806
G1 F2100 X129.697 Y184.003 E92.10229
G0 F1200 X129.697 Y183.437
G1 F2100 X109.501 Y163.241 E93.05225
G0 F1200 X109.501 Y162.675
G1 F2100 X129.697 Y182.871 E94.00221
G0 F1200 X129.697 Y182.306
G1 F2100 X109.501 Y162.109 E94.95219
G0 F1200 X109.501 Y161.544
G1 F2100 X129.697 Y181.74 E95.90215
G0 F1200 X129.697 Y181.174
G1 F2100 X109.501 Y160.978 E96.8521
G0 F1200 X109.501 Y160.412
G1 F2100 X129.697 Y180.609 E97.80209
G0 F1200 X129.697 Y180.043
G1 F2100 X109.501 Y159.847 E98.75204
G0 F1200 X109.501 Y159.281
G1 F2100 X129.697 Y179.477 E99.702
G0 F1200 X129.697 Y178.912
G1 F2100 X109.501 Y158.715 E100.65198
G0 F1200 X109.501 Y158.15
G1 F2100 X129.697 Y178.346 E101.60194
G0 F1200 X129.697 Y177.78
G1 F2100 X109.501 Y157.584 E102.5519
G0 F1200 X109.501 Y157.018
G1 F2100 X129.697 Y177.215 E103.50188
G0 F1200 X129.697 Y176.649
G1 F2100 X109.501 Y156.453 E104.45184
G0 F1200 X109.501 Y155.887
G1 F2100 X129.697 Y176.083 E105.4018
G0 F1200 X129.697 Y175.518
G1 F2100 X109.501 Y155.321 E106.35178
G0 F1200 X109.501 Y154.755
G1 F2100 X129.697 Y174.952 E107.30176
G0 F1200 X129.697 Y174.386
G1 F2100 X109.501 Y154.19 E108.25172
G0 F1200 X109.501 Y153.624
G1 F2100 X129.697 Y173.82 E109.20167
G0 F1200 X129.697 Y173.255
G1 F2100 X109.501 Y153.058 E110.15166
G0 F1200 X109.501 Y152.493
G1 F2100 X129.697 Y172.689 E111.10161
G0 F1200 X129.697 Y172.123
G1 F2100 X109.501 Y151.927 E112.05157
G0 F1200 X109.501 Y151.361
G1 F2100 X129.697 Y171.558 E113.00155
G0 F1200 X129.697 Y170.992
G1 F2100 X109.501 Y150.796 E113.95151
G0 F1200 X109.501 Y150.23
G1 F2100 X129.697 Y170.426 E114.90147
G0 F1200 X129.697 Y169.861
G1 F2100 X109.501 Y149.664 E115.85145
G0 F1200 X109.501 Y149.099
G1 F2100 X129.697 Y169.295 E116.80141
G0 F1200 X129.697 Y168.729
G1 F2100 X109.501 Y148.533 E117.75137
G0 F1200 X109.501 Y147.967
G1 F2100 X129.697 Y168.164 E118.70135
G0 F1200 X129.697 Y167.598
G1 F2100 X109.501 Y147.402 E119.65131
G0 F1200 X109.501 Y146.836
G1 F2100 X129.697 Y167.032 E120.60126
G0 F1200 X129.697 Y166.467
G1 F2100 X109.501 Y146.27 E121.55124
G0 F1200 X109.501 Y145.705
G1 F2100 X129.697 Y165.901 E122.5012
G0 F1200 X129.697 Y165.335
G1 F2100 X109.501 Y145.139 E123.45116
G0 F1200 X109.501 Y144.573
G1 F2100 X129.697 Y164.77 E124.40114
G0 F1200 X129.697 Y164.204
G1 F2100 X109.501 Y144.007 E125.35112
G0 F1200 X109.501 Y143.442
G1 F2100 X129.697 Y163.638 E126.30108
G0 F1200 X129.697 Y163.072
G1 F2100 X109.501 Y142.876 E127.25104
G0 F1200 X109.501 Y142.31
G1 F2100 X129.697 Y162.507 E128.20102
G0 F1200 X129.697 Y161.941
G1 F2100 X109.501 Y141.745 E129.15098
G0 F1200 X109.501 Y141.179
G1 F2100 X129.697 Y161.375 E130.10094
G0 F1200 X129.697 Y160.81
G1 F2100 X109.501 Y140.613 E131.05092
G0 F1200 X109.501 Y140.048
G1 F2100 X129.697 Y160.244 E132.00088
G0 F1200 X129.697 Y159.678
G1 F2100 X109.501 Y139.482 E132.95083
G0 F1200 X109.501 Y138.916
G1 F2100 X129.697 Y159.113 E133.90082
G0 F1200 X129.697 Y158.547
G1 F2100 X109.501 Y138.351 E134.85077
G0 F1200 X109.501 Y137.785
G1 F2100 X129.697 Y157.981 E135.80073
G0 F1200 X129.697 Y157.416
G1 F2100 X109.501 Y137.219 E136.75071
G0 F1200 X109.501 Y136.654
G1 F2100 X129.697 Y156.85 E137.70067
G0 F1200 X129.697 Y156.284
G1 F2100 X109.501 Y136.088 E138.65063
G0 F1200 X109.501 Y135.522
G1 F2100 X129.697 Y155.719 E139.60061
G0 F1200 X129.697 Y155.153
G1 F2100 X109.501 Y134.956 E140.55059
G0 F1200 X109.501 Y134.391
G1 F2100 X129.697 Y154.587 E141.50055
G0 F1200 X129.697 Y154.021
G1 F2100 X109.501 Y133.825 E142.45051
G0 F1200 X109.501 Y133.259
G1 F2100 X129.697 Y153.456 E143.40049
G0 F1200 X129.697 Y152.89
G1 F2100 X109.501 Y132.694 E144.35045
G0 F1200 X109.501 Y132.128
G1 F2100 X129.697 Y152.324 E145.3004
G0 F1200 X129.697 Y151.759
G1 F2100 X109.501 Y131.562 E146.25039
G0 F1200 X109.501 Y130.997
G1 F2100 X129.697 Y151.193 E147.20034
G0 F1200 X129.697 Y150.627
G1 F2100 X109.501 Y130.431 E148.1503
G0 F1200 X109.501 Y129.865
G1 F2100 X129.697 Y150.062 E149.10028
G0 F1200 X129.696 Y149.495
G1 F2100 X109.501 Y129.3 E150.05019
G0 F1200 X109.501 Y128.734
G1 F2100 X129.696 Y148.93 E151.00013
G0 F1200 X129.696 Y148.364
G1 F2100 X109.501 Y128.168 E151.95006
G0 F1200 X109.501 Y127.603
G1 F2100 X129.696 Y147.798 E152.89997
G0 F1200 X129.696 Y147.233
G1 F2100 X109.501 Y127.037 E153.84991
G0 F1200 X109.501 Y126.471
G1 F2100 X129.696 Y146.667 E154.79984
G0 F1200 X129.696 Y146.101
G1 F2100 X109.501 Y125.906 E155.74975
G0 F1200 X109.501 Y125.34
G1 F2100 X129.696 Y145.536 E156.69969
G0 F1200 X129.696 Y144.97
G1 F2100 X109.501 Y124.774 E157.64962
G0 F1200 X109.501 Y124.208
G1 F2100 X129.696 Y144.404 E158.59956
G0 F1200 X129.696 Y143.838
G1 F2100 X109.501 Y123.643 E159.54947
G0 F1200 X109.501 Y123.077
G1 F2100 X129.696 Y143.273 E160.4994
G0 F1200 X129.696 Y142.707
G1 F2100 X109.501 Y122.511 E161.44934
G0 F1200 X109.501 Y121.946
G1 F2100 X129.696 Y142.141 E162.39925
G0 F1200 X129.696 Y141.576
G1 F2100 X109.501 Y121.38 E163.34918
G0 F1200 X109.501 Y120.814
G1 F2100 X129.696 Y141.01 E164.29912
G0 F1200 X129.696 Y140.444
G1 F2100 X109.501 Y120.249 E165.24903
G0 F1200 X109.501 Y119.683
G1 F2100 X129.696 Y139.879 E166.19896
G0 F1200 X129.696 Y139.313
G1 F2100 X109.501 Y119.117 E167.1489
G0 F1200 X109.501 Y118.552
G1 F2100 X129.696 Y138.747 E168.09881
G0 F1200 X129.696 Y138.182
G1 F2100 X109.501 Y117.986 E169.04874
G0 F1200 X109.501 Y117.42
G1 F2100 X129.696 Y137.616 E169.99868
G0 F1200 X129.696 Y137.05
G1 F2100 X109.501 Y116.855 E170.94859
G0 F1200 X109.501 Y116.289
G1 F2100 X129.696 Y136.485 E171.89852
G0 F1200 X129.696 Y135.919
G1 F2100 X109.501 Y115.723 E172.84846
G0 F1200 X109.501 Y115.157
G1 F2100 X129.696 Y135.353 E173.79839
G0 F1200 X129.696 Y134.787
G1 F2100 X109.501 Y114.592 E174.7483
G0 F1200 X109.501 Y114.026
G1 F2100 X129.696 Y134.222 E175.69823
G0 F1200 X129.696 Y133.656
G1 F2100 X109.501 Y113.46 E176.64817
G0 F1200 X109.501 Y112.895
G1 F2100 X129.696 Y133.09 E177.59808
G0 F1200 X129.696 Y132.525
G1 F2100 X109.501 Y112.329 E178.54801
G0 F1200 X109.501 Y111.763
G1 F2100 X129.696 Y131.959 E179.49795
G0 F1200 X129.696 Y131.393
G1 F2100 X109.501 Y111.198 E180.44786
G0 F1200 X109.501 Y110.632
G1 F2100 X129.696 Y130.828 E181.39779
G0 F1200 X129.696 Y130.262
G1 F2100 X109.501 Y110.066 E182.34773
G0 F1200 X109.501 Y109.501
G1 F2100 X129.696 Y129.696 E183.29764
G0 F1200 X129.696 Y129.131
G1 F2100 X109.501 Y108.935 E184.24757
G0 F1200 X109.501 Y108.369
G1 F2100 X129.696 Y128.565 E185.19751
G0 F1200 X129.696 Y127.999
G1 F2100 X109.501 Y107.804 E186.14742
G0 F1200 X109.501 Y107.238
G1 F2100 X129.696 Y127.434 E187.09735
G0 F1200 X129.696 Y126.868
G1 F2100 X109.501 Y106.672 E188.04729
G0 F1200 X109.501 Y106.107
G1 F2100 X129.696 Y126.302 E188.9972
G0 F1200 X129.696 Y125.737
G1 F2100 X109.501 Y105.541 E189.94713
G0 F1200 X109.501 Y104.975
G1 F2100 X129.696 Y125.171 E190.89707
G0 F1200 X129.696 Y124.605
G1 F2100 X109.501 Y104.409 E191.847
G0 F1200 X109.501 Y103.844
G1 F2100 X129.696 Y124.039 E192.79691
G0 F1200 X129.696 Y123.474
G1 F2100 X109.501 Y103.278 E193.74685
G0 F1200 X109.501 Y102.712
G1 F2100 X129.696 Y122.908 E194.69678
G0 F1200 X129.696 Y122.342
G1 F2100 X109.501 Y102.147 E195.64669
G0 F1200 X109.501 Y101.581
G1 F2100 X129.696 Y121.777 E196.59663
G0 F1200 X129.696 Y121.211
G1 F2100 X109.501 Y101.015 E197.54656
G0 F1200 X109.501 Y100.45
G1 F2100 X129.696 Y120.645 E198.49647
G0 F1200 X129.696 Y120.08
G1 F2100 X109.501 Y99.884 E199.44641
G0 F1200 X109.501 Y99.318
G1 F2100 X129.696 Y119.514 E200.39634
G0 F1200 X129.696 Y118.948
G1 F2100 X109.501 Y98.753 E201.34625
G0 F1200 X109.501 Y98.187
G1 F2100 X129.696 Y118.383 E202.29619
G0 F1200 X129.696 Y117.817
G1 F2100 X109.501 Y97.621 E203.24612
G0 F1200 X109.501 Y97.056
G1 F2100 X129.696 Y117.251 E204.19603
G0 F1200 X129.696 Y116.686
G1 F2100 X109.501 Y96.49 E205.14597
G0 F1200 X109.501 Y95.924
G1 F2100 X129.696 Y116.12 E206.0959
G0 F1200 X129.696 Y115.554
G1 F2100 X109.501 Y95.359 E207.04581
G0 F1200 X109.501 Y94.793
G1 F2100 X129.696 Y114.988 E207.99572
G0 F1200 X129.696 Y114.423
G1 F2100 X109.501 Y94.227 E208.94566
G0 F1200 X109.123 Y93.85
G1 F2100 X106.423 Y91.15 E209.07266
G0 F1200 X105.858 Y91.15
G1 F2100 X108.557 Y93.85 E209.19963
G0 F1200 X107.992 Y93.85
G1 F2100 X105.292 Y91.15 E209.32663
