;FLAVOR:Marlin
;TIME:4726
;Filament used: 5.57365m
;Layer height: 0.2
;MINX:79.8
;MINY:114.146
;MINZ:0.2
;MAXX:220.2
;MAXY:185.854
;MAXZ:4
;Generated with Cura_SteamEngine 4.10.0
M140 S60
M105
M190 S60
M104 S200
M105
M109 S200
M82 ;absolute extrusion mode
; Ender 3 Custom Start G-code
G92 E0 ; Reset Extruder
G28 ; Home all axes
G1 Z2.0 F3000 ; Move Z Axis up little to prevent scratching of Heat Bed
G1 X0.1 Y20 Z0.3 F5000.0 ; Move to start position
G1 X0.1 Y200.0 Z0.3 F1500.0 E15 ; Draw the first line
G1 X0.4 Y200.0 Z0.3 F5000.0 ; Move to side a little
G1 X0.4 Y20 Z0.3 F1500.0 E30 ; Draw the second line
G92 E0 ; Reset Extruder
G1 Z2.0 F3000 ; Move Z Axis up little to prevent scratching of Heat Bed
G1 X5 Y20 Z0.3 F5000.0 ; Move over to prevent blob squish
G92 E0
G92 E0
G1 F1500 E-6.5
;LAYER_COUNT:20
;LAYER:0
M107
G0 F1200 X84.394 Y115.84 Z0.2
;TYPE:SKIRT
G1 F1500 E0
G1 F1200 X85.169 Y115.377 E0.03003
G1 X85.982 Y114.984 E0.06006
G1 X86.827 Y114.664 E0.09011
G1 X87.696 Y114.421 E0.12012
G1 X88.584 Y114.255 E0.15017
G1 X89.723 Y114.159 E0.18819
G1 X90.044 Y114.15 E0.19887
G1 X90.33 Y114.146 E0.20838
G1 X209.293 Y114.146 E4.16511
G1 X210.137 Y114.157 E4.19318
G1 X211.039 Y114.21 E4.22323
G1 X211.932 Y114.342 E4.25326
G1 X212.81 Y114.553 E4.28329
G1 X213.666 Y114.841 E4.31333
G1 X214.493 Y115.203 E4.34336
G1 X215.285 Y115.638 E4.37341
G1 X216.036 Y116.14 E4.40346
G1 X216.739 Y116.707 E4.4335
G1 X217.389 Y117.334 E4.46353
G1 X217.981 Y118.016 E4.49357
G1 X218.511 Y118.747 E4.5236
G1 X218.973 Y119.523 E4.55364
G1 X219.366 Y120.336 E4.58367
G1 X219.684 Y121.181 E4.6137
G1 X219.927 Y122.051 E4.64375
G1 X220.092 Y122.939 E4.67379
G1 X220.187 Y124.069 E4.7115
G1 X220.196 Y124.389 E4.72215
G1 X220.2 Y124.676 E4.7317
G1 X220.199 Y175.044 E6.40694
G1 X220.19 Y175.771 E6.43113
G1 X220.139 Y176.673 E6.46117
G1 X220.008 Y177.567 E6.49123
G1 X219.799 Y178.445 E6.52124
G1 X219.513 Y179.302 E6.55129
G1 X219.152 Y180.13 E6.58134
G1 X218.72 Y180.922 E6.61134
G1 X218.219 Y181.674 E6.6414
G1 X217.653 Y182.378 E6.67144
G1 X217.028 Y183.029 E6.70146
G1 X216.347 Y183.623 E6.73151
G1 X215.616 Y184.154 E6.76156
G1 X214.842 Y184.618 E6.79158
G1 X214.029 Y185.012 E6.82163
G1 X213.185 Y185.332 E6.85165
G1 X212.315 Y185.577 E6.88171
G1 X211.428 Y185.743 E6.91172
G1 X210.277 Y185.841 E6.95015
G1 X209.956 Y185.85 E6.96083
G1 X209.67 Y185.854 E6.97034
G1 X90.575 Y185.853 E10.93146
G1 X89.877 Y185.844 E10.95467
G1 X88.976 Y185.793 E10.98469
G1 X88.082 Y185.661 E11.01474
G1 X87.204 Y185.452 E11.04476
G1 X86.347 Y185.165 E11.07482
G1 X85.52 Y184.804 E11.10484
G1 X84.727 Y184.371 E11.13489
G1 X83.976 Y183.87 E11.16491
G1 X83.272 Y183.304 E11.19496
G1 X82.621 Y182.678 E11.225
G1 X82.028 Y181.997 E11.25503
G1 X81.498 Y181.266 E11.28506
G1 X81.034 Y180.491 E11.3151
G1 X80.64 Y179.678 E11.34515
G1 X80.32 Y178.834 E11.37517
G1 X80.076 Y177.964 E11.40523
G1 X79.91 Y177.076 E11.43527
G1 X79.813 Y175.921 E11.47382
G1 X79.804 Y175.588 E11.4849
G1 X79.8 Y175.312 E11.49409
G1 X79.801 Y124.882 E13.17139
G1 X79.81 Y124.217 E13.19351
G1 X79.862 Y123.315 E13.22356
G1 X79.994 Y122.422 E13.25359
G1 X80.204 Y121.544 E13.28361
G1 X80.491 Y120.687 E13.31367
G1 X80.853 Y119.86 E13.3437
G1 X81.286 Y119.068 E13.37372
G1 X81.788 Y118.317 E13.40377
G1 X82.355 Y117.613 E13.43383
G1 X82.981 Y116.963 E13.46385
G1 X83.662 Y116.37 E13.49388
G1 X84.394 Y115.84 E13.52394
G1 F1500 E7.02394
;MESH:top.stl
G0 F1200 X90.81 Y123.681
G0 X90.81 Y125.156
G0 X90.782 Y174.872
G0 X209.4 Y175.054
;TYPE:WALL-INNER
G1 F1500 E13.52394
G1 F1200 X90.6 Y175.054 E17.47524
G1 X90.6 Y124.946 E19.14184
G1 X209.4 Y124.946 E23.09315
G1 X209.4 Y175.054 E24.75974
G0 X209.8 Y175.454
;TYPE:WALL-OUTER
G1 X90.2 Y175.454 E28.73766
G1 X90.2 Y124.546 E30.43086
G1 X209.8 Y124.546 E34.40878
G1 X209.8 Y175.454 E36.10198
G0 X209.53 Y175.184
G0 X209.29 Y174.664
G0 X209.01 Y174.664
;TYPE:SKIN
G1 X90.99 Y174.664 E40.02734
G1 X90.99 Y125.336 E41.668
G1 X209.01 Y125.336 E45.59336
G1 X209.01 Y174.664 E47.23402
G1 F1500 E40.73402
G0 F1200 X209.29 Y174.664
G0 X209.29 Y125.693
G0 X208.849 Y125.693
G1 F1500 E47.23402
G1 F1200 X208.651 Y125.495 E47.24333
G0 X208.085 Y125.495
G1 X208.849 Y126.259 E47.27927
G0 X208.849 Y126.825
G1 X207.52 Y125.495 E47.3418
G0 X206.954 Y125.495
G1 X208.849 Y127.39 E47.43094
G0 X208.849 Y127.956
G1 X206.388 Y125.495 E47.5467
G0 X205.823 Y125.495
G1 X208.849 Y128.522 E47.68905
G0 X208.849 Y129.087
G1 X205.257 Y125.495 E47.85801
G0 X204.691 Y125.495
G1 X208.849 Y129.653 E48.05359
G0 X208.849 Y130.219
G1 X204.126 Y125.495 E48.27577
G0 X203.56 Y125.495
G1 X208.849 Y130.785 E48.52457
G0 X208.849 Y131.35
G1 X202.994 Y125.495 E48.79997
G0 X202.429 Y125.495
G1 X208.849 Y131.916 E49.10197
G0 X208.849 Y132.482
G1 X201.863 Y125.495 E49.43059
G0 X201.297 Y125.495
G1 X208.849 Y133.047 E49.78582
G0 X208.849 Y133.613
G1 X200.732 Y125.495 E50.16764
G0 X200.166 Y125.495
G1 X208.849 Y134.179 E50.57609
G0 X208.849 Y134.744
G1 X199.6 Y125.495 E51.01113
G0 X199.035 Y125.495
G1 X208.849 Y135.31 E51.47277
G0 X208.849 Y135.876
G1 X198.469 Y125.495 E51.96104
G0 X197.903 Y125.495
G1 X208.849 Y136.441 E52.47591
G0 X208.849 Y137.007
G1 X197.337 Y125.495 E53.0174
G0 X196.772 Y125.495
G1 X208.849 Y137.573 E53.58548
G0 X208.849 Y138.138
G1 X196.206 Y125.495 E54.18017
G0 X195.64 Y125.495
G1 X208.849 Y138.704 E54.80148
G0 X208.849 Y139.27
G1 X195.075 Y125.495 E55.44939
G0 X194.509 Y125.495
G1 X208.849 Y139.836 E56.12393
G0 X208.849 Y140.401
G1 X193.943 Y125.495 E56.82506
G0 X193.378 Y125.495
G1 X208.849 Y140.967 E57.55279
G0 X208.849 Y141.533
G1 X192.812 Y125.495 E58.30715
G0 X192.246 Y125.495
G1 X208.849 Y142.098 E59.0881
G0 X208.849 Y142.664
G1 X191.681 Y125.495 E59.89565
G0 X191.115 Y125.495
G1 X208.849 Y143.23 E60.72983
G0 X208.849 Y143.795
G1 X190.549 Y125.495 E61.59061
G0 X189.984 Y125.495
G1 X208.849 Y144.361 E62.47798
G0 X208.849 Y144.927
G1 X189.418 Y125.495 E63.39198
G0 X188.852 Y125.495
G1 X208.849 Y145.492 E64.33258
G0 X208.849 Y146.058
G1 X188.286 Y125.495 E65.2998
G0 X187.721 Y125.495
G1 X208.849 Y146.624 E66.29362
G0 X208.849 Y147.189
G1 X187.155 Y125.495 E67.31404
G0 X186.589 Y125.495
G1 X208.849 Y147.755 E68.36108
G0 X208.849 Y148.321
G1 X186.024 Y125.495 E69.43472
G0 X185.458 Y125.495
G1 X208.849 Y148.886 E70.53496
G0 X208.849 Y149.452
G1 X184.892 Y125.495 E71.66183
G0 X184.327 Y125.495
G1 X208.849 Y150.018 E72.81529
G0 X208.849 Y150.584
G1 X183.761 Y125.495 E73.99537
G0 X183.195 Y125.495
G1 X208.849 Y151.149 E75.20206
G0 X208.849 Y151.715
G1 X182.63 Y125.495 E76.43535
G0 X182.064 Y125.495
G1 X208.849 Y152.281 E77.69525
G0 X208.849 Y152.846
G1 X181.498 Y125.495 E78.98176
G0 X180.933 Y125.495
G1 X208.849 Y153.412 E80.29487
G0 X208.849 Y153.978
G1 X180.367 Y125.495 E81.6346
G0 X179.801 Y125.495
G1 X208.849 Y154.543 E83.00093
G0 X208.849 Y155.109
G1 X179.236 Y125.495 E84.39385
G0 X178.67 Y125.495
G1 X208.849 Y155.675 E85.8134
G0 X208.849 Y156.24
G1 X178.104 Y125.495 E87.25956
G0 X177.538 Y125.495
G1 X208.849 Y156.806 E88.73233
G0 X208.849 Y157.372
G1 X176.973 Y125.495 E90.2317
G0 X176.407 Y125.495
G1 X208.849 Y157.937 E91.75767
G0 X208.849 Y158.503
G1 X175.841 Y125.495 E93.31027
G0 X175.276 Y125.495
G1 X208.849 Y159.069 E94.88946
G0 X208.849 Y159.635
G1 X174.71 Y125.495 E96.49528
G0 X174.144 Y125.495
G1 X208.849 Y160.2 E98.1277
G0 X208.849 Y160.766
G1 X173.579 Y125.495 E99.78671
G0 X173.013 Y125.495
G1 X208.849 Y161.332 E101.47235
G0 X208.849 Y161.897
G1 X172.447 Y125.495 E103.18459
G0 X171.882 Y125.495
G1 X208.849 Y162.463 E104.92343
G0 X208.849 Y163.029
G1 X171.316 Y125.495 E106.68889
G0 X170.75 Y125.495
G1 X208.849 Y163.594 E108.48095
G0 X208.849 Y164.16
G1 X170.185 Y125.495 E110.29961
G0 X169.619 Y125.495
G1 X208.849 Y164.726 E112.14489
G0 X208.849 Y165.291
G1 X169.053 Y125.495 E114.01677
G0 X168.487 Y125.495
G1 X208.849 Y165.857 E115.91528
G0 X208.849 Y166.423
G1 X167.922 Y125.495 E117.84038
G0 X167.356 Y125.495
G1 X208.849 Y166.988 E119.79209
G0 X208.849 Y167.554
G1 X166.79 Y125.495 E121.77041
G0 X166.225 Y125.495
G1 X208.849 Y168.12 E123.77534
G0 X208.849 Y168.685
G1 X165.659 Y125.495 E125.80686
G0 X165.093 Y125.495
G1 X208.849 Y169.251 E127.86501
G0 X208.849 Y169.817
G1 X164.528 Y125.495 E129.94976
G0 X163.962 Y125.495
G1 X208.849 Y170.383 E132.06113
G0 X208.849 Y170.948
G1 X163.396 Y125.495 E134.1991
G0 X162.831 Y125.495
G1 X208.849 Y171.514 E136.36367
G0 X208.849 Y172.08
G1 X162.265 Y125.495 E138.55486
G0 X161.699 Y125.495
G1 X208.849 Y172.645 E140.77265
G0 X208.849 Y173.211
G1 X161.134 Y125.495 E143.01704
G0 X160.568 Y125.495
G1 X208.849 Y173.777 E145.28806
G0 X208.849 Y174.342
G1 X160.002 Y125.495 E147.58567
G0 X159.437 Y125.495
G1 X208.444 Y174.503 E149.89083
G0 X207.878 Y174.503
G1 X158.871 Y125.495 E152.19599
G0 X158.305 Y125.495
G1 X207.313 Y174.503 E154.50118
G0 X206.747 Y174.503
G1 X157.739 Y125.495 E156.80637
G0 X157.174 Y125.495
G1 X206.181 Y174.503 E159.11153
G0 X205.616 Y174.503
G1 X156.608 Y125.495 E161.41672
G0 X156.042 Y125.495
G1 X205.05 Y174.503 E163.7219
G0 X204.484 Y174.503
G1 X155.477 Y125.495 E166.02706
G0 X154.911 Y125.495
G1 X203.918 Y174.503 E168.33223
G0 X203.353 Y174.503
G1 X154.345 Y125.495 E170.63741
G0 X153.78 Y125.495
G1 X202.787 Y174.503 E172.94258
G0 X202.221 Y174.503
G1 X153.214 Y125.495 E175.24774
G0 X152.648 Y125.495
G1 X201.656 Y174.503 E177.55292
G0 X201.09 Y174.503
G1 X152.083 Y125.495 E179.85809
G0 X151.517 Y125.495
G1 X200.524 Y174.503 E182.16325
G0 X199.959 Y174.503
G1 X150.951 Y125.495 E184.46843
G0 X150.386 Y125.495
G1 X199.393 Y174.503 E186.7736
G0 X198.827 Y174.503
G1 X149.82 Y125.495 E189.07876
G0 X149.254 Y125.495
G1 X198.262 Y174.503 E191.38395
G0 X197.696 Y174.503
G1 X148.688 Y125.495 E193.68913
G0 X148.123 Y125.495
G1 X197.13 Y174.503 E195.99429
G0 X196.565 Y174.503
G1 X147.557 Y125.495 E198.29948
G0 X146.991 Y125.495
G1 X195.999 Y174.503 E200.60467
G0 X195.433 Y174.503
G1 X146.426 Y125.495 E202.90983
G0 X145.86 Y125.495
G1 X194.868 Y174.503 E205.21502
G0 X194.302 Y174.503
G1 X145.294 Y125.495 E207.5202
G0 X144.729 Y125.495
G1 X193.736 Y174.503 E209.82536
G0 X193.17 Y174.503
G1 X144.163 Y125.495 E212.13053
G0 X143.597 Y125.495
G1 X192.605 Y174.503 E214.43571
G0 X192.039 Y174.503
G1 X143.032 Y125.495 E216.74088
G0 X142.466 Y125.495
G1 X191.473 Y174.503 E219.04604
G0 X190.908 Y174.503
G1 X141.9 Y125.495 E221.35122
G0 X141.335 Y125.495
G1 X190.342 Y174.503 E223.65639
G0 X189.776 Y174.503
G1 X140.769 Y125.495 E225.96155
G0 X140.203 Y125.495
G1 X189.211 Y174.503 E228.26674
G0 X188.645 Y174.503
G1 X139.638 Y125.495 E230.5719
G0 X139.072 Y125.495
G1 X188.079 Y174.503 E232.87706
G0 X187.514 Y174.503
G1 X138.506 Y125.495 E235.18225
G0 X137.94 Y125.495
G1 X186.948 Y174.503 E237.48743
G0 X186.382 Y174.503
G1 X137.375 Y125.495 E239.79259
G0 X136.809 Y125.495
G1 X185.817 Y174.503 E242.09778
G0 X185.251 Y174.503
G1 X136.243 Y125.495 E244.40297
G0 X135.678 Y125.495
G1 X184.685 Y174.503 E246.70813
G0 X184.119 Y174.503
G1 X135.112 Y125.495 E249.01329
G0 X134.546 Y125.495
G1 X183.554 Y174.503 E251.31848
G0 X182.988 Y174.503
G1 X133.981 Y125.495 E253.62364
G0 X133.415 Y125.495
G1 X182.422 Y174.503 E255.9288
G0 X181.857 Y174.503
G1 X132.849 Y125.495 E258.23399
G0 X132.284 Y125.495
G1 X181.291 Y174.503 E260.53915
G0 X180.725 Y174.503
G1 X131.718 Y125.495 E262.84431
G0 X131.152 Y125.495
G1 X180.16 Y174.503 E265.1495
G0 X179.594 Y174.503
G1 X130.587 Y125.495 E267.45466
G0 X130.021 Y125.495
G1 X179.028 Y174.503 E269.75983
G0 X178.463 Y174.503
G1 X129.455 Y125.495 E272.06501
G0 X128.89 Y125.495
G1 X177.897 Y174.503 E274.37017
G0 X177.331 Y174.503
G1 X128.324 Y125.495 E276.67534
G0 X127.758 Y125.495
G1 X176.766 Y174.503 E278.98052
G0 X176.2 Y174.503
G1 X127.192 Y125.495 E281.28571
G0 X126.627 Y125.495
G1 X175.634 Y174.503 E283.59087
G0 X175.069 Y174.503
G1 X126.061 Y125.495 E285.89606
G0 X125.495 Y125.495
G1 X174.503 Y174.503 E288.20124
G0 X173.937 Y174.503
G1 X124.93 Y125.495 E290.50641
G0 X124.364 Y125.495
G1 X173.371 Y174.503 E292.81157
G0 X172.806 Y174.503
G1 X123.798 Y125.495 E295.11675
G0 X123.233 Y125.495
G1 X172.24 Y174.503 E297.42192
G0 X171.674 Y174.503
G1 X122.667 Y125.495 E299.72708
G0 X122.101 Y125.495
G1 X171.109 Y174.503 E302.03227
G0 X170.543 Y174.503
G1 X121.536 Y125.495 E304.33743
G0 X120.97 Y125.495
G1 X169.977 Y174.503 E306.64259
G0 X169.412 Y174.503
G1 X120.404 Y125.495 E308.94778
G0 X119.839 Y125.495
G1 X168.846 Y174.503 E311.25294
G0 X168.28 Y174.503
G1 X119.273 Y125.495 E313.5581
G0 X118.707 Y125.495
G1 X167.715 Y174.503 E315.86329
G0 X167.149 Y174.503
G1 X118.141 Y125.495 E318.16847
G0 X117.576 Y125.495
G1 X166.583 Y174.503 E320.47364
G0 X166.018 Y174.503
G1 X117.01 Y125.495 E322.77882
G0 X116.444 Y125.495
G1 X165.452 Y174.503 E325.08401
G0 X164.886 Y174.503
G1 X115.879 Y125.495 E327.38917
G0 X115.313 Y125.495
G1 X164.321 Y174.503 E329.69436
G0 X163.755 Y174.503
G1 X114.747 Y125.495 E331.99954
G0 X114.182 Y125.495
G1 X163.189 Y174.503 E334.30471
G0 X162.623 Y174.503
G1 X113.616 Y125.495 E336.60987
G0 X113.05 Y125.495
G1 X162.058 Y174.503 E338.91505
G0 X161.492 Y174.503
G1 X112.485 Y125.495 E341.22022
G0 X111.919 Y125.495
G1 X160.926 Y174.503 E343.52538
G0 X160.361 Y174.503
G1 X111.353 Y125.495 E345.83057
G0 X110.788 Y125.495
G1 X159.795 Y174.503 E348.13573
G0 X159.229 Y174.503
G1 X110.222 Y125.495 E350.44089
G0 X109.656 Y125.495
G1 X158.664 Y174.503 E352.74608
G0 X158.098 Y174.503
G1 X109.091 Y125.495 E355.05124
G0 X108.525 Y125.495
G1 X157.532 Y174.503 E357.3564
G0 X156.967 Y174.503
G1 X107.959 Y125.495 E359.66159
G0 X107.393 Y125.495
G1 X156.401 Y174.503 E361.96677
G0 X155.835 Y174.503
G1 X106.828 Y125.495 E364.27194
G0 X106.262 Y125.495
G1 X155.27 Y174.503 E366.57712
G0 X154.704 Y174.503
G1 X105.696 Y125.495 E368.88231
G0 X105.131 Y125.495
G1 X154.138 Y174.503 E371.18747
G0 X153.572 Y174.503
G1 X104.565 Y125.495 E373.49263
G0 X103.999 Y125.495
G1 X153.007 Y174.503 E375.79782
G0 X152.441 Y174.503
G1 X103.434 Y125.495 E378.10298
G0 X102.868 Y125.495
G1 X151.875 Y174.503 E380.40815
G0 X151.31 Y174.503
G1 X102.302 Y125.495 E382.71333
G0 X101.737 Y125.495
G1 X150.744 Y174.503 E385.01849
G0 X150.178 Y174.503
G1 X101.171 Y125.495 E387.32366
G0 X100.605 Y125.495
G1 X149.613 Y174.503 E389.62884
G0 X149.047 Y174.503
G1 X100.04 Y125.495 E391.934
G0 X99.474 Y125.495
G1 X148.481 Y174.503 E394.23917
G0 X147.916 Y174.503
G1 X98.908 Y125.495 E396.54435
G0 X98.342 Y125.495
G1 X147.35 Y174.503 E398.84954
G0 X146.784 Y174.503
G1 X97.777 Y125.495 E401.1547
G0 X97.211 Y125.495
G1 X146.219 Y174.503 E403.45989
G0 X145.653 Y174.503
G1 X96.645 Y125.495 E405.76507
G0 X96.08 Y125.495
G1 X145.087 Y174.503 E408.07024
G0 X144.522 Y174.503
G1 X95.514 Y125.495 E410.37542
G0 X94.948 Y125.495
G1 X143.956 Y174.503 E412.68061
G0 X143.39 Y174.503
G1 X94.383 Y125.495 E414.98577
G0 X93.817 Y125.495
G1 X142.824 Y174.503 E417.29093
G0 X142.259 Y174.503
G1 X93.251 Y125.495 E419.59612
G0 X92.686 Y125.495
G1 X141.693 Y174.503 E421.90128
G0 X141.127 Y174.503
G1 X92.12 Y125.495 E424.20645
G0 X91.554 Y125.495
G1 X140.562 Y174.503 E426.51163
G0 X139.996 Y174.503
G1 X91.149 Y125.656 E428.80924
G0 X91.149 Y126.222
G1 X139.43 Y174.503 E431.08023
G0 X138.865 Y174.503
G1 X91.149 Y126.787 E433.32465
G0 X91.149 Y127.353
G1 X138.299 Y174.503 E435.54244
G0 X137.733 Y174.503
G1 X91.149 Y127.919 E437.73361
G0 X91.149 Y128.484
G1 X137.168 Y174.503 E439.8982
G0 X136.602 Y174.503
G1 X91.149 Y129.05 E442.03617
G0 X91.149 Y129.616
G1 X136.036 Y174.503 E444.14752
G0 X135.471 Y174.503
G1 X91.149 Y130.181 E446.23229
G0 X91.149 Y130.747
G1 X134.905 Y174.503 E448.29044
G0 X134.339 Y174.503
G1 X91.149 Y131.313 E450.32196
G0 X91.149 Y131.878
G1 X133.773 Y174.503 E452.32689
G0 X133.208 Y174.503
G1 X91.149 Y132.444 E454.30521
G0 X91.149 Y133.01
G1 X132.642 Y174.503 E456.25692
G0 X132.076 Y174.503
G1 X91.149 Y133.576 E458.182
G0 X91.149 Y134.141
G1 X131.511 Y174.503 E460.0805
G0 X130.945 Y174.503
G1 X91.149 Y134.707 E461.95239
G0 X91.149 Y135.273
G1 X130.379 Y174.503 E463.79764
G0 X129.814 Y174.503
G1 X91.149 Y135.838 E465.61633
G0 X91.149 Y136.404
G1 X129.248 Y174.503 E467.40839
G0 X128.682 Y174.503
