;FLAVOR:Marlin
;TIME:8518
;Filament used: 7.82908m
;Layer height: 0.2
;MINX:79.8
;MINY:114.39
;MINZ:0.2
;MAXX:220.2
;MAXY:186.098
;MAXZ:20.6
;Generated with Cura_SteamEngine 4.10.0
M140 S60
M105
M190 S60
M104 S200
M105
M109 S200
M82 ;absolute extrusion mode
; Ender 3 Custom Start G-code
G92 E0 ; Reset Extruder
G28 ; Home all axes
G1 Z2.0 F3000 ; Move Z Axis up little to prevent scratching of Heat Bed
G1 X0.1 Y20 Z0.3 F5000.0 ; Move to start position
G1 X0.1 Y200.0 Z0.3 F1500.0 E15 ; Draw the first line
G1 X0.4 Y200.0 Z0.3 F5000.0 ; Move to side a little
G1 X0.4 Y20 Z0.3 F1500.0 E30 ; Draw the second line
G92 E0 ; Reset Extruder
G1 Z2.0 F3000 ; Move Z Axis up little to prevent scratching of Heat Bed
G1 X5 Y20 Z0.3 F5000.0 ; Move over to prevent blob squish
G92 E0
G92 E0
G1 F1500 E-6.5
;LAYER_COUNT:103
;LAYER:0
M107
G0 F1200 X84.407 Y116.075 Z0.2
;TYPE:SKIRT
G1 F1500 E0
G1 F1200 X85.183 Y115.613 E0.03004
G1 X85.997 Y115.222 E0.06007
G1 X86.842 Y114.903 E0.09011
G1 X87.712 Y114.661 E0.12015
G1 X88.6 Y114.497 E0.15018
G1 X89.723 Y114.403 E0.18766
G1 X90.043 Y114.394 E0.19831
G1 X90.33 Y114.39 E0.20786
G1 X209.293 Y114.39 E4.16458
G1 X210.137 Y114.401 E4.19266
G1 X211.039 Y114.454 E4.22271
G1 X211.932 Y114.586 E4.25273
G1 X212.81 Y114.797 E4.28277
G1 X213.666 Y115.085 E4.31281
G1 X214.493 Y115.447 E4.34283
G1 X215.285 Y115.882 E4.37289
G1 X216.036 Y116.384 E4.40293
G1 X216.739 Y116.951 E4.43297
G1 X217.389 Y117.578 E4.46301
G1 X217.981 Y118.26 E4.49305
G1 X218.511 Y118.991 E4.52308
G1 X218.973 Y119.767 E4.55312
G1 X219.366 Y120.58 E4.58315
G1 X219.684 Y121.425 E4.61318
G1 X219.927 Y122.295 E4.64322
G1 X220.092 Y123.183 E4.67326
G1 X220.187 Y124.313 E4.71098
G1 X220.196 Y124.633 E4.72163
G1 X220.2 Y124.92 E4.73117
G1 X220.199 Y138.41 E5.17985
G1 X220.189 Y139.126 E5.20367
G1 X220.142 Y139.972 E5.23185
G1 X220.016 Y141.267 E5.27513
G1 X220.011 Y141.386 E5.27909
G1 X219.852 Y143.062 E5.33508
G1 X219.683 Y145.622 E5.42041
G1 X219.587 Y148.154 E5.50469
G1 X219.562 Y150.724 E5.59017
G1 X219.609 Y153.221 E5.67324
G1 X219.73 Y155.798 E5.75904
G1 X219.919 Y158.305 E5.84266
G1 X220.128 Y160.348 E5.91097
G1 X220.154 Y160.639 E5.92068
G1 X220.185 Y161.185 E5.93887
G1 X220.195 Y161.515 E5.94985
G1 X220.2 Y161.824 E5.96013
G1 X220.199 Y175.302 E6.40841
G1 X220.189 Y176.029 E6.4326
G1 X220.137 Y176.931 E6.46265
G1 X220.005 Y177.824 E6.49267
G1 X219.794 Y178.703 E6.52274
G1 X219.507 Y179.559 E6.55276
G1 X219.145 Y180.386 E6.58279
G1 X218.711 Y181.178 E6.61283
G1 X218.209 Y181.929 E6.64287
G1 X217.643 Y182.632 E6.67289
G1 X217.016 Y183.283 E6.70295
G1 X216.335 Y183.875 E6.73297
G1 X215.604 Y184.405 E6.763
G1 X214.828 Y184.868 E6.79305
G1 X214.015 Y185.261 E6.82309
G1 X213.17 Y185.581 E6.85314
G1 X212.301 Y185.824 E6.88315
G1 X211.413 Y185.989 E6.91319
G1 X210.277 Y186.085 E6.95111
G1 X209.957 Y186.094 E6.96176
G1 X209.67 Y186.098 E6.9713
G1 X90.575 Y186.097 E10.93242
G1 X89.877 Y186.088 E10.95564
G1 X88.976 Y186.037 E10.98565
G1 X88.082 Y185.905 E11.01571
G1 X87.204 Y185.696 E11.04573
G1 X86.347 Y185.409 E11.07579
G1 X85.52 Y185.048 E11.1058
G1 X84.727 Y184.615 E11.13585
G1 X83.976 Y184.114 E11.16588
G1 X83.272 Y183.548 E11.19592
G1 X82.621 Y182.922 E11.22596
G1 X82.028 Y182.241 E11.25599
G1 X81.498 Y181.51 E11.28602
G1 X81.034 Y180.735 E11.31607
G1 X80.64 Y179.922 E11.34612
G1 X80.32 Y179.078 E11.37614
G1 X80.076 Y178.208 E11.40619
G1 X79.91 Y177.32 E11.43624
G1 X79.813 Y176.165 E11.47479
G1 X79.804 Y175.832 E11.48587
G1 X79.8 Y175.556 E11.49505
G1 X79.801 Y162.055 E11.94409
G1 X79.811 Y161.358 E11.96728
G1 X79.858 Y160.516 E11.99533
G1 X79.984 Y159.219 E12.03867
G1 X79.989 Y159.102 E12.04256
G1 X80.148 Y157.426 E12.09856
G1 X80.317 Y154.866 E12.18389
G1 X80.413 Y152.334 E12.26816
G1 X80.438 Y149.764 E12.35365
G1 X80.391 Y147.267 E12.43671
G1 X80.27 Y144.69 E12.52252
G1 X80.081 Y142.183 E12.60614
G1 X79.856 Y139.97 E12.68012
G1 X79.846 Y139.853 E12.68403
G1 X79.813 Y139.272 E12.70338
G1 X79.804 Y138.953 E12.714
G1 X79.8 Y138.665 E12.72358
G1 X79.801 Y125.111 E13.17438
G1 X79.811 Y124.446 E13.1965
G1 X79.865 Y123.544 E13.22656
G1 X79.998 Y122.651 E13.25659
G1 X80.209 Y121.773 E13.28662
G1 X80.498 Y120.917 E13.31667
G1 X80.861 Y120.09 E13.34671
G1 X81.295 Y119.299 E13.37672
G1 X81.798 Y118.548 E13.40678
G1 X82.366 Y117.846 E13.43682
G1 X82.993 Y117.196 E13.46685
G1 X83.675 Y116.604 E13.49689
G1 X84.407 Y116.075 E13.52693
G1 F1500 E7.02693
;MESH:new_bottom.stl
G0 F1200 X90.81 Y123.925
G0 X90.81 Y125.4
G0 X90.782 Y138.212
G0 X109.439 Y138.212
G0 X109.439 Y162.276
G0 X90.782 Y162.276
G0 X90.782 Y175.116
G0 X209.4 Y175.298
;TYPE:WALL-INNER
G1 F1500 E13.52693
G1 F1200 X90.6 Y175.298 E17.47823
G1 X90.6 Y162.094 E17.9174
G1 X109.257 Y162.094 E18.53794
G1 X109.257 Y138.394 E19.3262
G1 X90.6 Y138.394 E19.94674
G1 X90.6 Y125.19 E20.3859
G1 X209.4 Y125.19 E24.33721
G1 X209.4 Y138.394 E24.77637
G1 X190.743 Y138.394 E25.39691
G1 X190.743 Y162.094 E26.18517
G1 X209.4 Y162.094 E26.80571
G1 X209.4 Y175.298 E27.24487
G0 X209.8 Y175.698
;TYPE:WALL-OUTER
G1 X90.2 Y175.698 E31.22279
G1 X90.2 Y161.694 E31.68856
G1 X108.857 Y161.694 E32.3091
G1 X108.857 Y138.794 E33.07075
G1 X90.2 Y138.794 E33.69129
G1 X90.2 Y124.79 E34.15706
G1 X209.8 Y124.79 E38.13497
G1 X209.8 Y138.794 E38.60075
G1 X191.143 Y138.794 E39.22128
G1 X191.143 Y161.694 E39.98294
G1 X209.8 Y161.694 E40.60347
G1 X209.8 Y175.698 E41.06925
G0 X209.53 Y175.428
G0 X209.29 Y174.908
G0 X209.01 Y174.908
;TYPE:SKIN
G1 X90.99 Y174.908 E44.99461
G1 X90.99 Y162.484 E45.40783
G1 X109.647 Y162.484 E46.02837
G1 X109.647 Y138.004 E46.84258
G1 X90.99 Y138.004 E47.46311
G1 X90.99 Y125.58 E47.87634
G1 X209.01 Y125.58 E51.8017
G1 X209.01 Y138.004 E52.21492
G1 X190.353 Y138.004 E52.83545
G1 X190.353 Y162.484 E53.64966
G1 X209.01 Y162.484 E54.2702
G1 X209.01 Y174.908 E54.68342
G1 F1500 E48.18342
G0 F1200 X209.29 Y174.908
G0 X209.29 Y161.934
G0 X190.915 Y161.922
G0 X190.915 Y138.566
G0 X209.29 Y138.554
G0 X209.29 Y126.258
G0 X208.848 Y126.258
G1 F1500 E54.68342
G1 F1200 X208.329 Y125.739 E54.70783
G0 X207.764 Y125.739
G1 X208.848 Y126.824 E54.75884
G0 X208.848 Y127.39
G1 X207.198 Y125.739 E54.83648
G0 X206.632 Y125.739
G1 X208.848 Y127.955 E54.94071
G0 X208.848 Y128.521
G1 X206.067 Y125.739 E55.07155
G0 X205.501 Y125.739
G1 X208.848 Y129.087 E55.229
G0 X208.848 Y129.652
G1 X204.935 Y125.739 E55.41306
G0 X204.37 Y125.739
G1 X208.848 Y130.218 E55.62371
G0 X208.848 Y130.784
G1 X203.804 Y125.739 E55.86099
G0 X203.238 Y125.739
G1 X208.848 Y131.35 E56.12489
G0 X208.848 Y131.915
G1 X202.673 Y125.739 E56.41537
G0 X202.107 Y125.739
G1 X208.848 Y132.481 E56.73247
G0 X208.848 Y133.047
G1 X201.541 Y125.739 E57.07619
G0 X200.976 Y125.739
G1 X208.848 Y133.612 E57.44649
G0 X208.848 Y134.178
G1 X200.41 Y125.739 E57.84341
G0 X199.844 Y125.739
G1 X208.848 Y134.744 E58.26695
G0 X208.848 Y135.309
G1 X199.278 Y125.739 E58.7171
G0 X198.713 Y125.739
G1 X208.848 Y135.875 E59.19384
G0 X208.848 Y136.441
G1 X198.147 Y125.739 E59.69721
G0 X197.581 Y125.739
G1 X208.848 Y137.006 E60.22717
G0 X208.848 Y137.572
G1 X197.016 Y125.739 E60.78373
G0 X196.45 Y125.739
G1 X208.554 Y137.844 E61.35309
G0 X207.989 Y137.844
G1 X195.884 Y125.739 E61.92248
G0 X195.319 Y125.739
G1 X207.423 Y137.844 E62.49183
G0 X206.857 Y137.844
G1 X194.753 Y125.739 E63.06119
G0 X194.187 Y125.739
G1 X206.292 Y137.844 E63.63057
G0 X205.726 Y137.844
G1 X193.622 Y125.739 E64.19993
G0 X193.056 Y125.739
G1 X205.16 Y137.844 E64.76929
G0 X204.594 Y137.844
G1 X192.49 Y125.739 E65.33865
G0 X191.925 Y125.739
G1 X204.029 Y137.844 E65.90801
G0 X203.463 Y137.844
G1 X191.359 Y125.739 E66.47737
G0 X190.793 Y125.739
G1 X202.897 Y137.844 E67.04673
G0 X202.332 Y137.844
G1 X190.227 Y125.739 E67.61611
G0 X189.662 Y125.739
G1 X201.766 Y137.844 E68.18547
G0 X201.2 Y137.844
G1 X189.096 Y125.739 E68.75483
G0 X188.53 Y125.739
G1 X200.635 Y137.844 E69.32421
G0 X200.069 Y137.844
G1 X187.965 Y125.739 E69.89357
G0 X187.399 Y125.739
G1 X199.503 Y137.844 E70.46292
G0 X198.938 Y137.844
G1 X186.833 Y125.739 E71.03231
G0 X186.268 Y125.739
G1 X198.372 Y137.844 E71.60167
G0 X197.806 Y137.844
G1 X185.702 Y125.739 E72.17102
G0 X185.136 Y125.739
G1 X197.241 Y137.844 E72.74041
G0 X196.675 Y137.844
G1 X184.571 Y125.739 E73.30976
G0 X184.005 Y125.739
G1 X196.109 Y137.844 E73.87912
G0 X195.544 Y137.844
G1 X183.439 Y125.739 E74.44851
G0 X182.874 Y125.739
G1 X194.978 Y137.844 E75.01786
G0 X194.412 Y137.844
G1 X182.308 Y125.739 E75.58722
G0 X181.742 Y125.739
G1 X193.846 Y137.844 E76.15658
G0 X193.281 Y137.844
G1 X181.177 Y125.739 E76.72594
G0 X180.611 Y125.739
G1 X192.715 Y137.844 E77.2953
G0 X192.149 Y137.844
G1 X180.045 Y125.739 E77.86466
G0 X179.479 Y125.739
G1 X191.584 Y137.844 E78.43404
G0 X191.018 Y137.844
G1 X178.914 Y125.739 E79.0034
G0 X178.348 Y125.739
G1 X190.452 Y137.844 E79.57276
G0 X190.192 Y138.149
G1 X177.782 Y125.739 E80.15648
G0 X177.217 Y125.739
G1 X190.192 Y138.715 E80.76681
G0 X190.192 Y139.28
G1 X176.651 Y125.739 E81.40374
G0 X176.085 Y125.739
G1 X190.192 Y139.846 E82.06729
G0 X190.192 Y140.412
G1 X175.52 Y125.739 E82.75744
G0 X174.954 Y125.739
G1 X190.192 Y140.978 E83.47421
G0 X190.192 Y141.543
G1 X174.388 Y125.739 E84.21758
G0 X173.823 Y125.739
G1 X190.192 Y142.109 E84.98755
G0 X190.192 Y142.675
G1 X173.257 Y125.739 E85.78415
G0 X172.691 Y125.739
G1 X190.192 Y143.24 E86.60734
G0 X190.192 Y143.806
G1 X172.126 Y125.739 E87.45713
G0 X171.56 Y125.739
G1 X190.192 Y144.372 E88.33355
G0 X190.192 Y144.937
G1 X170.994 Y125.739 E89.23656
G0 X170.428 Y125.739
G1 X190.192 Y145.503 E90.1662
G0 X190.192 Y146.069
G1 X169.863 Y125.739 E91.12244
G0 X169.297 Y125.739
G1 X190.192 Y146.634 E92.10528
G0 X190.192 Y147.2
G1 X168.731 Y125.739 E93.11474
G0 X168.166 Y125.739
G1 X190.192 Y147.766 E94.1508
G0 X190.192 Y148.331
G1 X167.6 Y125.739 E95.21345
G0 X167.034 Y125.739
G1 X190.192 Y148.897 E96.30274
G0 X190.192 Y149.463
G1 X166.469 Y125.739 E97.41862
G0 X165.903 Y125.739
G1 X190.192 Y150.028 E98.5611
G0 X190.192 Y150.594
G1 X165.337 Y125.739 E99.7302
G0 X164.772 Y125.739
G1 X190.192 Y151.16 E100.9259
G0 X190.192 Y151.726
G1 X164.206 Y125.739 E102.14823
G0 X163.64 Y125.739
G1 X190.192 Y152.291 E103.39715
G0 X190.192 Y152.857
G1 X163.075 Y125.739 E104.67268
G0 X162.509 Y125.739
G1 X190.192 Y153.423 E105.97482
G0 X190.192 Y153.988
G1 X161.943 Y125.739 E107.30357
G0 X161.378 Y125.739
G1 X190.192 Y154.554 E108.65891
G0 X190.192 Y155.12
G1 X160.812 Y125.739 E110.04088
G0 X160.246 Y125.739
G1 X190.192 Y155.685 E111.44945
G0 X190.192 Y156.251
G1 X159.68 Y125.739 E112.88464
G0 X159.115 Y125.739
G1 X190.192 Y156.817 E114.34643
G0 X190.192 Y157.382
G1 X158.549 Y125.739 E115.83482
G0 X157.983 Y125.739
G1 X190.192 Y157.948 E117.34983
G0 X190.192 Y158.514
G1 X157.418 Y125.739 E118.89145
G0 X156.852 Y125.739
G1 X190.192 Y159.079 E120.45966
G0 X190.192 Y159.645
G1 X156.286 Y125.739 E122.05449
G0 X155.721 Y125.739
G1 X190.192 Y160.211 E123.67593
G0 X190.192 Y160.776
G1 X155.155 Y125.739 E125.32396
G0 X154.589 Y125.739
G1 X190.192 Y161.342 E126.99861
G0 X190.192 Y161.908
G1 X154.024 Y125.739 E128.69987
G0 X153.458 Y125.739
G1 X190.192 Y162.474 E130.42775
G0 X190.362 Y162.643
G1 X202.465 Y174.747 E130.99706
G0 X201.9 Y174.747
G1 X152.892 Y125.739 E133.30225
G0 X152.327 Y125.739
G1 X201.334 Y174.747 E135.60741
G0 X200.768 Y174.747
G1 X151.761 Y125.739 E137.91257
G0 X151.195 Y125.739
G1 X200.203 Y174.747 E140.21776
G0 X199.637 Y174.747
G1 X150.63 Y125.739 E142.52292
G0 X150.064 Y125.739
G1 X199.071 Y174.747 E144.82808
G0 X198.506 Y174.747
G1 X149.498 Y125.739 E147.13327
G0 X148.932 Y125.739
G1 X197.94 Y174.747 E149.43845
G0 X197.374 Y174.747
G1 X148.367 Y125.739 E151.74362
G0 X147.801 Y125.739
G1 X196.809 Y174.747 E154.0488
G0 X196.243 Y174.747
G1 X147.235 Y125.739 E156.35399
G0 X146.67 Y125.739
G1 X195.677 Y174.747 E158.65915
G0 X195.111 Y174.747
G1 X146.104 Y125.739 E160.96431
G0 X145.538 Y125.739
G1 X194.546 Y174.747 E163.2695
G0 X193.98 Y174.747
G1 X144.973 Y125.739 E165.57466
G0 X144.407 Y125.739
G1 X193.414 Y174.747 E167.87983
G0 X192.849 Y174.747
G1 X143.841 Y125.739 E170.18501
G0 X143.276 Y125.739
G1 X192.283 Y174.747 E172.49017
G0 X191.717 Y174.747
G1 X142.71 Y125.739 E174.79534
G0 X142.144 Y125.739
G1 X191.152 Y174.747 E177.10052
G0 X190.586 Y174.747
G1 X141.579 Y125.739 E179.40569
G0 X141.013 Y125.739
G1 X190.02 Y174.747 E181.71085
G0 X189.455 Y174.747
G1 X140.447 Y125.739 E184.01603
G0 X139.881 Y125.739
G1 X188.889 Y174.747 E186.32122
G0 X188.323 Y174.747
G1 X139.316 Y125.739 E188.62638
G0 X138.75 Y125.739
G1 X187.758 Y174.747 E190.93157
G0 X187.192 Y174.747
G1 X138.184 Y125.739 E193.23675
G0 X137.619 Y125.739
G1 X186.626 Y174.747 E195.54192
G0 X186.061 Y174.747
G1 X137.053 Y125.739 E197.8471
G0 X136.487 Y125.739
G1 X185.495 Y174.747 E200.15229
G0 X184.929 Y174.747
G1 X135.922 Y125.739 E202.45745
G0 X135.356 Y125.739
G1 X184.363 Y174.747 E204.76261
G0 X183.798 Y174.747
G1 X134.79 Y125.739 E207.0678
G0 X134.225 Y125.739
G1 X183.232 Y174.747 E209.37296
G0 X182.666 Y174.747
G1 X133.659 Y125.739 E211.67813
G0 X133.093 Y125.739
G1 X182.101 Y174.747 E213.98331
G0 X181.535 Y174.747
G1 X132.528 Y125.739 E216.28847
G0 X131.962 Y125.739
G1 X180.969 Y174.747 E218.59364
G0 X180.404 Y174.747
G1 X131.396 Y125.739 E220.89882
G0 X130.831 Y125.739
G1 X179.838 Y174.747 E223.20399
G0 X179.272 Y174.747
G1 X130.265 Y125.739 E225.50915
G0 X129.699 Y125.739
G1 X178.707 Y174.747 E227.81433
G0 X178.141 Y174.747
G1 X129.133 Y125.739 E230.11952
G0 X128.568 Y125.739
G1 X177.575 Y174.747 E232.42468
G0 X177.01 Y174.747
G1 X128.002 Y125.739 E234.72987
G0 X127.436 Y125.739
G1 X176.444 Y174.747 E237.03505
G0 X175.878 Y174.747
G1 X126.871 Y125.739 E239.34022
G0 X126.305 Y125.739
G1 X175.312 Y174.747 E241.64538
G0 X174.747 Y174.747
G1 X125.739 Y125.739 E243.95057
G0 X125.174 Y125.739
G1 X174.181 Y174.747 E246.25573
G0 X173.615 Y174.747
G1 X124.608 Y125.739 E248.56089
G0 X124.042 Y125.739
G1 X173.05 Y174.747 E250.86608
G0 X172.484 Y174.747
G1 X123.477 Y125.739 E253.17124
G0 X122.911 Y125.739
G1 X171.918 Y174.747 E255.4764
G0 X171.353 Y174.747
G1 X122.345 Y125.739 E257.78159
G0 X121.78 Y125.739
G1 X170.787 Y174.747 E260.08675
G0 X170.221 Y174.747
G1 X121.214 Y125.739 E262.39191
G0 X120.648 Y125.739
G1 X169.656 Y174.747 E264.6971
G0 X169.09 Y174.747
G1 X120.082 Y125.739 E267.00229
G0 X119.517 Y125.739
G1 X168.524 Y174.747 E269.30745
G0 X167.959 Y174.747
G1 X118.951 Y125.739 E271.61263
G0 X118.385 Y125.739
G1 X167.393 Y174.747 E273.91782
G0 X166.827 Y174.747
G1 X117.82 Y125.739 E276.22298
G0 X117.254 Y125.739
G1 X166.262 Y174.747 E278.52817
G0 X165.696 Y174.747
G1 X116.688 Y125.739 E280.83335
G0 X116.123 Y125.739
G1 X165.13 Y174.747 E283.13852
G0 X164.564 Y174.747
G1 X115.557 Y125.739 E285.44368
G0 X114.991 Y125.739
G1 X163.999 Y174.747 E287.74887
G0 X163.433 Y174.747
G1 X114.426 Y125.739 E290.05403
G0 X113.86 Y125.739
G1 X162.867 Y174.747 E292.35919
G0 X162.302 Y174.747
G1 X113.294 Y125.739 E294.66438
G0 X112.729 Y125.739
G1 X161.736 Y174.747 E296.96954
G0 X161.17 Y174.747
G1 X112.163 Y125.739 E299.2747
G0 X111.597 Y125.739
G1 X160.605 Y174.747 E301.57989
G0 X160.039 Y174.747
G1 X111.032 Y125.739 E303.88505
G0 X110.466 Y125.739
G1 X159.473 Y174.747 E306.19021
G0 X158.908 Y174.747
G1 X109.9 Y125.739 E308.4954
G0 X109.334 Y125.739
G1 X158.342 Y174.747 E310.80059
G0 X157.776 Y174.747
G1 X108.769 Y125.739 E313.10575
G0 X108.203 Y125.739
G1 X157.211 Y174.747 E315.41093
G0 X156.645 Y174.747
G1 X107.637 Y125.739 E317.71612
G0 X107.072 Y125.739
G1 X156.079 Y174.747 E320.02128
G0 X155.513 Y174.747
G1 X106.506 Y125.739 E322.32645
G0 X105.94 Y125.739
G1 X154.948 Y174.747 E324.63163
G0 X154.382 Y174.747
G1 X105.375 Y125.739 E326.93679
G0 X104.809 Y125.739
G1 X153.816 Y174.747 E329.24196
G0 X153.251 Y174.747
G1 X104.243 Y125.739 E331.54714
G0 X103.678 Y125.739
G1 X152.685 Y174.747 E333.8523
G0 X152.119 Y174.747
G1 X103.112 Y125.739 E336.15747
G0 X102.546 Y125.739
G1 X151.554 Y174.747 E338.46265
G0 X150.988 Y174.747
G1 X101.981 Y125.739 E340.76782
G0 X101.415 Y125.739
G1 X150.422 Y174.747 E343.07298
G0 X149.857 Y174.747
G1 X100.849 Y125.739 E345.37816
