;FLAVOR:Marlin
;TIME:15221
;Filament used: 16.3113m
;Layer height: 0.2
;MINX:74.452
;MINY:80.752
;MINZ:0.2
;MAXX:225.548
;MAXY:195.348
;MAXZ:8
;Generated with Cura_SteamEngine 4.10.0
M140 S60
M105
M190 S60
M104 S200
M105
M109 S200
M82 ;absolute extrusion mode
; Ender 3 Custom Start G-code
G92 E0 ; Reset Extruder
G28 ; Home all axes
G1 Z2.0 F3000 ; Move Z Axis up little to prevent scratching of Heat Bed
G1 X0.1 Y20 Z0.3 F5000.0 ; Move to start position
G1 X0.1 Y200.0 Z0.3 F1500.0 E15 ; Draw the first line
G1 X0.4 Y200.0 Z0.3 F5000.0 ; Move to side a little
G1 X0.4 Y20 Z0.3 F1500.0 E30 ; Draw the second line
G92 E0 ; Reset Extruder
G1 Z2.0 F3000 ; Move Z Axis up little to prevent scratching of Heat Bed
G1 X5 Y20 Z0.3 F5000.0 ; Move over to prevent blob squish
G92 E0
G92 E0
G1 F1500 E-6.5
;LAYER_COUNT:40
;LAYER:0
M107
G0 F1200 X77.633 Y83.569 Z0.2
;TYPE:SKIRT
G1 F1500 E0
G1 F1200 X78.314 Y82.976 E0.03003
G1 X79.046 Y82.446 E0.06009
G1 X79.821 Y81.983 E0.09012
G1 X80.634 Y81.59 E0.12015
G1 X81.479 Y81.27 E0.1502
G1 X82.348 Y81.027 E0.18022
G1 X83.236 Y80.861 E0.21026
G1 X84.375 Y80.765 E0.24828
G1 X84.696 Y80.756 E0.25896
G1 X84.982 Y80.752 E0.26848
G1 X214.641 Y80.752 E4.58095
G1 X215.485 Y80.763 E4.60902
G1 X216.387 Y80.816 E4.63908
G1 X217.28 Y80.948 E4.6691
G1 X218.158 Y81.159 E4.69914
G1 X219.014 Y81.447 E4.72917
G1 X219.841 Y81.809 E4.7592
G1 X220.633 Y82.244 E4.78925
G1 X221.384 Y82.746 E4.8193
G1 X222.087 Y83.313 E4.84934
G1 X222.737 Y83.94 E4.87938
G1 X223.329 Y84.622 E4.90941
G1 X223.859 Y85.353 E4.93944
G1 X224.321 Y86.129 E4.96948
G1 X224.714 Y86.942 E4.99952
G1 X225.032 Y87.787 E5.02955
G1 X225.275 Y88.657 E5.05959
G1 X225.44 Y89.545 E5.08963
G1 X225.535 Y90.675 E5.12735
G1 X225.544 Y90.995 E5.13799
G1 X225.548 Y91.282 E5.14754
G1 X225.548 Y113.482 E5.88591
G1 X225.544 Y114.579 E5.9224
G1 X225.548 Y115.117 E5.9403
G1 X225.548 Y137.381 E6.6808
G1 X225.544 Y138.501 E6.71805
G1 X225.548 Y139.031 E6.73568
G1 X225.548 Y161.281 E7.47572
G1 X225.544 Y162.401 E7.51297
G1 X225.548 Y162.931 E7.5306
G1 X225.547 Y184.538 E8.24925
G1 X225.538 Y185.265 E8.27343
G1 X225.487 Y186.167 E8.30348
G1 X225.356 Y187.061 E8.33353
G1 X225.147 Y187.939 E8.36355
G1 X224.861 Y188.796 E8.3936
G1 X224.5 Y189.624 E8.42364
G1 X224.068 Y190.416 E8.45365
G1 X223.567 Y191.168 E8.4837
G1 X223.001 Y191.872 E8.51375
G1 X222.376 Y192.523 E8.54376
G1 X221.695 Y193.117 E8.57382
G1 X220.964 Y193.648 E8.60387
G1 X220.19 Y194.112 E8.63388
G1 X219.377 Y194.506 E8.66393
G1 X218.533 Y194.826 E8.69395
G1 X217.663 Y195.071 E8.72402
G1 X216.776 Y195.237 E8.75403
G1 X215.625 Y195.335 E8.79245
G1 X215.304 Y195.344 E8.80313
G1 X215.018 Y195.348 E8.81264
G1 X85.227 Y195.347 E13.12951
G1 X84.529 Y195.338 E13.15273
G1 X83.628 Y195.287 E13.18274
G1 X82.734 Y195.155 E13.2128
G1 X81.856 Y194.946 E13.24282
G1 X80.999 Y194.659 E13.27288
G1 X80.172 Y194.298 E13.30289
G1 X79.379 Y193.865 E13.33294
G1 X78.628 Y193.364 E13.36297
G1 X77.924 Y192.798 E13.39301
G1 X77.273 Y192.172 E13.42305
G1 X76.68 Y191.491 E13.45309
G1 X76.15 Y190.76 E13.48312
G1 X75.686 Y189.985 E13.51316
G1 X75.292 Y189.172 E13.54321
G1 X74.972 Y188.328 E13.57323
G1 X74.728 Y187.458 E13.60328
G1 X74.562 Y186.57 E13.63333
G1 X74.465 Y185.415 E13.67188
G1 X74.456 Y185.082 E13.68296
G1 X74.452 Y184.806 E13.69214
G1 X74.452 Y162.619 E14.43008
G1 X74.456 Y161.499 E14.46734
G1 X74.452 Y160.969 E14.48496
G1 X74.452 Y138.719 E15.225
G1 X74.456 Y137.599 E15.26225
G1 X74.452 Y137.069 E15.27988
G1 X74.452 Y114.819 E16.01992
G1 X74.456 Y113.699 E16.05717
G1 X74.452 Y113.169 E16.0748
G1 X74.453 Y91.488 E16.79591
G1 X74.462 Y90.823 E16.81803
G1 X74.514 Y89.921 E16.84808
G1 X74.646 Y89.028 E16.87811
G1 X74.856 Y88.15 E16.90813
G1 X75.143 Y87.293 E16.93819
G1 X75.505 Y86.466 E16.96822
G1 X75.938 Y85.674 E16.99824
G1 X76.44 Y84.923 E17.02829
G1 X77.007 Y84.219 E17.05835
G1 X77.633 Y83.569 E17.08837
G1 F1500 E10.58837
;MESH:new_holder.stl(2)
G0 F1200 X85.072 Y90.287
G0 X85.072 Y91.372
G0 X214.566 Y91.734
G0 X214.748 Y112.848
;TYPE:WALL-INNER
G1 F1500 E17.08837
G1 F1200 X85.252 Y112.848 E21.39542
G1 X85.252 Y91.552 E22.10373
G1 X214.748 Y91.552 E26.41078
G1 X214.748 Y112.848 E27.11909
G0 X215.148 Y113.248
;TYPE:WALL-OUTER
G1 X84.852 Y113.248 E31.45275
G1 X84.852 Y91.152 E32.18767
G1 X215.148 Y91.152 E36.52133
G1 X215.148 Y113.248 E37.25625
G0 X214.878 Y112.978
G0 X214.638 Y112.458
G0 X214.358 Y112.458
;TYPE:SKIN
G1 X85.642 Y112.458 E41.53736
G1 X85.642 Y91.942 E42.21972
G1 X214.358 Y91.942 E46.50084
G1 X214.358 Y112.458 E47.1832
G0 X214.638 Y112.458
G0 X214.638 Y92.575
G0 X214.197 Y92.575
G1 X213.724 Y92.102 E47.20545
G0 X213.158 Y92.102
G1 X214.197 Y93.14 E47.2543
G0 X214.197 Y93.706
G1 X212.593 Y92.102 E47.32974
G0 X212.027 Y92.102
G1 X214.197 Y94.272 E47.43181
G0 X214.197 Y94.837
G1 X211.461 Y92.102 E47.56048
G0 X210.896 Y92.102
G1 X214.197 Y95.403 E47.71575
G0 X214.197 Y95.969
G1 X210.33 Y92.102 E47.89764
G0 X209.764 Y92.102
G1 X214.197 Y96.534 E48.10614
G0 X214.197 Y97.1
G1 X209.198 Y92.102 E48.34125
G0 X208.633 Y92.102
G1 X214.197 Y97.666 E48.60296
G0 X214.197 Y98.231
G1 X208.067 Y92.102 E48.89128
G0 X207.501 Y92.102
G1 X214.197 Y98.797 E49.20621
G0 X214.197 Y99.363
G1 X206.936 Y92.102 E49.54775
G0 X206.37 Y92.102
G1 X214.197 Y99.929 E49.9159
G0 X214.197 Y100.494
G1 X205.804 Y92.102 E50.31066
G0 X205.239 Y92.102
G1 X214.197 Y101.06 E50.73202
G0 X214.197 Y101.626
G1 X204.673 Y92.102 E51.18
G0 X204.107 Y92.102
G1 X214.197 Y102.191 E51.65458
G0 X214.197 Y102.757
G1 X203.542 Y92.102 E52.15576
G0 X202.976 Y92.102
G1 X214.197 Y103.323 E52.68356
G0 X214.197 Y103.888
G1 X202.41 Y92.102 E53.23796
G0 X201.845 Y92.102
G1 X214.197 Y104.454 E53.81896
G0 X214.197 Y105.02
G1 X201.279 Y92.102 E54.42658
G0 X200.713 Y92.102
G1 X214.197 Y105.585 E55.0608
G0 X214.197 Y106.151
G1 X200.147 Y92.102 E55.72165
G0 X199.582 Y92.102
G1 X214.197 Y106.717 E56.40909
G0 X214.197 Y107.282
G1 X199.016 Y92.102 E57.12314
G0 X198.45 Y92.102
G1 X214.197 Y107.848 E57.86381
G0 X214.197 Y108.414
G1 X197.885 Y92.102 E58.63107
G0 X197.319 Y92.102
G1 X214.197 Y108.98 E59.42496
G0 X214.197 Y109.545
G1 X196.753 Y92.102 E60.24545
G0 X196.188 Y92.102
G1 X214.197 Y110.111 E61.09254
G0 X214.197 Y110.677
G1 X195.622 Y92.102 E61.96625
G0 X195.056 Y92.102
G1 X214.197 Y111.242 E62.86656
G0 X214.197 Y111.808
G1 X194.491 Y92.102 E63.79347
G0 X193.925 Y92.102
G1 X214.12 Y112.297 E64.74338
G0 X213.554 Y112.297
G1 X193.359 Y92.102 E65.69329
G0 X192.794 Y92.102
G1 X212.989 Y112.297 E66.6432
G0 X212.423 Y112.297
G1 X192.228 Y92.102 E67.59311
G0 X191.662 Y92.102
G1 X211.857 Y112.297 E68.54302
G0 X211.291 Y112.297
G1 X191.097 Y92.102 E69.49291
G0 X190.531 Y92.102
G1 X210.726 Y112.297 E70.44282
G0 X210.16 Y112.297
G1 X189.965 Y92.102 E71.39273
G0 X189.399 Y92.102
G1 X209.594 Y112.297 E72.34264
G0 X209.029 Y112.297
G1 X188.834 Y92.102 E73.29256
G0 X188.268 Y92.102
G1 X208.463 Y112.297 E74.24247
G0 X207.897 Y112.297
G1 X187.702 Y92.102 E75.19238
G0 X187.137 Y92.102
G1 X207.332 Y112.297 E76.14229
G0 X206.766 Y112.297
G1 X186.571 Y92.102 E77.0922
G0 X186.005 Y92.102
G1 X206.2 Y112.297 E78.04211
G0 X205.635 Y112.297
G1 X185.44 Y92.102 E78.99202
G0 X184.874 Y92.102
G1 X205.069 Y112.297 E79.94193
G0 X204.503 Y112.297
G1 X184.308 Y92.102 E80.89184
G0 X183.743 Y92.102
G1 X203.938 Y112.297 E81.84175
G0 X203.372 Y112.297
G1 X183.177 Y92.102 E82.79166
G0 X182.611 Y92.102
G1 X202.806 Y112.297 E83.74158
G0 X202.241 Y112.297
G1 X182.046 Y92.102 E84.69149
G0 X181.48 Y92.102
G1 X201.675 Y112.297 E85.6414
G0 X201.109 Y112.297
G1 X180.914 Y92.102 E86.59131
G0 X180.348 Y92.102
G1 X200.543 Y112.297 E87.54122
G0 X199.978 Y112.297
G1 X179.783 Y92.102 E88.49113
G0 X179.217 Y92.102
G1 X199.412 Y112.297 E89.44104
G0 X198.846 Y112.297
G1 X178.651 Y92.102 E90.39095
G0 X178.086 Y92.102
G1 X198.281 Y112.297 E91.34086
G0 X197.715 Y112.297
G1 X177.52 Y92.102 E92.29077
G0 X176.954 Y92.102
G1 X197.149 Y112.297 E93.24068
G0 X196.584 Y112.297
G1 X176.389 Y92.102 E94.19059
G0 X175.823 Y92.102
G1 X196.018 Y112.297 E95.14051
G0 X195.452 Y112.297
G1 X175.257 Y92.102 E96.09042
G0 X174.692 Y92.102
G1 X194.887 Y112.297 E97.04033
G0 X194.321 Y112.297
G1 X174.126 Y92.102 E97.99024
G0 X173.56 Y92.102
G1 X193.755 Y112.297 E98.94015
G0 X193.19 Y112.297
G1 X172.995 Y92.102 E99.89006
G0 X172.429 Y92.102
G1 X192.624 Y112.297 E100.83997
G0 X192.058 Y112.297
G1 X171.863 Y92.102 E101.78988
G0 X171.298 Y92.102
G1 X191.493 Y112.297 E102.73979
G0 X190.927 Y112.297
G1 X170.732 Y92.102 E103.6897
G0 X170.166 Y92.102
G1 X190.361 Y112.297 E104.63961
G0 X189.795 Y112.297
G1 X169.6 Y92.102 E105.58953
G0 X169.035 Y92.102
G1 X189.23 Y112.297 E106.53944
G0 X188.664 Y112.297
G1 X168.469 Y92.102 E107.48935
G0 X167.903 Y92.102
G1 X188.098 Y112.297 E108.43926
G0 X187.533 Y112.297
G1 X167.338 Y92.102 E109.38917
G0 X166.772 Y92.102
G1 X186.967 Y112.297 E110.33908
G0 X186.401 Y112.297
G1 X166.206 Y92.102 E111.28899
G0 X165.641 Y92.102
G1 X185.836 Y112.297 E112.2389
G0 X185.27 Y112.297
G1 X165.075 Y92.102 E113.18881
G0 X164.509 Y92.102
G1 X184.704 Y112.297 E114.13872
G0 X184.139 Y112.297
G1 X163.944 Y92.102 E115.08863
G0 X163.378 Y92.102
G1 X183.573 Y112.297 E116.03855
G0 X183.007 Y112.297
G1 X162.812 Y92.102 E116.98846
G0 X162.247 Y92.102
G1 X182.442 Y112.297 E117.93837
G0 X181.876 Y112.297
G1 X161.681 Y92.102 E118.88828
G0 X161.115 Y92.102
G1 X181.31 Y112.297 E119.83819
G0 X180.744 Y112.297
G1 X160.55 Y92.102 E120.78808
G0 X159.984 Y92.102
G1 X180.179 Y112.297 E121.73799
G0 X179.613 Y112.297
G1 X159.418 Y92.102 E122.6879
G0 X158.852 Y92.102
G1 X179.047 Y112.297 E123.63781
G0 X178.482 Y112.297
G1 X158.287 Y92.102 E124.58772
G0 X157.721 Y92.102
G1 X177.916 Y112.297 E125.53763
G0 X177.35 Y112.297
G1 X157.155 Y92.102 E126.48754
G0 X156.59 Y92.102
G1 X176.785 Y112.297 E127.43745
G0 X176.219 Y112.297
G1 X156.024 Y92.102 E128.38736
G0 X155.458 Y92.102
G1 X175.653 Y112.297 E129.33727
G0 X175.088 Y112.297
G1 X154.893 Y92.102 E130.28718
G0 X154.327 Y92.102
G1 X174.522 Y112.297 E131.2371
G0 X173.956 Y112.297
G1 X153.761 Y92.102 E132.18701
G0 X153.196 Y92.102
G1 X173.391 Y112.297 E133.13692
G0 X172.825 Y112.297
G1 X152.63 Y92.102 E134.08683
G0 X152.064 Y92.102
G1 X172.259 Y112.297 E135.03674
G0 X171.694 Y112.297
G1 X151.499 Y92.102 E135.98665
G0 X150.933 Y92.102
G1 X171.128 Y112.297 E136.93656
G0 X170.562 Y112.297
G1 X150.367 Y92.102 E137.88647
G0 X149.801 Y92.102
G1 X169.996 Y112.297 E138.83638
G0 X169.431 Y112.297
G1 X149.236 Y92.102 E139.78629
G0 X148.67 Y92.102
G1 X168.865 Y112.297 E140.7362
G0 X168.299 Y112.297
G1 X148.104 Y92.102 E141.68612
G0 X147.539 Y92.102
G1 X167.734 Y112.297 E142.63603
G0 X167.168 Y112.297
G1 X146.973 Y92.102 E143.58594
G0 X146.407 Y92.102
G1 X166.602 Y112.297 E144.53585
G0 X166.037 Y112.297
G1 X145.842 Y92.102 E145.48576
G0 X145.276 Y92.102
G1 X165.471 Y112.297 E146.43567
G0 X164.905 Y112.297
G1 X144.71 Y92.102 E147.38558
G0 X144.145 Y92.102
G1 X164.34 Y112.297 E148.33549
G0 X163.774 Y112.297
G1 X143.579 Y92.102 E149.2854
G0 X143.013 Y92.102
G1 X163.208 Y112.297 E150.23531
G0 X162.643 Y112.297
G1 X142.448 Y92.102 E151.18522
G0 X141.882 Y92.102
G1 X162.077 Y112.297 E152.13514
G0 X161.511 Y112.297
G1 X141.316 Y92.102 E153.08505
G0 X140.751 Y92.102
G1 X160.945 Y112.297 E154.03493
G0 X160.38 Y112.297
G1 X140.185 Y92.102 E154.98484
G0 X139.619 Y92.102
G1 X159.814 Y112.297 E155.93476
G0 X159.248 Y112.297
G1 X139.053 Y92.102 E156.88467
G0 X138.488 Y92.102
G1 X158.683 Y112.297 E157.83458
G0 X158.117 Y112.297
G1 X137.922 Y92.102 E158.78449
G0 X137.356 Y92.102
G1 X157.551 Y112.297 E159.7344
G0 X156.986 Y112.297
G1 X136.791 Y92.102 E160.68431
G0 X136.225 Y92.102
G1 X156.42 Y112.297 E161.63422
G0 X155.854 Y112.297
G1 X135.659 Y92.102 E162.58413
G0 X135.094 Y92.102
G1 X155.289 Y112.297 E163.53404
G0 X154.723 Y112.297
G1 X134.528 Y92.102 E164.48395
G0 X133.962 Y92.102
G1 X154.157 Y112.297 E165.43386
G0 X153.592 Y112.297
G1 X133.397 Y92.102 E166.38377
G0 X132.831 Y92.102
G1 X153.026 Y112.297 E167.33369
G0 X152.46 Y112.297
G1 X132.265 Y92.102 E168.2836
G0 X131.7 Y92.102
G1 X151.895 Y112.297 E169.23351
G0 X151.329 Y112.297
G1 X131.134 Y92.102 E170.18342
G0 X130.568 Y92.102
G1 X150.763 Y112.297 E171.13333
G0 X150.197 Y112.297
G1 X130.002 Y92.102 E172.08324
G0 X129.437 Y92.102
G1 X149.632 Y112.297 E173.03315
G0 X149.066 Y112.297
G1 X128.871 Y92.102 E173.98306
G0 X128.305 Y92.102
G1 X148.5 Y112.297 E174.93297
G0 X147.935 Y112.297
G1 X127.74 Y92.102 E175.88288
G0 X127.174 Y92.102
G1 X147.369 Y112.297 E176.83279
G0 X146.803 Y112.297
G1 X126.608 Y92.102 E177.78271
G0 X126.043 Y92.102
G1 X146.238 Y112.297 E178.73262
G0 X145.672 Y112.297
G1 X125.477 Y92.102 E179.68253
G0 X124.911 Y92.102
G1 X145.106 Y112.297 E180.63244
G0 X144.541 Y112.297
G1 X124.346 Y92.102 E181.58235
G0 X123.78 Y92.102
G1 X143.975 Y112.297 E182.53226
G0 X143.409 Y112.297
G1 X123.214 Y92.102 E183.48217
G0 X122.649 Y92.102
G1 X142.844 Y112.297 E184.43208
G0 X142.278 Y112.297
G1 X122.083 Y92.102 E185.38199
G0 X121.517 Y92.102
G1 X141.712 Y112.297 E186.3319
G0 X141.146 Y112.297
G1 X120.952 Y92.102 E187.28179
G0 X120.386 Y92.102
G1 X140.581 Y112.297 E188.2317
G0 X140.015 Y112.297
G1 X119.82 Y92.102 E189.18161
G0 X119.254 Y92.102
G1 X139.449 Y112.297 E190.13152
G0 X138.884 Y112.297
G1 X118.689 Y92.102 E191.08143
G0 X118.123 Y92.102
G1 X138.318 Y112.297 E192.03135
G0 X137.752 Y112.297
G1 X117.557 Y92.102 E192.98126
G0 X116.992 Y92.102
G1 X137.187 Y112.297 E193.93117
G0 X136.621 Y112.297
G1 X116.426 Y92.102 E194.88108
G0 X115.86 Y92.102
G1 X136.055 Y112.297 E195.83099
G0 X135.49 Y112.297
G1 X115.295 Y92.102 E196.7809
G0 X114.729 Y92.102
G1 X134.924 Y112.297 E197.73081
G0 X134.358 Y112.297
G1 X114.163 Y92.102 E198.68072
G0 X113.598 Y92.102
G1 X133.793 Y112.297 E199.63063
G0 X133.227 Y112.297
G1 X113.032 Y92.102 E200.58054
G0 X112.466 Y92.102
G1 X132.661 Y112.297 E201.53045
G0 X132.096 Y112.297
G1 X111.901 Y92.102 E202.48037
G0 X111.335 Y92.102
G1 X131.53 Y112.297 E203.43028
G0 X130.964 Y112.297
G1 X110.769 Y92.102 E204.38019
G0 X110.204 Y92.102
G1 X130.398 Y112.297 E205.33007
G0 X129.833 Y112.297
G1 X109.638 Y92.102 E206.27999
G0 X109.072 Y92.102
G1 X129.267 Y112.297 E207.2299
G0 X128.701 Y112.297
G1 X108.506 Y92.102 E208.17981
G0 X107.941 Y92.102
G1 X128.136 Y112.297 E209.12972
G0 X127.57 Y112.297
G1 X107.375 Y92.102 E210.07963
G0 X106.809 Y92.102
G1 X127.004 Y112.297 E211.02954
G0 X126.439 Y112.297
G1 X106.244 Y92.102 E211.97945
G0 X105.678 Y92.102
G1 X125.873 Y112.297 E212.92936
G0 X125.307 Y112.297
G1 X105.112 Y92.102 E213.87927
G0 X104.547 Y92.102
G1 X124.742 Y112.297 E214.82918
G0 X124.176 Y112.297
G1 X103.981 Y92.102 E215.77909
G0 X103.415 Y92.102
G1 X123.61 Y112.297 E216.729
G0 X123.045 Y112.297
G1 X102.85 Y92.102 E217.67892
G0 X102.284 Y92.102
G1 X122.479 Y112.297 E218.62883
G0 X121.913 Y112.297
G1 X101.718 Y92.102 E219.57874
G0 X101.153 Y92.102
G1 X121.348 Y112.297 E220.52865
G0 X120.782 Y112.297
G1 X100.587 Y92.102 E221.47856
G0 X100.021 Y92.102
G1 X120.216 Y112.297 E222.42847
G0 X119.65 Y112.297
G1 X99.455 Y92.102 E223.37838
G0 X98.89 Y92.102
G1 X119.085 Y112.297 E224.32829
G0 X118.519 Y112.297
G1 X98.324 Y92.102 E225.2782
G0 X97.758 Y92.102
G1 X117.953 Y112.297 E226.22811
G0 X117.388 Y112.297
G1 X97.193 Y92.102 E227.17802
G0 X96.627 Y92.102
G1 X116.822 Y112.297 E228.12794
G0 X116.256 Y112.297
G1 X96.061 Y92.102 E229.07785
G0 X95.496 Y92.102
G1 X115.691 Y112.297 E230.02776
G0 X115.125 Y112.297
G1 X94.93 Y92.102 E230.97767
G0 X94.364 Y92.102
G1 X114.559 Y112.297 E231.92758
G0 X113.994 Y112.297
G1 X93.799 Y92.102 E232.87749
G0 X93.233 Y92.102
G1 X113.428 Y112.297 E233.8274
G0 X112.862 Y112.297
G1 X92.667 Y92.102 E234.77731
G0 X92.102 Y92.102
G1 X112.297 Y112.297 E235.72722
G0 X111.731 Y112.297
G1 X91.536 Y92.102 E236.67713
G0 X90.97 Y92.102
G1 X111.165 Y112.297 E237.62704
G0 X110.599 Y112.297
G1 X90.405 Y92.102 E238.57693
G0 X89.839 Y92.102
G1 X110.034 Y112.297 E239.52684
G0 X109.468 Y112.297
G1 X89.273 Y92.102 E240.47675
G0 X88.707 Y92.102
G1 X108.902 Y112.297 E241.42666
G0 X108.337 Y112.297
G1 X88.142 Y92.102 E242.37658
G0 X87.576 Y92.102
