;FLAVOR:Marlin
;TIME:7562
;Filament used: 8.16105m
;Layer height: 0.2
;MINX:74.452
;MINY:104.652
;MINZ:0.2
;MAXX:225.548
;MAXY:171.448
;MAXZ:8
;Generated with Cura_SteamEngine 4.10.0
M140 S60
M105
M190 S60
M104 S200
M105
M109 S200
M82 ;absolute extrusion mode
; Ender 3 Custom Start G-code
G92 E0 ; Reset Extruder
G28 ; Home all axes
G1 Z2.0 F3000 ; Move Z Axis up little to prevent scratching of Heat Bed
G1 X0.1 Y20 Z0.3 F5000.0 ; Move to start position
G1 X0.1 Y200.0 Z0.3 F1500.0 E15 ; Draw the first line
G1 X0.4 Y200.0 Z0.3 F5000.0 ; Move to side a little
G1 X0.4 Y20 Z0.3 F1500.0 E30 ; Draw the second line
G92 E0 ; Reset Extruder
G1 Z2.0 F3000 ; Move Z Axis up little to prevent scratching of Heat Bed
G1 X5 Y20 Z0.3 F5000.0 ; Move over to prevent blob squish
G92 E0
G92 E0
G1 F1500 E-6.5
;LAYER_COUNT:40
;LAYER:0
M107
G0 F1200 X78.314 Y106.876 Z0.2
;TYPE:SKIRT
G1 F1500 E0
G1 F1200 X79.046 Y106.346 E0.03006
G1 X79.821 Y105.883 E0.06008
G1 X80.634 Y105.49 E0.09012
G1 X81.479 Y105.17 E0.12017
G1 X82.348 Y104.927 E0.15018
G1 X83.236 Y104.761 E0.18023
G1 X84.375 Y104.665 E0.21825
G1 X84.696 Y104.656 E0.22893
G1 X84.982 Y104.652 E0.23844
G1 X214.641 Y104.652 E4.55092
G1 X215.485 Y104.663 E4.57899
G1 X216.387 Y104.716 E4.60904
G1 X217.28 Y104.848 E4.63907
G1 X218.158 Y105.059 E4.6691
G1 X219.014 Y105.347 E4.69914
G1 X219.841 Y105.709 E4.72917
G1 X220.633 Y106.144 E4.75922
G1 X221.384 Y106.646 E4.78926
G1 X222.087 Y107.213 E4.8193
G1 X222.737 Y107.84 E4.84934
G1 X223.329 Y108.522 E4.87938
G1 X223.859 Y109.253 E4.90941
G1 X224.321 Y110.029 E4.93945
G1 X224.714 Y110.842 E4.96948
G1 X225.032 Y111.687 E4.99951
G1 X225.275 Y112.557 E5.02955
G1 X225.44 Y113.445 E5.0596
G1 X225.535 Y114.575 E5.09731
G1 X225.544 Y114.895 E5.10796
G1 X225.548 Y115.182 E5.11751
G1 X225.548 Y137.381 E5.85585
G1 X225.544 Y138.501 E5.8931
G1 X225.548 Y139.031 E5.91073
G1 X225.547 Y160.638 E6.62938
G1 X225.538 Y161.365 E6.65356
G1 X225.487 Y162.267 E6.68361
G1 X225.356 Y163.161 E6.71366
G1 X225.147 Y164.039 E6.74368
G1 X224.861 Y164.896 E6.77373
G1 X224.5 Y165.724 E6.80377
G1 X224.068 Y166.516 E6.83378
G1 X223.567 Y167.268 E6.86383
G1 X223.001 Y167.972 E6.89388
G1 X222.376 Y168.623 E6.92389
G1 X221.695 Y169.217 E6.95395
G1 X220.964 Y169.748 E6.984
G1 X220.19 Y170.212 E7.01401
G1 X219.377 Y170.606 E7.04406
G1 X218.533 Y170.926 E7.07408
G1 X217.663 Y171.171 E7.10415
G1 X216.776 Y171.337 E7.13416
G1 X215.625 Y171.435 E7.17258
G1 X215.304 Y171.444 E7.18326
G1 X215.018 Y171.448 E7.19277
G1 X85.227 Y171.447 E11.50964
G1 X84.529 Y171.438 E11.53286
G1 X83.628 Y171.387 E11.56287
G1 X82.734 Y171.255 E11.59293
G1 X81.856 Y171.046 E11.62295
G1 X80.999 Y170.759 E11.65301
G1 X80.172 Y170.398 E11.68302
G1 X79.379 Y169.965 E11.71307
G1 X78.628 Y169.464 E11.7431
G1 X77.924 Y168.898 E11.77314
G1 X77.273 Y168.272 E11.80318
G1 X76.68 Y167.591 E11.83322
G1 X76.15 Y166.86 E11.86325
G1 X75.686 Y166.085 E11.89329
G1 X75.292 Y165.272 E11.92334
G1 X74.972 Y164.428 E11.95336
G1 X74.728 Y163.558 E11.98341
G1 X74.562 Y162.67 E12.01346
G1 X74.465 Y161.515 E12.05201
G1 X74.456 Y161.182 E12.06309
G1 X74.452 Y160.906 E12.07227
G1 X74.452 Y138.719 E12.81021
G1 X74.456 Y137.599 E12.84747
G1 X74.452 Y137.069 E12.86509
G1 X74.453 Y115.388 E13.58621
G1 X74.462 Y114.723 E13.60833
G1 X74.514 Y113.821 E13.63838
G1 X74.646 Y112.928 E13.6684
G1 X74.856 Y112.05 E13.69843
G1 X75.143 Y111.193 E13.72849
G1 X75.505 Y110.366 E13.75851
G1 X75.938 Y109.574 E13.78853
G1 X76.44 Y108.823 E13.81858
G1 X77.007 Y108.119 E13.84864
G1 X77.633 Y107.469 E13.87866
G1 X78.314 Y106.876 E13.90869
G1 F1500 E7.40869
;MESH:new_holder.stl
G0 F1200 X85.072 Y114.187
G0 X85.072 Y115.272
G0 X214.566 Y115.634
G0 X214.748 Y136.748
;TYPE:WALL-INNER
G1 F1500 E13.90869
G1 F1200 X85.252 Y136.748 E18.21575
G1 X85.252 Y115.452 E18.92406
G1 X214.748 Y115.452 E23.23111
G1 X214.748 Y136.748 E23.93942
G0 X215.148 Y137.148
;TYPE:WALL-OUTER
G1 X84.852 Y137.148 E28.27308
G1 X84.852 Y115.052 E29.008
G1 X215.148 Y115.052 E33.34166
G1 X215.148 Y137.148 E34.07658
G0 X214.878 Y136.878
G0 X214.638 Y136.358
G0 X214.358 Y136.358
;TYPE:SKIN
G1 X85.642 Y136.358 E38.35769
G1 X85.642 Y115.842 E39.04005
G1 X214.358 Y115.842 E43.32116
G1 X214.358 Y136.358 E44.00353
G0 X214.638 Y136.358
G0 X214.638 Y116.333
G0 X214.197 Y116.333
G1 X213.865 Y116.001 E44.01914
G0 X213.299 Y116.001
G1 X214.197 Y116.899 E44.06138
G0 X214.197 Y117.465
G1 X212.733 Y116.001 E44.13025
G0 X212.168 Y116.001
G1 X214.197 Y118.03 E44.22568
G0 X214.197 Y118.596
G1 X211.602 Y116.001 E44.34774
G0 X211.036 Y116.001
G1 X214.197 Y119.162 E44.49643
G0 X214.197 Y119.728
G1 X210.471 Y116.001 E44.67171
G0 X209.905 Y116.001
G1 X214.197 Y120.293 E44.87359
G0 X214.197 Y120.859
G1 X209.339 Y116.001 E45.1021
G0 X208.773 Y116.001
G1 X214.197 Y121.425 E45.35723
G0 X214.197 Y121.99
G1 X208.208 Y116.001 E45.63893
G0 X207.642 Y116.001
G1 X214.197 Y122.556 E45.94726
G0 X214.197 Y123.122
G1 X207.076 Y116.001 E46.28221
G0 X206.511 Y116.001
G1 X214.197 Y123.687 E46.64373
G0 X214.197 Y124.253
G1 X205.945 Y116.001 E47.03188
G0 X205.379 Y116.001
G1 X214.197 Y124.819 E47.44666
G0 X214.197 Y125.384
G1 X204.814 Y116.001 E47.888
G0 X204.248 Y116.001
G1 X214.197 Y125.95 E48.35597
G0 X214.197 Y126.516
G1 X203.682 Y116.001 E48.85057
G0 X203.117 Y116.001
G1 X214.197 Y127.081 E49.37174
G0 X214.197 Y127.647
G1 X202.551 Y116.001 E49.91953
G0 X201.985 Y116.001
G1 X214.197 Y128.213 E50.49394
G0 X214.197 Y128.778
G1 X201.42 Y116.001 E51.09493
G0 X200.854 Y116.001
G1 X214.197 Y129.344 E51.72255
G0 X214.197 Y129.91
G1 X200.288 Y116.001 E52.37678
G0 X199.723 Y116.001
G1 X214.197 Y130.476 E53.05762
G0 X214.197 Y131.041
G1 X199.157 Y116.001 E53.76506
G0 X198.591 Y116.001
G1 X214.197 Y131.607 E54.49911
G0 X214.197 Y132.173
G1 X198.025 Y116.001 E55.2598
G0 X197.46 Y116.001
G1 X214.197 Y132.738 E56.04705
G0 X214.197 Y133.304
G1 X196.894 Y116.001 E56.86093
G0 X196.328 Y116.001
G1 X214.197 Y133.87 E57.70144
G0 X214.197 Y134.435
G1 X195.763 Y116.001 E58.56851
G0 X195.197 Y116.001
G1 X214.197 Y135.001 E59.46222
G0 X214.197 Y135.567
G1 X194.631 Y116.001 E60.38254
G0 X194.066 Y116.001
G1 X214.197 Y136.132 E61.32944
G0 X213.696 Y136.197
G1 X193.5 Y116.001 E62.2794
G0 X192.934 Y116.001
G1 X213.13 Y136.197 E63.22936
G0 X212.564 Y136.197
G1 X192.369 Y116.001 E64.17929
G0 X191.803 Y116.001
G1 X211.999 Y136.197 E65.12925
G0 X211.433 Y136.197
G1 X191.237 Y116.001 E66.07921
G0 X190.672 Y116.001
G1 X210.867 Y136.197 E67.02914
G0 X210.302 Y136.197
G1 X190.106 Y116.001 E67.9791
G0 X189.54 Y116.001
G1 X209.736 Y136.197 E68.92906
G0 X209.17 Y136.197
G1 X188.974 Y116.001 E69.87902
G0 X188.409 Y116.001
G1 X208.604 Y136.197 E70.82895
G0 X208.039 Y136.197
G1 X187.843 Y116.001 E71.77891
G0 X187.277 Y116.001
G1 X207.473 Y136.197 E72.72887
G0 X206.907 Y136.197
G1 X186.712 Y116.001 E73.6788
G0 X186.146 Y116.001
G1 X206.342 Y136.197 E74.62876
G0 X205.776 Y136.197
G1 X185.58 Y116.001 E75.57872
G0 X185.015 Y116.001
G1 X205.21 Y136.197 E76.52865
G0 X204.645 Y136.197
G1 X184.449 Y116.001 E77.47861
G0 X183.883 Y116.001
G1 X204.079 Y136.197 E78.42857
G0 X203.513 Y136.197
G1 X183.318 Y116.001 E79.3785
G0 X182.752 Y116.001
G1 X202.948 Y136.197 E80.32846
G0 X202.382 Y136.197
G1 X182.186 Y116.001 E81.27842
G0 X181.621 Y116.001
G1 X201.816 Y136.197 E82.22835
G0 X201.251 Y136.197
G1 X181.055 Y116.001 E83.17831
G0 X180.489 Y116.001
G1 X200.685 Y136.197 E84.12827
G0 X200.119 Y136.197
G1 X179.924 Y116.001 E85.0782
G0 X179.358 Y116.001
G1 X199.554 Y136.197 E86.02816
G0 X198.988 Y136.197
G1 X178.792 Y116.001 E86.97812
G0 X178.226 Y116.001
G1 X198.422 Y136.197 E87.92808
G0 X197.856 Y136.197
G1 X177.661 Y116.001 E88.87801
G0 X177.095 Y116.001
G1 X197.291 Y136.197 E89.82797
G0 X196.725 Y136.197
G1 X176.529 Y116.001 E90.77793
G0 X175.964 Y116.001
G1 X196.159 Y136.197 E91.72786
G0 X195.594 Y136.197
G1 X175.398 Y116.001 E92.67782
G0 X174.832 Y116.001
G1 X195.028 Y136.197 E93.62778
G0 X194.462 Y136.197
G1 X174.267 Y116.001 E94.57771
G0 X173.701 Y116.001
G1 X193.897 Y136.197 E95.52767
G0 X193.331 Y136.197
G1 X173.135 Y116.001 E96.47763
G0 X172.57 Y116.001
G1 X192.765 Y136.197 E97.42756
G0 X192.2 Y136.197
G1 X172.004 Y116.001 E98.37752
G0 X171.438 Y116.001
G1 X191.634 Y136.197 E99.32748
G0 X191.068 Y136.197
G1 X170.873 Y116.001 E100.27741
G0 X170.307 Y116.001
G1 X190.503 Y136.197 E101.22737
G0 X189.937 Y136.197
G1 X169.741 Y116.001 E102.17733
G0 X169.176 Y116.001
G1 X189.371 Y136.197 E103.12726
G0 X188.805 Y136.197
G1 X168.61 Y116.001 E104.0772
G0 X168.044 Y116.001
G1 X188.24 Y136.197 E105.02715
G0 X187.674 Y136.197
G1 X167.478 Y116.001 E105.97711
G0 X166.913 Y116.001
G1 X187.108 Y136.197 E106.92705
G0 X186.543 Y136.197
G1 X166.347 Y116.001 E107.877
G0 X165.781 Y116.001
G1 X185.977 Y136.197 E108.82696
G0 X185.411 Y136.197
G1 X165.216 Y116.001 E109.7769
G0 X164.65 Y116.001
G1 X184.846 Y136.197 E110.72685
G0 X184.28 Y136.197
G1 X164.084 Y116.001 E111.67681
G0 X163.519 Y116.001
G1 X183.714 Y136.197 E112.62675
G0 X183.149 Y136.197
G1 X162.953 Y116.001 E113.5767
G0 X162.387 Y116.001
G1 X182.583 Y136.197 E114.52666
G0 X182.017 Y136.197
G1 X161.822 Y116.001 E115.4766
G0 X161.256 Y116.001
G1 X181.452 Y136.197 E116.42655
G0 X180.886 Y136.197
G1 X160.69 Y116.001 E117.37651
G0 X160.125 Y116.001
G1 X180.32 Y136.197 E118.32645
G0 X179.755 Y136.197
G1 X159.559 Y116.001 E119.2764
G0 X158.993 Y116.001
G1 X179.189 Y136.197 E120.22636
G0 X178.623 Y136.197
G1 X158.427 Y116.001 E121.17632
G0 X157.862 Y116.001
G1 X178.057 Y136.197 E122.12625
G0 X177.492 Y136.197
G1 X157.296 Y116.001 E123.07621
G0 X156.73 Y116.001
G1 X176.926 Y136.197 E124.02617
G0 X176.36 Y136.197
G1 X156.165 Y116.001 E124.9761
G0 X155.599 Y116.001
G1 X175.795 Y136.197 E125.92606
G0 X175.229 Y136.197
G1 X155.033 Y116.001 E126.87602
G0 X154.468 Y116.001
G1 X174.663 Y136.197 E127.82596
G0 X174.098 Y136.197
G1 X153.902 Y116.001 E128.77591
G0 X153.336 Y116.001
G1 X173.532 Y136.197 E129.72587
G0 X172.966 Y136.197
G1 X152.771 Y116.001 E130.67581
G0 X152.205 Y116.001
G1 X172.401 Y136.197 E131.62576
G0 X171.835 Y136.197
G1 X151.639 Y116.001 E132.57572
G0 X151.074 Y116.001
G1 X171.269 Y136.197 E133.52566
G0 X170.704 Y136.197
G1 X150.508 Y116.001 E134.47561
G0 X149.942 Y116.001
G1 X170.138 Y136.197 E135.42557
G0 X169.572 Y136.197
G1 X149.377 Y116.001 E136.37551
G0 X148.811 Y116.001
G1 X169.007 Y136.197 E137.32546
G0 X168.441 Y136.197
G1 X148.245 Y116.001 E138.27542
G0 X147.679 Y116.001
G1 X167.875 Y136.197 E139.22538
G0 X167.309 Y136.197
G1 X147.114 Y116.001 E140.17531
G0 X146.548 Y116.001
G1 X166.744 Y136.197 E141.12527
G0 X166.178 Y136.197
G1 X145.982 Y116.001 E142.07523
G0 X145.417 Y116.001
G1 X165.612 Y136.197 E143.02516
G0 X165.047 Y136.197
G1 X144.851 Y116.001 E143.97512
G0 X144.285 Y116.001
G1 X164.481 Y136.197 E144.92508
G0 X163.915 Y136.197
G1 X143.72 Y116.001 E145.87501
G0 X143.154 Y116.001
G1 X163.35 Y136.197 E146.82497
G0 X162.784 Y136.197
G1 X142.588 Y116.001 E147.77493
G0 X142.023 Y116.001
G1 X162.218 Y136.197 E148.72486
G0 X161.653 Y136.197
G1 X141.457 Y116.001 E149.67482
G0 X140.891 Y116.001
G1 X161.087 Y136.197 E150.62478
G0 X160.521 Y136.197
G1 X140.326 Y116.001 E151.57472
G0 X139.76 Y116.001
G1 X159.956 Y136.197 E152.52467
G0 X159.39 Y136.197
G1 X139.194 Y116.001 E153.47463
G0 X138.628 Y116.001
G1 X158.824 Y136.197 E154.42459
G0 X158.258 Y136.197
G1 X138.063 Y116.001 E155.37452
G0 X137.497 Y116.001
G1 X157.693 Y136.197 E156.32448
G0 X157.127 Y136.197
G1 X136.931 Y116.001 E157.27444
G0 X136.366 Y116.001
G1 X156.561 Y136.197 E158.22437
G0 X155.996 Y136.197
G1 X135.8 Y116.001 E159.17433
G0 X135.234 Y116.001
G1 X155.43 Y136.197 E160.12429
G0 X154.864 Y136.197
G1 X134.669 Y116.001 E161.07422
G0 X134.103 Y116.001
G1 X154.299 Y136.197 E162.02418
G0 X153.733 Y136.197
G1 X133.537 Y116.001 E162.97414
G0 X132.972 Y116.001
G1 X153.167 Y136.197 E163.92407
G0 X152.602 Y136.197
G1 X132.406 Y116.001 E164.87403
G0 X131.84 Y116.001
G1 X152.036 Y136.197 E165.82399
G0 X151.47 Y136.197
G1 X131.275 Y116.001 E166.77392
G0 X130.709 Y116.001
G1 X150.905 Y136.197 E167.72388
G0 X150.339 Y136.197
G1 X130.143 Y116.001 E168.67384
G0 X129.578 Y116.001
G1 X149.773 Y136.197 E169.62377
G0 X149.208 Y136.197
G1 X129.012 Y116.001 E170.57373
G0 X128.446 Y116.001
G1 X148.642 Y136.197 E171.52369
G0 X148.076 Y136.197
G1 X127.88 Y116.001 E172.47365
G0 X127.315 Y116.001
G1 X147.51 Y136.197 E173.42358
G0 X146.945 Y136.197
G1 X126.749 Y116.001 E174.37354
G0 X126.183 Y116.001
G1 X146.379 Y136.197 E175.3235
G0 X145.813 Y136.197
G1 X125.618 Y116.001 E176.27343
G0 X125.052 Y116.001
G1 X145.248 Y136.197 E177.22339
G0 X144.682 Y136.197
G1 X124.486 Y116.001 E178.17335
G0 X123.921 Y116.001
G1 X144.116 Y136.197 E179.12328
G0 X143.551 Y136.197
G1 X123.355 Y116.001 E180.07324
G0 X122.789 Y116.001
G1 X142.985 Y136.197 E181.0232
G0 X142.419 Y136.197
G1 X122.224 Y116.001 E181.97313
G0 X121.658 Y116.001
G1 X141.854 Y136.197 E182.92309
G0 X141.288 Y136.197
G1 X121.092 Y116.001 E183.87305
G0 X120.527 Y116.001
G1 X140.722 Y136.197 E184.82298
G0 X140.157 Y136.197
G1 X119.961 Y116.001 E185.77294
G0 X119.395 Y116.001
G1 X139.591 Y136.197 E186.7229
G0 X139.025 Y136.197
G1 X118.83 Y116.001 E187.67283
G0 X118.264 Y116.001
G1 X138.459 Y136.197 E188.62277
G0 X137.894 Y136.197
G1 X117.698 Y116.001 E189.57273
G0 X117.132 Y116.001
G1 X137.328 Y136.197 E190.52268
G0 X136.762 Y136.197
G1 X116.567 Y116.001 E191.47262
G0 X116.001 Y116.001
G1 X136.197 Y136.197 E192.42258
G0 X135.631 Y136.197
G1 X115.435 Y116.001 E193.37253
G0 X114.87 Y116.001
G1 X135.065 Y136.197 E194.32247
G0 X134.5 Y136.197
G1 X114.304 Y116.001 E195.27243
G0 X113.738 Y116.001
G1 X133.934 Y136.197 E196.22238
G0 X133.368 Y136.197
G1 X113.173 Y116.001 E197.17232
G0 X112.607 Y116.001
G1 X132.803 Y136.197 E198.12228
G0 X132.237 Y136.197
G1 X112.041 Y116.001 E199.07223
G0 X111.476 Y116.001
G1 X131.671 Y136.197 E200.02217
G0 X131.106 Y136.197
G1 X110.91 Y116.001 E200.97213
G0 X110.344 Y116.001
G1 X130.54 Y136.197 E201.92209
G0 X129.974 Y136.197
G1 X109.779 Y116.001 E202.87202
G0 X109.213 Y116.001
G1 X129.409 Y136.197 E203.82198
G0 X128.843 Y136.197
G1 X108.647 Y116.001 E204.77194
G0 X108.081 Y116.001
G1 X128.277 Y136.197 E205.72189
G0 X127.711 Y136.197
G1 X107.516 Y116.001 E206.67183
G0 X106.95 Y116.001
G1 X127.146 Y136.197 E207.62179
G0 X126.58 Y136.197
G1 X106.384 Y116.001 E208.57174
G0 X105.819 Y116.001
G1 X126.014 Y136.197 E209.52168
G0 X125.449 Y136.197
G1 X105.253 Y116.001 E210.47164
G0 X104.687 Y116.001
G1 X124.883 Y136.197 E211.42159
G0 X124.317 Y136.197
G1 X104.122 Y116.001 E212.37153
G0 X103.556 Y116.001
G1 X123.752 Y136.197 E213.32149
G0 X123.186 Y136.197
G1 X102.99 Y116.001 E214.27144
G0 X102.425 Y116.001
G1 X122.62 Y136.197 E215.22138
G0 X122.055 Y136.197
G1 X101.859 Y116.001 E216.17134
G0 X101.293 Y116.001
G1 X121.489 Y136.197 E217.12129
G0 X120.923 Y136.197
G1 X100.728 Y116.001 E218.07123
G0 X100.162 Y116.001
G1 X120.358 Y136.197 E219.02119
G0 X119.792 Y136.197
G1 X99.596 Y116.001 E219.97114
G0 X99.031 Y116.001
G1 X119.226 Y136.197 E220.92108
G0 X118.661 Y136.197
G1 X98.465 Y116.001 E221.87104
G0 X97.899 Y116.001
G1 X118.095 Y136.197 E222.82099
G0 X117.529 Y136.197
G1 X97.333 Y116.001 E223.77095
G0 X96.768 Y116.001
G1 X116.963 Y136.197 E224.72089
G0 X116.398 Y136.197
G1 X96.202 Y116.001 E225.67084
G0 X95.636 Y116.001
G1 X115.832 Y136.197 E226.6208
G0 X115.266 Y136.197
G1 X95.071 Y116.001 E227.57074
G0 X94.505 Y116.001
G1 X114.701 Y136.197 E228.5207
G0 X114.135 Y136.197
G1 X93.939 Y116.001 E229.47065
G0 X93.374 Y116.001
G1 X113.569 Y136.197 E230.42059
G0 X113.004 Y136.197
G1 X92.808 Y116.001 E231.37055
G0 X92.242 Y116.001
G1 X112.438 Y136.197 E232.3205
G0 X111.872 Y136.197
G1 X91.677 Y116.001 E233.27044
G0 X91.111 Y116.001
G1 X111.307 Y136.197 E234.2204
G0 X110.741 Y136.197
G1 X90.545 Y116.001 E235.17035
G0 X89.98 Y116.001
G1 X110.175 Y136.197 E236.12029
G0 X109.61 Y136.197
G1 X89.414 Y116.001 E237.07025
G0 X88.848 Y116.001
G1 X109.044 Y136.197 E238.0202
G0 X108.478 Y136.197
G1 X88.282 Y116.001 E238.97016
G0 X87.717 Y116.001
G1 X107.912 Y136.197 E239.9201
G0 X107.347 Y136.197
G1 X87.151 Y116.001 E240.87005
