;FLAVOR:Marlin
;TIME:4938
;Filament used: 5.56821m
;Layer height: 0.2
;MINX:79.8
;MINY:114.146
;MINZ:0.2
;MAXX:220.2
;MAXY:185.854
;MAXZ:4
;Generated with Cura_SteamEngine 4.10.0
M140 S60
M105
M190 S60
M104 S200
M105
M109 S200
M82 ;absolute extrusion mode
; Ender 3 Custom Start G-code
G92 E0 ; Reset Extruder
G28 ; Home all axes
G1 Z2.0 F3000 ; Move Z Axis up little to prevent scratching of Heat Bed
G1 X0.1 Y20 Z0.3 F5000.0 ; Move to start position
G1 X0.1 Y200.0 Z0.3 F1500.0 E15 ; Draw the first line
G1 X0.4 Y200.0 Z0.3 F5000.0 ; Move to side a little
G1 X0.4 Y20 Z0.3 F1500.0 E30 ; Draw the second line
G92 E0 ; Reset Extruder
G1 Z2.0 F3000 ; Move Z Axis up little to prevent scratching of Heat Bed
G1 X5 Y20 Z0.3 F5000.0 ; Move over to prevent blob squish
G92 E0
G92 E0
G1 F1500 E-6.5
;LAYER_COUNT:20
;LAYER:0
M107
G0 F1200 X84.394 Y115.84 Z0.2
;TYPE:SKIRT
G1 F1500 E0
G1 F1200 X85.169 Y115.377 E0.03003
G1 X85.982 Y114.984 E0.06006
G1 X86.827 Y114.664 E0.09011
G1 X87.696 Y114.421 E0.12012
G1 X88.584 Y114.255 E0.15017
G1 X89.723 Y114.159 E0.18819
G1 X90.044 Y114.15 E0.19887
G1 X90.33 Y114.146 E0.20838
G1 X209.293 Y114.146 E4.16511
G1 X210.137 Y114.157 E4.19318
G1 X211.039 Y114.21 E4.22323
G1 X211.932 Y114.342 E4.25326
G1 X212.81 Y114.553 E4.28329
G1 X213.666 Y114.841 E4.31333
G1 X214.493 Y115.203 E4.34336
G1 X215.285 Y115.638 E4.37341
G1 X216.036 Y116.14 E4.40346
G1 X216.739 Y116.707 E4.4335
G1 X217.389 Y117.334 E4.46353
G1 X217.981 Y118.016 E4.49357
G1 X218.511 Y118.747 E4.5236
G1 X218.973 Y119.523 E4.55364
G1 X219.366 Y120.336 E4.58367
G1 X219.684 Y121.181 E4.6137
G1 X219.927 Y122.051 E4.64375
G1 X220.092 Y122.939 E4.67379
G1 X220.187 Y124.069 E4.7115
G1 X220.196 Y124.389 E4.72215
G1 X220.2 Y124.676 E4.7317
G1 X220.199 Y175.044 E6.40694
G1 X220.19 Y175.771 E6.43113
G1 X220.139 Y176.673 E6.46117
G1 X220.008 Y177.567 E6.49123
G1 X219.799 Y178.445 E6.52124
G1 X219.513 Y179.302 E6.55129
G1 X219.152 Y180.13 E6.58134
G1 X218.72 Y180.922 E6.61134
G1 X218.219 Y181.674 E6.6414
G1 X217.653 Y182.378 E6.67144
G1 X217.028 Y183.029 E6.70146
G1 X216.347 Y183.623 E6.73151
G1 X215.616 Y184.154 E6.76156
G1 X214.842 Y184.618 E6.79158
G1 X214.029 Y185.012 E6.82163
G1 X213.185 Y185.332 E6.85165
G1 X212.315 Y185.577 E6.88171
G1 X211.428 Y185.743 E6.91172
G1 X210.277 Y185.841 E6.95015
G1 X209.956 Y185.85 E6.96083
G1 X209.67 Y185.854 E6.97034
G1 X90.575 Y185.853 E10.93146
G1 X89.877 Y185.844 E10.95467
G1 X88.976 Y185.793 E10.98469
G1 X88.082 Y185.661 E11.01474
G1 X87.204 Y185.452 E11.04476
G1 X86.347 Y185.165 E11.07482
G1 X85.52 Y184.804 E11.10484
G1 X84.727 Y184.371 E11.13489
G1 X83.976 Y183.87 E11.16491
G1 X83.272 Y183.304 E11.19496
G1 X82.621 Y182.678 E11.225
G1 X82.028 Y181.997 E11.25503
G1 X81.498 Y181.266 E11.28506
G1 X81.034 Y180.491 E11.3151
G1 X80.64 Y179.678 E11.34515
G1 X80.32 Y178.834 E11.37517
G1 X80.076 Y177.964 E11.40523
G1 X79.91 Y177.076 E11.43527
G1 X79.813 Y175.921 E11.47382
G1 X79.804 Y175.588 E11.4849
G1 X79.8 Y175.312 E11.49409
G1 X79.801 Y124.882 E13.17139
G1 X79.81 Y124.217 E13.19351
G1 X79.862 Y123.315 E13.22356
G1 X79.994 Y122.422 E13.25359
G1 X80.204 Y121.544 E13.28361
G1 X80.491 Y120.687 E13.31367
G1 X80.853 Y119.86 E13.3437
G1 X81.286 Y119.068 E13.37372
G1 X81.788 Y118.317 E13.40377
G1 X82.355 Y117.613 E13.43383
G1 X82.981 Y116.963 E13.46385
G1 X83.662 Y116.37 E13.49388
G1 X84.394 Y115.84 E13.52394
G1 F1500 E7.02394
;MESH:middle.stl
G0 F1200 X162.03 Y152.673
G0 X160.595 Y152.673
G0 X160.765 Y154.6
;TYPE:WALL-INNER
G1 F1500 E13.52394
G1 F1200 X164.465 Y154.6 E13.647
G1 X164.465 Y145.4 E13.95299
G1 X160.765 Y145.4 E14.07606
G1 X160.765 Y154.6 E14.38205
G0 X161.165 Y154.2
;TYPE:WALL-OUTER
G1 X164.065 Y154.2 E14.4785
G1 X164.065 Y145.8 E14.75789
G1 X161.165 Y145.8 E14.85434
G1 X161.165 Y154.2 E15.13373
G1 F1500 E8.63373
G0 F1200 X160.865 Y154.2
G0 X160.575 Y154.6
G0 X162.018 Y153.347
G0 X137.982 Y153.347
G0 X139.425 Y154.6
G0 X139.235 Y154.6
;TYPE:WALL-INNER
G1 F1500 E15.13373
G1 F1200 X139.235 Y145.4 E15.43972
G1 X135.535 Y145.4 E15.56279
G1 X135.535 Y154.6 E15.86878
G1 X139.235 Y154.6 E15.99184
G0 X138.835 Y154.2
;TYPE:WALL-OUTER
G1 X138.835 Y145.8 E16.27123
G1 X135.935 Y145.8 E16.36768
G1 X135.935 Y154.2 E16.64707
G1 X138.835 Y154.2 E16.74352
G1 F1500 E10.24352
G0 F1200 X139.135 Y154.2
G0 X135.707 Y154.428
G0 X135.365 Y152.673
G0 X136.8 Y152.673
G0 X139.431 Y176.319
G0 X139.431 Y174.844
G0 X209.4 Y175.054
;TYPE:WALL-INNER
G1 F1500 E16.74352
G1 F1200 X90.6 Y175.054 E20.69482
G1 X90.6 Y124.946 E22.36142
G1 X209.4 Y124.946 E26.31273
G1 X209.4 Y175.054 E27.97933
G0 X209.8 Y175.454
;TYPE:WALL-OUTER
G1 X90.2 Y175.454 E31.95724
G1 X90.2 Y124.546 E33.65044
G1 X209.8 Y124.546 E37.62836
G1 X209.8 Y175.454 E39.32156
G0 X209.53 Y175.184
G0 X209.29 Y174.664
G0 X209.01 Y174.664
;TYPE:SKIN
G1 X90.99 Y174.664 E43.24693
G1 X90.99 Y125.336 E44.88758
G1 X209.01 Y125.336 E48.81294
G1 X209.01 Y174.664 E50.4536
G1 F1500 E43.9536
G0 F1200 X209.29 Y174.664
G0 X169.091 Y174.846
G0 X164.575 Y174.844
G0 X164.575 Y176.319
G0 X163.212 Y153.347
G0 X164.575 Y154.79
G0 X164.855 Y154.99
G1 F1500 E50.4536
G1 F1200 X164.855 Y145.01 E50.78553
G1 X160.375 Y145.01 E50.93454
G1 X160.375 Y154.99 E51.26648
G1 X164.855 Y154.99 E51.41548
G1 F1500 E44.91548
G0 F1200 X164.575 Y154.74
G0 X160.575 Y154.74
G0 X162.018 Y153.347
G0 X137.982 Y153.347
G0 X139.425 Y154.74
G0 X139.625 Y154.99
G1 F1500 E51.41548
G1 F1200 X139.625 Y145.01 E51.74742
G1 X135.145 Y145.01 E51.89642
G1 X135.145 Y154.99 E52.22836
G1 X139.625 Y154.99 E52.37736
G1 F1500 E45.87736
G0 F1200 X139.345 Y154.74
G0 X135.707 Y154.428
G0 X135.365 Y152.673
G0 X136.8 Y152.673
G0 X135.339 Y176.319
G0 X135.339 Y174.844
G0 X91.347 Y174.944
G0 X91.347 Y174.503
G1 F1500 E52.37736
G1 F1200 X91.149 Y174.305 E52.38668
G0 X91.149 Y173.739
G1 X91.913 Y174.503 E52.42261
G0 X92.478 Y174.503
G1 X91.149 Y173.173 E52.48515
G0 X91.149 Y172.608
G1 X93.044 Y174.503 E52.57428
G0 X93.61 Y174.503
G1 X91.149 Y172.042 E52.69004
G0 X91.149 Y171.476
G1 X94.176 Y174.503 E52.83242
G0 X94.741 Y174.503
G1 X91.149 Y170.911 E53.00138
G0 X91.149 Y170.345
G1 X95.307 Y174.503 E53.19696
G0 X95.873 Y174.503
G1 X91.149 Y169.779 E53.41916
G0 X91.149 Y169.214
G1 X96.438 Y174.503 E53.66794
G0 X97.004 Y174.503
G1 X91.149 Y168.648 E53.94334
G0 X91.149 Y168.082
G1 X97.57 Y174.503 E54.24537
G0 X98.135 Y174.503
G1 X91.149 Y167.517 E54.57397
G0 X91.149 Y166.951
G1 X98.701 Y174.503 E54.92919
G0 X99.267 Y174.503
G1 X91.149 Y166.385 E55.31103
G0 X91.149 Y165.82
G1 X99.832 Y174.503 E55.71946
G0 X100.398 Y174.503
G1 X91.149 Y165.254 E56.1545
G0 X91.149 Y164.688
G1 X100.964 Y174.503 E56.61617
G0 X101.529 Y174.503
G1 X91.149 Y164.123 E57.10441
G0 X91.149 Y163.557
G1 X102.095 Y174.503 E57.61928
G0 X102.661 Y174.503
G1 X91.149 Y162.991 E58.16077
G0 X91.149 Y162.425
G1 X103.226 Y174.503 E58.72886
G0 X103.792 Y174.503
G1 X91.149 Y161.86 E59.32354
G0 X91.149 Y161.294
G1 X104.358 Y174.503 E59.94485
G0 X104.924 Y174.503
G1 X91.149 Y160.728 E60.59279
G0 X91.149 Y160.163
G1 X105.489 Y174.503 E61.2673
G0 X106.055 Y174.503
G1 X91.149 Y159.597 E61.96843
G0 X91.149 Y159.031
G1 X106.621 Y174.503 E62.69619
G0 X107.186 Y174.503
G1 X91.149 Y158.466 E63.45052
G0 X91.149 Y157.9
G1 X107.752 Y174.503 E64.23147
G0 X108.318 Y174.503
G1 X91.149 Y157.334 E65.03905
G0 X91.149 Y156.769
G1 X108.883 Y174.503 E65.8732
G0 X109.449 Y174.503
G1 X91.149 Y156.203 E66.73398
G0 X91.149 Y155.637
G1 X110.015 Y174.503 E67.62138
G0 X110.58 Y174.503
G1 X91.149 Y155.072 E68.53535
G0 X91.149 Y154.506
G1 X111.146 Y174.503 E69.47595
G0 X111.712 Y174.503
G1 X91.149 Y153.94 E70.44317
G0 X91.149 Y153.374
G1 X112.277 Y174.503 E71.43699
G0 X112.843 Y174.503
G1 X91.149 Y152.809 E72.45741
G0 X91.149 Y152.243
G1 X113.409 Y174.503 E73.50445
G0 X113.975 Y174.503
G1 X91.149 Y151.677 E74.57812
G0 X91.149 Y151.112
G1 X114.54 Y174.503 E75.67836
G0 X115.106 Y174.503
G1 X91.149 Y150.546 E76.80522
G0 X91.149 Y149.98
G1 X115.672 Y174.503 E77.95871
G0 X116.237 Y174.503
G1 X91.149 Y149.415 E79.13877
G0 X91.149 Y148.849
G1 X116.803 Y174.503 E80.34545
G0 X117.369 Y174.503
G1 X91.149 Y148.283 E81.57876
G0 X91.149 Y147.718
G1 X117.934 Y174.503 E82.83865
G0 X118.5 Y174.503
G1 X91.149 Y147.152 E84.12515
G0 X91.149 Y146.586
G1 X119.066 Y174.503 E85.43828
G0 X119.631 Y174.503
G1 X91.149 Y146.021 E86.77799
G0 X91.149 Y145.455
G1 X120.197 Y174.503 E88.14432
G0 X120.763 Y174.503
G1 X91.149 Y144.889 E89.53727
G0 X91.149 Y144.324
G1 X121.328 Y174.503 E90.9568
G0 X121.894 Y174.503
G1 X91.149 Y143.758 E92.40295
G0 X91.149 Y143.192
G1 X122.46 Y174.503 E93.87572
G0 X123.025 Y174.503
G1 X91.149 Y142.626 E95.3751
G0 X91.149 Y142.061
G1 X123.591 Y174.503 E96.90107
G0 X124.157 Y174.503
G1 X91.149 Y141.495 E98.45366
G0 X91.149 Y140.929
G1 X124.723 Y174.503 E100.03288
G0 X125.288 Y174.503
G1 X91.149 Y140.364 E101.63867
G0 X91.149 Y139.798
G1 X125.854 Y174.503 E103.27109
G0 X126.42 Y174.503
G1 X91.149 Y139.232 E104.93013
G0 X91.149 Y138.667
G1 X126.985 Y174.503 E106.61575
G0 X127.551 Y174.503
G1 X91.149 Y138.101 E108.32799
G0 X91.149 Y137.535
G1 X128.117 Y174.503 E110.06685
G0 X128.682 Y174.503
G1 X91.149 Y136.97 E111.83228
G0 X91.149 Y136.404
G1 X129.248 Y174.503 E113.62434
G0 X129.814 Y174.503
G1 X91.149 Y135.838 E115.44303
G0 X91.149 Y135.273
G1 X130.379 Y174.503 E117.28829
G0 X130.945 Y174.503
G1 X91.149 Y134.707 E119.16017
G0 X91.149 Y134.141
G1 X131.511 Y174.503 E121.05867
G0 X132.076 Y174.503
G1 X91.149 Y133.576 E122.98375
G0 X91.149 Y133.01
G1 X132.642 Y174.503 E124.93546
G0 X133.208 Y174.503
G1 X91.149 Y132.444 E126.91378
G0 X91.149 Y131.878
G1 X133.773 Y174.503 E128.91871
G0 X134.339 Y174.503
G1 X91.149 Y131.313 E130.95023
G0 X91.149 Y130.747
G1 X134.905 Y174.503 E133.00838
G0 X135.471 Y174.503
G1 X91.149 Y130.181 E135.09315
G0 X91.149 Y129.616
G1 X136.036 Y174.503 E137.2045
G0 X136.602 Y174.503
G1 X91.149 Y129.05 E139.34247
G0 X91.149 Y128.484
G1 X137.168 Y174.503 E141.50706
G0 X137.733 Y174.503
G1 X91.149 Y127.919 E143.69823
G0 X91.149 Y127.353
G1 X138.299 Y174.503 E145.91602
G0 X138.865 Y174.503
G1 X91.149 Y126.787 E148.16044
G0 X91.149 Y126.222
G1 X139.43 Y174.503 E150.43143
G0 X139.996 Y174.503
G1 X91.149 Y125.656 E152.72904
G0 X91.554 Y125.495
G1 X140.562 Y174.503 E155.03423
G0 X141.127 Y174.503
G1 X92.12 Y125.495 E157.33939
G0 X92.686 Y125.495
G1 X141.693 Y174.503 E159.64455
G0 X142.259 Y174.503
G1 X93.251 Y125.495 E161.94974
G0 X93.817 Y125.495
G1 X142.824 Y174.503 E164.2549
G0 X143.39 Y174.503
G1 X94.383 Y125.495 E166.56006
G0 X94.948 Y125.495
G1 X143.956 Y174.503 E168.86525
G0 X144.522 Y174.503
G1 X95.514 Y125.495 E171.17043
G0 X96.08 Y125.495
G1 X145.087 Y174.503 E173.4756
G0 X145.653 Y174.503
G1 X96.645 Y125.495 E175.78078
G0 X97.211 Y125.495
G1 X146.219 Y174.503 E178.08597
G0 X146.784 Y174.503
G1 X97.777 Y125.495 E180.39113
G0 X98.342 Y125.495
G1 X147.35 Y174.503 E182.69632
G0 X147.916 Y174.503
G1 X98.908 Y125.495 E185.0015
G0 X99.474 Y125.495
G1 X148.481 Y174.503 E187.30667
G0 X149.047 Y174.503
G1 X100.04 Y125.495 E189.61183
G0 X100.605 Y125.495
G1 X149.613 Y174.503 E191.91702
G0 X150.178 Y174.503
G1 X101.171 Y125.495 E194.22218
G0 X101.737 Y125.495
G1 X150.744 Y174.503 E196.52734
G0 X151.31 Y174.503
G1 X102.302 Y125.495 E198.83253
G0 X102.868 Y125.495
G1 X151.875 Y174.503 E201.13769
G0 X152.441 Y174.503
G1 X103.434 Y125.495 E203.44285
G0 X103.999 Y125.495
G1 X153.007 Y174.503 E205.74804
G0 X153.572 Y174.503
G1 X104.565 Y125.495 E208.0532
G0 X105.131 Y125.495
G1 X154.138 Y174.503 E210.35836
G0 X154.704 Y174.503
G1 X135.35 Y155.149 E211.26872
G0 X134.985 Y154.784
G1 X105.696 Y125.495 E212.64638
G0 X106.262 Y125.495
G1 X134.985 Y154.218 E213.99742
G0 X134.985 Y153.652
G1 X106.828 Y125.495 E215.32184
G0 X107.393 Y125.495
G1 X134.985 Y153.087 E216.61968
G0 X134.985 Y152.521
G1 X107.959 Y125.495 E217.8909
G0 X108.525 Y125.495
G1 X134.985 Y151.955 E219.1355
G0 X134.985 Y151.39
G1 X109.091 Y125.495 E220.3535
G0 X109.656 Y125.495
G1 X134.985 Y150.824 E221.5449
G0 X134.985 Y150.258
G1 X110.222 Y125.495 E222.70967
G0 X110.788 Y125.495
G1 X134.985 Y149.693 E223.84785
G0 X134.985 Y149.127
G1 X111.353 Y125.495 E224.95943
G0 X111.919 Y125.495
G1 X134.985 Y148.561 E226.04438
G0 X134.985 Y147.996
G1 X112.485 Y125.495 E227.10274
G0 X113.05 Y125.495
G1 X134.985 Y147.43 E228.13449
G0 X134.985 Y146.864
G1 X113.616 Y125.495 E229.13962
G0 X114.182 Y125.495
G1 X134.985 Y146.298 E230.11813
G0 X134.985 Y145.733
G1 X114.747 Y125.495 E231.07007
G0 X115.313 Y125.495
G1 X134.985 Y145.167 E231.99538
G0 X135.232 Y144.849
G1 X115.879 Y125.495 E232.90571
G0 X116.444 Y125.495
G1 X135.798 Y144.849 E233.81606
G0 X136.364 Y144.849
G1 X117.01 Y125.495 E234.72641
G0 X117.576 Y125.495
G1 X136.929 Y144.849 E235.63674
G0 X137.495 Y144.849
G1 X118.141 Y125.495 E236.54709
G0 X118.707 Y125.495
G1 X138.061 Y144.849 E237.45745
G0 X138.626 Y144.849
G1 X119.273 Y125.495 E238.36778
G0 X119.839 Y125.495
G1 X139.192 Y144.849 E239.2781
G0 X139.758 Y144.849
G1 X120.404 Y125.495 E240.18846
G0 X120.97 Y125.495
G1 X169.977 Y174.503 E242.49362
G0 X169.412 Y174.503
G1 X139.785 Y144.876 E243.88718
G0 X139.785 Y145.441
G1 X168.846 Y174.503 E245.25415
G0 X168.28 Y174.503
G1 X139.785 Y146.007 E246.59449
G0 X139.785 Y146.573
G1 X167.715 Y174.503 E247.90823
G0 X167.149 Y174.503
G1 X139.785 Y147.139 E249.19535
G0 X139.785 Y147.704
G1 X166.583 Y174.503 E250.45587
G0 X166.018 Y174.503
G1 X139.785 Y148.27 E251.68979
G0 X139.785 Y148.836
G1 X165.452 Y174.503 E252.89708
G0 X164.886 Y174.503
G1 X139.785 Y149.401 E254.07778
G0 X139.785 Y149.967
G1 X164.321 Y174.503 E255.23188
G0 X163.755 Y174.503
G1 X139.785 Y150.533 E256.35936
G0 X139.785 Y151.098
G1 X163.189 Y174.503 E257.46023
G0 X162.623 Y174.503
G1 X139.785 Y151.664 E258.53448
G0 X139.785 Y152.23
G1 X162.058 Y174.503 E259.58214
G0 X161.492 Y174.503
G1 X139.785 Y152.795 E260.60319
G0 X139.785 Y153.361
G1 X160.926 Y174.503 E261.59762
G0 X160.361 Y174.503
G1 X139.785 Y153.927 E262.56546
G0 X139.785 Y154.492
G1 X159.795 Y174.503 E263.50669
G0 X159.229 Y174.503
G1 X139.785 Y155.058 E264.4213
G0 X139.309 Y155.149
G1 X158.664 Y174.503 E265.33167
G0 X158.098 Y174.503
G1 X138.744 Y155.149 E266.24203
G0 X138.178 Y155.149
G1 X157.532 Y174.503 E267.15238
G0 X156.967 Y174.503
G1 X137.612 Y155.149 E268.06276
G0 X137.047 Y155.149
G1 X156.401 Y174.503 E268.97311
G0 X155.835 Y174.503
G1 X136.481 Y155.149 E269.88346
G0 X135.915 Y155.149
G1 X155.27 Y174.503 E270.79384
G0 X155.27 Y174.944
G0 X170.543 Y174.944
G0 X170.543 Y174.503
G1 X121.536 Y125.495 E273.099
G0 X122.101 Y125.495
G1 X171.109 Y174.503 E275.40419
G0 X171.674 Y174.503
G1 X122.667 Y125.495 E277.70935
G0 X123.233 Y125.495
G1 X172.24 Y174.503 E280.01451
G0 X172.806 Y174.503
G1 X123.798 Y125.495 E282.3197
G0 X124.364 Y125.495
G1 X173.371 Y174.503 E284.62486
G0 X173.937 Y174.503
G1 X124.93 Y125.495 E286.93002
G0 X125.495 Y125.495
G1 X174.503 Y174.503 E289.23521
G0 X175.069 Y174.503
G1 X126.061 Y125.495 E291.5404
G0 X126.627 Y125.495
G1 X175.634 Y174.503 E293.84556
G0 X176.2 Y174.503
G1 X127.192 Y125.495 E296.15074
G0 X127.758 Y125.495
G1 X176.766 Y174.503 E298.45593
G0 X177.331 Y174.503
G1 X128.324 Y125.495 E300.76109
G0 X128.89 Y125.495
G1 X177.897 Y174.503 E303.06625
G0 X178.463 Y174.503
G1 X129.455 Y125.495 E305.37144
G0 X130.021 Y125.495
G1 X179.028 Y174.503 E307.6766
G0 X179.594 Y174.503
G1 X160.241 Y155.149 E308.58693
G0 X160.214 Y155.122
G1 X130.587 Y125.495 E309.9805
G0 X131.152 Y125.495
G1 X160.214 Y154.557 E311.34748
G0 X160.214 Y153.991
G1 X131.718 Y125.495 E312.68785
G0 X132.284 Y125.495
G1 X160.214 Y153.425 E314.00159
G0 X160.214 Y152.86
G1 X132.849 Y125.495 E315.28876
G0 X133.415 Y125.495
G1 X160.214 Y152.294 E316.5493
G0 X160.214 Y151.728
G1 X133.981 Y125.495 E317.78322
G0 X134.546 Y125.495
G1 X160.214 Y151.163 E318.99056
G0 X160.214 Y150.597
G1 X135.112 Y125.495 E320.17128
G0 X135.678 Y125.495
G1 X160.214 Y150.031 E321.32538
G0 X160.214 Y149.466
G1 X136.243 Y125.495 E322.4529
G0 X136.809 Y125.495
G1 X160.214 Y148.9 E323.5538
G0 X160.214 Y148.334
G1 X137.375 Y125.495 E324.62808
G0 X137.94 Y125.495
G1 X160.214 Y147.769 E325.67578
G0 X160.214 Y147.203
