;FLAVOR:Marlin
;TIME:7507
;Filament used: 5.969m
;Layer height: 0.2
;MINX:89.335
;MINY:116.547
;MINZ:0.2
;MAXX:210.665
;MAXY:183.453
;MAXZ:8.2
;Generated with Cura_SteamEngine 4.10.0
M140 S60
M105
M190 S60
M104 S200
M105
M109 S200
M82 ;absolute extrusion mode
; Ender 3 Custom Start G-code
G92 E0 ; Reset Extruder
G28 ; Home all axes
G1 Z2.0 F3000 ; Move Z Axis up little to prevent scratching of Heat Bed
G1 X0.1 Y20 Z0.3 F5000.0 ; Move to start position
G1 X0.1 Y200.0 Z0.3 F1500.0 E15 ; Draw the first line
G1 X0.4 Y200.0 Z0.3 F5000.0 ; Move to side a little
G1 X0.4 Y20 Z0.3 F1500.0 E30 ; Draw the second line
G92 E0 ; Reset Extruder
G1 Z2.0 F3000 ; Move Z Axis up little to prevent scratching of Heat Bed
G1 X5 Y20 Z0.3 F5000.0 ; Move over to prevent blob squish
G92 E0
G92 E0
G1 F1500 E-6.5
;LAYER_COUNT:42
;LAYER:0
M107
;MESH:untitled.stl
G0 F1200 X94.378 Y122.593 Z0.2
;TYPE:WALL-INNER
G1 F1500 E0
G1 F2100 X94.735 Y122.501 E0.01226
G1 X95.084 Y122.349 E0.02492
G1 X95.398 Y122.143 E0.03741
G1 X95.674 Y121.89 E0.04987
G1 X95.906 Y121.593 E0.0624
G1 X96.085 Y121.262 E0.07492
G1 X96.208 Y120.905 E0.08748
G1 X96.269 Y120.533 E0.10001
G1 X96.269 Y120.16 E0.11242
G1 X96.208 Y119.788 E0.12496
G1 X96.085 Y119.431 E0.13752
G1 X95.906 Y119.1 E0.15003
G1 X95.675 Y118.804 E0.16252
G1 X95.398 Y118.55 E0.17502
G1 X95.085 Y118.344 E0.18748
G1 X94.74 Y118.193 E0.20001
G1 X94.378 Y118.1 E0.21244
G1 X94 Y118.069 E0.22505
G1 X93.621 Y118.1 E0.2377
G1 X93.265 Y118.192 E0.24993
G1 X92.916 Y118.344 E0.26259
G1 X92.602 Y118.55 E0.27508
G1 X92.326 Y118.803 E0.28754
G1 X92.094 Y119.1 E0.30007
G1 X91.915 Y119.431 E0.31259
G1 X91.792 Y119.788 E0.32515
G1 X91.731 Y120.16 E0.33768
G1 X91.731 Y120.533 E0.35009
G1 X91.792 Y120.905 E0.36263
G1 X91.915 Y121.262 E0.37519
G1 X92.094 Y121.593 E0.3877
G1 X92.325 Y121.889 E0.40019
G1 X92.602 Y122.143 E0.41269
G1 X92.915 Y122.349 E0.42515
G1 X93.26 Y122.5 E0.43768
G1 X93.623 Y122.593 E0.45014
G1 X94 Y122.623 E0.46272
G1 X94.378 Y122.593 E0.47533
G0 F1200 X94.312 Y122.197
;TYPE:WALL-OUTER
G1 F2100 X94.604 Y122.122 E0.48536
G1 X94.893 Y121.996 E0.49585
G1 X95.152 Y121.826 E0.50615
G1 X95.379 Y121.618 E0.51639
G1 X95.57 Y121.373 E0.52672
G1 X95.718 Y121.1 E0.53705
G1 X95.819 Y120.807 E0.54736
G1 X95.869 Y120.501 E0.55767
G1 X95.869 Y120.192 E0.56795
G1 X95.819 Y119.886 E0.57826
G1 X95.718 Y119.593 E0.58857
G1 X95.57 Y119.32 E0.5989
G1 X95.38 Y119.076 E0.60918
G1 X95.152 Y118.867 E0.61947
G1 X94.893 Y118.697 E0.62978
G1 X94.609 Y118.572 E0.6401
G1 X94.311 Y118.496 E0.65033
G1 X94 Y118.47 E0.66071
G1 X93.688 Y118.496 E0.67112
G1 X93.396 Y118.571 E0.68115
G1 X93.107 Y118.697 E0.69163
G1 X92.848 Y118.867 E0.70194
G1 X92.621 Y119.075 E0.71218
G1 X92.43 Y119.32 E0.72251
G1 X92.282 Y119.593 E0.73284
G1 X92.181 Y119.886 E0.74315
G1 X92.131 Y120.192 E0.75346
G1 X92.131 Y120.501 E0.76374
G1 X92.181 Y120.807 E0.77405
G1 X92.282 Y121.1 E0.78436
G1 X92.43 Y121.373 E0.79468
G1 X92.62 Y121.617 E0.80497
G1 X92.848 Y121.826 E0.81526
G1 X93.107 Y121.996 E0.82556
G1 X93.391 Y122.121 E0.83588
G1 X93.689 Y122.197 E0.84611
G1 X94 Y122.222 E0.85649
G1 X94.312 Y122.197 E0.8669
G0 F1200 X94.384 Y122.63
G1 F1500 E-5.6331
G0 F1200 X95.515 Y122.294
G0 X94.74 Y121.032
G0 X98.583 Y121.031
G0 X98.653 Y123.694
G0 X201.348 Y123.694
G0 X201.415 Y121.03
G0 X205.259 Y121.031
G0 X204.484 Y122.294
G0 X205.623 Y122.593
;TYPE:WALL-INNER
G1 F1500 E0.8669
G1 F2100 X206 Y122.623 E0.87948
G1 X206.378 Y122.593 E0.89209
G1 X206.735 Y122.501 E0.90435
G1 X207.084 Y122.349 E0.91701
G1 X207.398 Y122.143 E0.9295
G1 X207.674 Y121.89 E0.94196
G1 X207.906 Y121.593 E0.95449
G1 X208.085 Y121.262 E0.96701
G1 X208.208 Y120.905 E0.97956
G1 X208.269 Y120.533 E0.9921
G1 X208.269 Y120.16 E1.00451
G1 X208.208 Y119.788 E1.01705
G1 X208.085 Y119.431 E1.02961
G1 X207.906 Y119.1 E1.04212
G1 X207.675 Y118.804 E1.05461
G1 X207.398 Y118.55 E1.06711
G1 X207.085 Y118.344 E1.07957
G1 X206.74 Y118.193 E1.0921
G1 X206.378 Y118.1 E1.10453
G1 X206 Y118.069 E1.11714
G1 X205.621 Y118.1 E1.12979
G1 X205.265 Y118.192 E1.14202
G1 X204.916 Y118.344 E1.15468
G1 X204.602 Y118.55 E1.16717
G1 X204.326 Y118.803 E1.17963
G1 X204.094 Y119.1 E1.19216
G1 X203.915 Y119.431 E1.20468
G1 X203.792 Y119.788 E1.21724
G1 X203.731 Y120.16 E1.22977
G1 X203.731 Y120.533 E1.24218
G1 X203.792 Y120.905 E1.25472
G1 X203.915 Y121.262 E1.26728
G1 X204.094 Y121.593 E1.27979
G1 X204.325 Y121.889 E1.29228
G1 X204.602 Y122.143 E1.30478
G1 X204.915 Y122.349 E1.31724
G1 X205.26 Y122.5 E1.32977
G1 X205.623 Y122.593 E1.34223
G0 F1200 X205.689 Y122.197
;TYPE:WALL-OUTER
G1 F2100 X206 Y122.222 E1.35261
G1 X206.312 Y122.197 E1.36302
G1 X206.604 Y122.122 E1.37305
G1 X206.893 Y121.996 E1.38353
G1 X207.152 Y121.826 E1.39384
G1 X207.379 Y121.618 E1.40408
G1 X207.57 Y121.373 E1.41441
G1 X207.718 Y121.1 E1.42474
G1 X207.819 Y120.807 E1.43505
G1 X207.869 Y120.501 E1.44536
G1 X207.869 Y120.192 E1.45564
G1 X207.819 Y119.886 E1.46595
G1 X207.718 Y119.593 E1.47626
G1 X207.57 Y119.32 E1.48659
G1 X207.38 Y119.076 E1.49687
G1 X207.152 Y118.867 E1.50716
G1 X206.893 Y118.697 E1.51746
G1 X206.609 Y118.572 E1.52778
G1 X206.311 Y118.496 E1.53801
G1 X206 Y118.47 E1.54839
G1 X205.688 Y118.496 E1.5588
G1 X205.396 Y118.571 E1.56883
G1 X205.107 Y118.697 E1.57932
G1 X204.848 Y118.867 E1.58962
G1 X204.621 Y119.075 E1.59986
G1 X204.43 Y119.32 E1.61019
G1 X204.282 Y119.593 E1.62052
G1 X204.181 Y119.886 E1.63083
G1 X204.131 Y120.192 E1.64114
G1 X204.131 Y120.501 E1.65142
G1 X204.181 Y120.807 E1.66173
G1 X204.282 Y121.1 E1.67204
G1 X204.43 Y121.373 E1.68237
G1 X204.62 Y121.617 E1.69266
G1 X204.848 Y121.826 E1.70294
G1 X205.107 Y121.996 E1.71325
G1 X205.391 Y122.121 E1.72357
G1 X205.689 Y122.197 E1.7338
G0 F1200 X205.617 Y122.631
G1 F1500 E-4.7662
G0 F1200 X206 Y122.814
G0 X206 Y121.355
G0 X206 Y178.644
G0 X206 Y177.185
G0 X204.701 Y177.985
G0 X204.229 Y178.496
G0 X203.948 Y179.135
G0 X203.892 Y179.827
G0 X204.062 Y180.504
G0 X204.915 Y181.656
;TYPE:WALL-INNER
G1 F1500 E1.7338
G1 F2100 X205.26 Y181.807 E1.74632
G1 X205.623 Y181.9 E1.75879
G1 X206 Y181.93 E1.77136
G1 X206.378 Y181.9 E1.78398
G1 X206.735 Y181.808 E1.79624
G1 X207.084 Y181.656 E1.8089
G1 X207.398 Y181.45 E1.82139
G1 X207.674 Y181.197 E1.83384
G1 X207.906 Y180.9 E1.84638
G1 X208.085 Y180.569 E1.85889
G1 X208.208 Y180.212 E1.87145
G1 X208.269 Y179.84 E1.88399
G1 X208.269 Y179.467 E1.8964
G1 X208.208 Y179.095 E1.90893
G1 X208.085 Y178.738 E1.92149
G1 X207.906 Y178.407 E1.93401
G1 X207.675 Y178.111 E1.9465
G1 X207.398 Y177.857 E1.959
G1 X207.085 Y177.651 E1.97146
G1 X206.74 Y177.5 E1.98399
G1 X206.378 Y177.407 E1.99642
G1 X206 Y177.376 E2.00903
G1 X205.621 Y177.407 E2.02168
G1 X205.265 Y177.499 E2.03391
G1 X204.916 Y177.651 E2.04657
G1 X204.602 Y177.857 E2.05906
G1 X204.326 Y178.11 E2.07151
G1 X204.094 Y178.407 E2.08405
G1 X203.915 Y178.738 E2.09656
G1 X203.792 Y179.095 E2.10912
G1 X203.731 Y179.467 E2.12166
G1 X203.731 Y179.84 E2.13407
G1 X203.792 Y180.212 E2.1466
G1 X203.915 Y180.569 E2.15916
G1 X204.094 Y180.9 E2.17168
G1 X204.325 Y181.196 E2.18417
G1 X204.602 Y181.45 E2.19667
G1 X204.915 Y181.656 E2.20913
G0 F1200 X205.107 Y181.303
;TYPE:WALL-OUTER
G1 F2100 X205.391 Y181.428 E2.21945
G1 X205.689 Y181.504 E2.22968
G1 X206 Y181.529 E2.24006
G1 X206.312 Y181.504 E2.25047
G1 X206.604 Y181.429 E2.26049
G1 X206.893 Y181.303 E2.27098
G1 X207.152 Y181.133 E2.28128
G1 X207.379 Y180.925 E2.29152
G1 X207.57 Y180.68 E2.30186
G1 X207.718 Y180.407 E2.31219
G1 X207.819 Y180.114 E2.32249
G1 X207.869 Y179.808 E2.33281
G1 X207.869 Y179.499 E2.34308
G1 X207.819 Y179.193 E2.3534
G1 X207.718 Y178.9 E2.3637
G1 X207.57 Y178.627 E2.37403
G1 X207.38 Y178.383 E2.38432
G1 X207.152 Y178.174 E2.39461
G1 X206.893 Y178.004 E2.40491
G1 X206.609 Y177.879 E2.41523
G1 X206.311 Y177.803 E2.42546
G1 X206 Y177.777 E2.43584
G1 X205.688 Y177.803 E2.44625
G1 X205.396 Y177.878 E2.45628
G1 X205.107 Y178.004 E2.46677
G1 X204.848 Y178.174 E2.47707
G1 X204.621 Y178.382 E2.48731
G1 X204.43 Y178.627 E2.49764
G1 X204.282 Y178.9 E2.50797
G1 X204.181 Y179.193 E2.51828
G1 X204.131 Y179.499 E2.52859
G1 X204.131 Y179.808 E2.53887
G1 X204.181 Y180.114 E2.54918
G1 X204.282 Y180.407 E2.55949
G1 X204.43 Y180.68 E2.56982
G1 X204.62 Y180.924 E2.5801
G1 X204.848 Y181.133 E2.59039
G1 X205.107 Y181.303 E2.60069
G0 F1200 X204.897 Y181.689
G1 F1500 E-3.89931
G0 F1200 X203.54 Y179.856
G0 X204.995 Y179.739
G0 X201.41 Y177.667
G0 X201.347 Y176.306
G0 X198.97 Y176.257
G0 X161.415 Y154.561
G0 X159.98 Y154.561
G0 X160.15 Y156.488
;TYPE:WALL-INNER
G1 F1500 E2.60069
G1 F2100 X163.85 Y156.488 E2.72376
G1 X163.85 Y147.288 E3.02975
G1 X160.15 Y147.288 E3.15281
G1 X160.15 Y156.488 E3.45881
G0 F1200 X160.55 Y156.088
;TYPE:WALL-OUTER
G1 F2100 X163.45 Y156.088 E3.55526
G1 X163.45 Y147.688 E3.83465
G1 X160.55 Y147.688 E3.9311
G1 X160.55 Y156.088 E4.21049
G1 F1500 E-2.28951
G0 F1200 X160.25 Y156.088
G0 X159.96 Y156.488
G0 X161.403 Y155.235
G0 X138.597 Y155.235
G0 X140.04 Y156.488
G0 X139.85 Y156.488
;TYPE:WALL-INNER
G1 F1500 E4.21049
G1 F2100 X139.85 Y147.288 E4.51648
G1 X136.15 Y147.288 E4.63954
G1 X136.15 Y156.488 E4.94553
G1 X139.85 Y156.488 E5.0686
G0 F1200 X139.45 Y156.088
;TYPE:WALL-OUTER
G1 F2100 X139.45 Y147.688 E5.34798
G1 X136.55 Y147.688 E5.44444
G1 X136.55 Y156.088 E5.72382
G1 X139.45 Y156.088 E5.82028
G1 F1500 E-0.67972
G0 F1200 X139.75 Y156.088
G0 X136.322 Y156.316
G0 X135.98 Y154.561
G0 X137.415 Y154.561
G0 X100.868 Y176.256
G0 X98.652 Y176.306
G0 X98.59 Y177.609
G0 X95.005 Y179.739
G0 X96.46 Y179.856
G0 X95.084 Y181.656
;TYPE:WALL-INNER
G1 F1500 E5.82028
G1 F2100 X95.398 Y181.45 E5.83277
G1 X95.674 Y181.197 E5.84522
G1 X95.906 Y180.9 E5.85775
G1 X96.085 Y180.569 E5.87027
G1 X96.208 Y180.212 E5.88283
G1 X96.269 Y179.84 E5.89537
G1 X96.269 Y179.467 E5.90777
G1 X96.208 Y179.095 E5.92031
G1 X96.085 Y178.738 E5.93287
G1 X95.906 Y178.407 E5.94539
G1 X95.675 Y178.111 E5.95787
G1 X95.398 Y177.857 E5.97037
G1 X95.085 Y177.651 E5.98284
G1 X94.74 Y177.5 E5.99536
G1 X94.378 Y177.407 E6.00779
G1 X94 Y177.376 E6.02041
G1 X93.621 Y177.407 E6.03306
G1 X93.265 Y177.499 E6.04529
G1 X92.916 Y177.651 E6.05795
G1 X92.602 Y177.857 E6.07044
G1 X92.326 Y178.11 E6.08289
G1 X92.094 Y178.407 E6.09542
G1 X91.915 Y178.738 E6.10794
G1 X91.792 Y179.095 E6.1205
G1 X91.731 Y179.467 E6.13304
G1 X91.731 Y179.84 E6.14544
G1 X91.792 Y180.212 E6.15798
G1 X91.915 Y180.569 E6.17054
G1 X92.094 Y180.9 E6.18306
G1 X92.325 Y181.196 E6.19554
G1 X92.602 Y181.45 E6.20804
G1 X92.915 Y181.656 E6.22051
G1 X93.26 Y181.807 E6.23303
G1 X93.623 Y181.9 E6.2455
G1 X94 Y181.93 E6.25807
G1 X94.378 Y181.9 E6.27069
G1 X94.735 Y181.808 E6.28295
G1 X95.084 Y181.656 E6.29561
G0 F1200 X94.893 Y181.303
;TYPE:WALL-OUTER
G1 F2100 X95.152 Y181.133 E6.30591
G1 X95.379 Y180.925 E6.31615
G1 X95.57 Y180.68 E6.32649
G1 X95.718 Y180.407 E6.33681
G1 X95.819 Y180.114 E6.34712
G1 X95.869 Y179.808 E6.35744
G1 X95.869 Y179.499 E6.36771
G1 X95.819 Y179.193 E6.37803
G1 X95.718 Y178.9 E6.38833
G1 X95.57 Y178.627 E6.39866
G1 X95.38 Y178.383 E6.40895
G1 X95.152 Y178.174 E6.41923
G1 X94.893 Y178.004 E6.42954
G1 X94.609 Y177.879 E6.43986
G1 X94.311 Y177.803 E6.45009
G1 X94 Y177.777 E6.46047
G1 X93.688 Y177.803 E6.47088
G1 X93.396 Y177.878 E6.48091
G1 X93.107 Y178.004 E6.49139
G1 X92.848 Y178.174 E6.5017
G1 X92.621 Y178.382 E6.51194
G1 X92.43 Y178.627 E6.52227
G1 X92.282 Y178.9 E6.5326
G1 X92.181 Y179.193 E6.54291
G1 X92.131 Y179.499 E6.55322
G1 X92.131 Y179.808 E6.5635
G1 X92.181 Y180.114 E6.57381
G1 X92.282 Y180.407 E6.58412
G1 X92.43 Y180.68 E6.59445
G1 X92.62 Y180.924 E6.60473
G1 X92.848 Y181.133 E6.61502
G1 X93.107 Y181.303 E6.62532
G1 X93.391 Y181.428 E6.63564
G1 X93.689 Y181.504 E6.64587
G1 X94 Y181.529 E6.65625
G1 X94.312 Y181.504 E6.66666
G1 X94.604 Y181.429 E6.67669
G1 X94.893 Y181.303 E6.68717
G0 F1200 X95.102 Y181.689
G1 F1500 E0.18717
G0 F1200 X95.815 Y181.327
G0 X97.599 Y181.326
G0 X97.571 Y175.225
G0 X202.428 Y175.225
G0 X202.601 Y183.053
;TYPE:WALL-INNER
G1 F1500 E6.68717
G1 F2100 X202.601 Y182.854 E6.69379
G1 X202.6 Y175.053 E6.95326
G1 X97.598 Y175.053 E10.44564
G1 X97.399 Y175.053 E10.45225
G1 X97.399 Y175.252 E10.45654
G1 X97.4 Y183.052 E10.71597
G1 X90.8 Y183.053 E10.93548
G1 X90.601 Y183.053 E10.9421
G1 X90.601 Y182.854 E10.94638
G1 X90.6 Y116.948 E13.13843
G1 X97.2 Y116.947 E13.35794
G1 X97.399 Y116.947 E13.36456
G1 X97.399 Y117.146 E13.36884
G1 X97.4 Y124.947 E13.62831
G1 X202.402 Y124.947 E17.12069
G1 X202.601 Y124.947 E17.12731
G1 X202.601 Y124.748 E17.13159
G1 X202.6 Y116.948 E17.39102
G1 X209.2 Y116.947 E17.61053
G1 X209.399 Y116.947 E17.61715
G1 X209.399 Y117.146 E17.62144
G1 X209.4 Y183.052 E19.81348
G1 X202.8 Y183.053 E20.033
G1 X202.601 Y183.053 E20.03728
G0 F1200 X202.201 Y183.453
;TYPE:WALL-OUTER
G1 F2100 X202.2 Y175.453 E20.30336
G1 X97.799 Y175.453 E23.77575
G1 X97.8 Y183.452 E24.0418
G1 X90.201 Y183.453 E24.29454
G1 X90.2 Y116.548 E26.51981
G1 X97.799 Y116.547 E26.77255
G1 X97.8 Y124.547 E27.03864
G1 X202.201 Y124.547 E30.51103
G1 X202.2 Y116.548 E30.77707
G1 X209.799 Y116.547 E31.02982
G1 X209.8 Y183.452 E33.25509
G1 X202.201 Y183.453 E33.50783
G0 F1200 X202.471 Y183.183
G0 X202.991 Y182.943
G0 X202.991 Y182.663
;TYPE:SKIN
G1 F2100 X202.99 Y174.663 E33.77391
G1 X97.009 Y174.663 E37.29886
G1 X97.01 Y182.662 E37.5649
G1 X90.991 Y182.663 E37.7651
G1 X90.99 Y117.338 E39.93781
G1 X97.009 Y117.337 E40.13801
G1 X97.01 Y125.337 E40.40409
G1 X202.991 Y125.337 E43.92903
G1 X202.99 Y117.338 E44.19508
G1 X209.009 Y117.337 E44.39527
G1 X209.01 Y182.662 E46.56799
G1 X202.991 Y182.663 E46.76818
G1 F1500 E40.26818
G0 F1200 X202.991 Y182.943
G0 X202.81 Y181.272
G0 X203.774 Y180.749
G0 X204.245 Y181.272
G0 X204.038 Y181.461
G1 F1500 E46.76818
G1 F2100 X204.362 Y181.758 E46.7828
G1 X204.728 Y182 E46.79739
G1 X205.133 Y182.177 E46.81209
G1 X205.559 Y182.286 E46.82672
G1 X206 Y182.322 E46.84144
G1 X206.442 Y182.286 E46.85619
G1 X206.862 Y182.178 E46.87061
G1 X207.27 Y182.001 E46.8854
G1 X207.638 Y181.758 E46.90007
G1 X207.961 Y181.462 E46.91464
G1 X208.233 Y181.115 E46.92931
G1 X208.444 Y180.727 E46.944
G1 X208.588 Y180.308 E46.95873
G1 X208.659 Y179.871 E46.97346
G1 X208.659 Y179.436 E46.98792
G1 X208.588 Y178.999 E47.00265
G1 X208.444 Y178.58 E47.01739
G1 X208.233 Y178.192 E47.03208
G1 X207.962 Y177.846 E47.04669
G1 X207.638 Y177.549 E47.06131
G1 X207.272 Y177.307 E47.07591
G1 X206.867 Y177.13 E47.09061
G1 X206.443 Y177.021 E47.10517
G1 X206 Y176.984 E47.11995
G1 X205.556 Y177.021 E47.13477
G1 X205.138 Y177.129 E47.14913
G1 X204.73 Y177.306 E47.16392
G1 X204.362 Y177.549 E47.17859
G1 X204.039 Y177.845 E47.19316
G1 X203.767 Y178.192 E47.20783
G1 X203.556 Y178.58 E47.22252
G1 X203.412 Y178.999 E47.23725
G1 X203.341 Y179.436 E47.25198
G1 X203.341 Y179.871 E47.26645
G1 X203.412 Y180.308 E47.28117
G1 X203.556 Y180.727 E47.29591
G1 X203.767 Y181.115 E47.3106
G1 X204.038 Y181.461 E47.32521
G1 F1500 E40.82521
G0 F1200 X204.245 Y181.272
G0 X203.54 Y179.856
G0 X204.995 Y179.739
G0 X201.409 Y177.519
G0 X201.347 Y176.306
G0 X199.368 Y176.256
G0 X162.585 Y153.489
G0 X164.02 Y153.489
G0 X163.96 Y156.628
G0 X164.24 Y156.878
G1 F1500 E47.32521
G1 F2100 X164.24 Y146.898 E47.65715
G1 X159.76 Y146.898 E47.80616
G1 X159.76 Y156.878 E48.13809
G1 X164.24 Y156.878 E48.2871
G1 F1500 E41.7871
G0 F1200 X163.96 Y156.628
G0 X159.96 Y156.628
G0 X161.403 Y155.235
G0 X138.597 Y155.235
G0 X140.04 Y156.628
G0 X140.24 Y156.878
G1 F1500 E48.2871
G1 F2100 X140.24 Y146.898 E48.61903
G1 X135.76 Y146.898 E48.76804
G1 X135.76 Y156.878 E49.09998
G1 X140.24 Y156.878 E49.24898
G1 F1500 E42.74898
G0 F1200 X139.96 Y156.628
G0 X136.322 Y156.316
G0 X135.98 Y154.561
G0 X137.415 Y154.561
G0 X100.351 Y176.257
G0 X98.652 Y176.306
G0 X98.59 Y177.288
G0 X94.978 Y179.404
G0 X96.393 Y179.047
G0 X96.379 Y179.849
G0 X96.659 Y179.871
G1 F1500 E49.24898
G1 F2100 X96.659 Y179.436 E49.26345
G1 X96.588 Y178.999 E49.27817
G1 X96.444 Y178.58 E49.29291
G1 X96.233 Y178.192 E49.3076
G1 X95.962 Y177.846 E49.32222
G1 X95.638 Y177.549 E49.33684
G1 X95.272 Y177.307 E49.35143
G1 X94.867 Y177.13 E49.36613
G1 X94.443 Y177.021 E49.38069
G1 X94 Y176.984 E49.39548
